;FLAVOR:Marlin
;TIME:31001
;Filament used: 14.788m
;Layer height: 0.12
;MINX:36.381
;MINY:44.803
;MINZ:0.12
;MAXX:224.381
;MAXY:207.253
;MAXZ:30.72
;POSTPROCESSED
;Generated with Cura_SteamEngine 5.3.0
;
;

M82 ;absolute extrusion mode
M140 S50 ; start heating the bed
M104 S200 T0 ; start heating the hotend
M109 S200 T0 ; wait for hotend to hit target temp
M190 S50 ; wait for bed temp (should be there)
M105 ; report temp

M201 X500.00 Y500.00 Z100.00 E5000.00 ;Setup machine max acceleration
M203 X500.00 Y500.00 Z10.00 E50.00 ;Setup machine max feedrate
M204 P500.00 R1000.00 T500.00 ;Setup Print/Retract/Travel acceleration
M205 X8.00 Y8.00 Z0.40 E5.00 ;Setup Jerk
M220 S100 ;Reset Feedrate
M221 S100 ;Reset Flowrate

G28 ;Home

G92 E0 ;Reset Extruder
G1 Z2.0 F3000 ;Move Z Axis up
G1 X10.1 Y20 Z0.28 F5000.0 ;Move to start position
G1 X10.1 Y200.0 Z0.28 F1500.0 E20 ;Draw the first line (was E15)
G1 X10.4 Y200.0 Z0.28 F5000.0 ;Move to side a little
G1 X10.4 Y40 Z0.28 F1500.0 E30 ;Draw the second line (was Y20)
G92 E0 ;Reset Extruder
G1 Z2.0 F3000 ;Move Z Axis up
G92 E0
G92 E0
G1 F2700 E-5
;LAYER_COUNT:256
;LAYER:0
M107
G0 F6000 X41.056 Y47.817 Z0.12
;TYPE:SKIRT
G1 F2700 E0
G1 F1200 X41.788 Y47.288 E0.01802
G1 X42.564 Y46.826 E0.03605
G1 X43.378 Y46.435 E0.05407
G1 X44.223 Y46.116 E0.07209
G1 X45.093 Y45.874 E0.09011
G1 X45.981 Y45.71 E0.10813
G1 X47.104 Y45.616 E0.13062
G1 X47.711 Y45.603 E0.14274
G1 X212.82 Y45.604 E3.43767
G1 X213.518 Y45.614 E3.4516
G1 X214.42 Y45.667 E3.46963
G1 X215.313 Y45.799 E3.48764
G1 X216.191 Y46.01 E3.50566
G1 X217.047 Y46.298 E3.52369
G1 X217.874 Y46.66 E3.5417
G1 X218.666 Y47.095 E3.55973
G1 X219.417 Y47.597 E3.57776
G1 X220.12 Y48.164 E3.59579
G1 X220.77 Y48.791 E3.61381
G1 X221.362 Y49.473 E3.63183
G1 X221.892 Y50.204 E3.64985
G1 X222.354 Y50.98 E3.66787
G1 X222.747 Y51.793 E3.68589
G1 X223.065 Y52.638 E3.70391
G1 X223.308 Y53.508 E3.72194
G1 X223.473 Y54.396 E3.73996
G1 X223.568 Y55.526 E3.76259
G1 X223.581 Y56.133 E3.77471
G1 X223.58 Y168.808 E6.02326
G1 X223.57 Y169.537 E6.03781
G1 X223.518 Y170.438 E6.05582
G1 X223.399 Y171.261 E6.07241
G1 X223.186 Y172.408 E6.09569
G1 X222.749 Y174.957 E6.1473
G1 X222.387 Y177.505 E6.19866
G1 X222.1 Y180.032 E6.24942
G1 X221.887 Y182.534 E6.29953
G1 X221.744 Y185.052 E6.34986
G1 X221.66 Y189.016 E6.42898
G1 X221.659 Y195.657 E6.56151
G1 X221.649 Y196.384 E6.57602
G1 X221.597 Y197.286 E6.59405
G1 X221.465 Y198.179 E6.61206
G1 X221.254 Y199.058 E6.6301
G1 X220.967 Y199.914 E6.64812
G1 X220.605 Y200.741 E6.66613
G1 X220.171 Y201.533 E6.68416
G1 X219.669 Y202.284 E6.70218
G1 X219.103 Y202.987 E6.7202
G1 X218.476 Y203.638 E6.73823
G1 X217.795 Y204.23 E6.75624
G1 X217.064 Y204.76 E6.77426
G1 X216.288 Y205.223 E6.79229
G1 X215.475 Y205.616 E6.81031
G1 X214.63 Y205.936 E6.82834
G1 X213.761 Y206.179 E6.84635
G1 X212.873 Y206.344 E6.86437
G1 X211.737 Y206.44 E6.88713
G1 X211.13 Y206.453 E6.89924
G1 X52.118 Y206.452 E10.0725
G1 X51.421 Y206.443 E10.08641
G1 X50.52 Y206.392 E10.10442
G1 X49.626 Y206.26 E10.12245
G1 X48.748 Y206.051 E10.14046
G1 X47.891 Y205.764 E10.1585
G1 X47.064 Y205.403 E10.17651
G1 X46.271 Y204.97 E10.19454
G1 X45.52 Y204.468 E10.21256
G1 X44.816 Y203.903 E10.23058
G1 X44.165 Y203.277 E10.2486
G1 X43.572 Y202.596 E10.26662
G1 X43.041 Y201.865 E10.28465
G1 X42.578 Y201.09 E10.30267
G1 X42.184 Y200.277 E10.3207
G1 X41.864 Y199.432 E10.33873
G1 X41.62 Y198.563 E10.35674
G1 X41.454 Y197.675 E10.37477
G1 X41.358 Y196.548 E10.39734
G1 X41.325 Y195.432 E10.41962
G1 X41.21 Y192.819 E10.47182
G1 X41.026 Y190.264 E10.52294
G1 X40.771 Y187.725 E10.57386
G1 X40.448 Y185.219 E10.62428
G1 X40.055 Y182.73 E10.67457
G1 X39.58 Y180.198 E10.72598
G1 X39.05 Y177.748 E10.776
G1 X38.445 Y175.287 E10.82658
G1 X37.731 Y172.71 E10.87994
G1 X37.603 Y172.274 E10.88901
G1 X37.387 Y171.397 E10.90703
G1 X37.25 Y170.504 E10.92506
G1 X37.196 Y169.713 E10.94089
G1 X37.181 Y169.073 E10.95366
G1 X37.19 Y100.215 E12.3278
G1 X37.181 Y99.139 E12.34927
G1 X37.182 Y56.324 E13.20369
G1 X37.192 Y55.659 E13.21696
G1 X37.246 Y54.757 E13.235
G1 X37.379 Y53.864 E13.25301
G1 X37.59 Y52.986 E13.27103
G1 X37.879 Y52.13 E13.28906
G1 X38.242 Y51.303 E13.30709
G1 X38.676 Y50.512 E13.32509
G1 X39.179 Y49.761 E13.34313
G1 X39.747 Y49.059 E13.36115
G1 X40.374 Y48.409 E13.37917
G1 X41.056 Y47.817 E13.3972
G0 F6000 X40.794 Y47.515
G1 F1200 X41.583 Y46.944 E13.41663
G1 X42.359 Y46.482 E13.43465
G1 X43.205 Y46.074 E13.4534
G1 X44.116 Y45.731 E13.47282
G1 X45.02 Y45.481 E13.49154
G1 X45.948 Y45.311 E13.51037
G1 X47.095 Y45.216 E13.53334
G1 X47.711 Y45.203 E13.54563
G1 X212.826 Y45.204 E16.84068
G1 X213.541 Y45.215 E16.85495
G1 X214.478 Y45.271 E16.87368
G1 X215.371 Y45.403 E16.8917
G1 X216.319 Y45.631 E16.91115
G1 X217.175 Y45.919 E16.92918
G1 X218.067 Y46.309 E16.94861
G1 X218.859 Y46.744 E16.96664
G1 X219.639 Y47.264 E16.98535
G1 X220.398 Y47.876 E17.0048
G1 X221.048 Y48.503 E17.02283
G1 X221.686 Y49.238 E17.04225
G1 X222.236 Y49.999 E17.06099
G1 X222.698 Y50.775 E17.07901
G1 X223.121 Y51.652 E17.09844
G1 X223.45 Y52.53 E17.11715
G1 X223.701 Y53.435 E17.13589
G1 X223.872 Y54.362 E17.1547
G1 X223.967 Y55.492 E17.17733
G1 X223.981 Y56.133 E17.19013
G1 X223.98 Y168.813 E19.43878
G1 X223.969 Y169.56 E19.45369
G1 X223.914 Y170.495 E19.47238
G1 X223.792 Y171.334 E19.4893
G1 X223.579 Y172.481 E19.51258
G1 X223.143 Y175.025 E19.56409
G1 X222.783 Y177.561 E19.61521
G1 X222.499 Y180.066 E19.66552
G1 X222.285 Y182.568 E19.71563
G1 X222.144 Y185.06 E19.76544
G1 X222.06 Y189.024 E19.84456
G1 X222.059 Y195.663 E19.97705
G1 X222.048 Y196.407 E19.9919
G1 X221.993 Y197.344 E20.01063
G1 X221.861 Y198.237 E20.02864
G1 X221.643 Y199.151 E20.0474
G1 X221.346 Y200.041 E20.06612
G1 X220.956 Y200.933 E20.08555
G1 X220.504 Y201.755 E20.10427
G1 X219.981 Y202.535 E20.12301
G1 X219.415 Y203.238 E20.14102
G1 X218.738 Y203.94 E20.16048
G1 X218.03 Y204.554 E20.17918
G1 X217.269 Y205.104 E20.19792
G1 X216.493 Y205.567 E20.21595
G1 X215.617 Y205.99 E20.23537
G1 X214.772 Y206.31 E20.2534
G1 X213.834 Y206.572 E20.27283
G1 X212.907 Y206.743 E20.29165
G1 X211.771 Y206.839 E20.3144
G1 X211.13 Y206.853 E20.32719
G1 X52.113 Y206.852 E23.50055
G1 X51.398 Y206.842 E23.51482
G1 X50.462 Y206.788 E23.53353
G1 X49.568 Y206.656 E23.55156
G1 X48.655 Y206.44 E23.57029
G1 X47.731 Y206.131 E23.58973
G1 X46.904 Y205.77 E23.60774
G1 X46.049 Y205.303 E23.62718
G1 X45.298 Y204.801 E23.6452
G1 X44.566 Y204.215 E23.66392
G1 X43.863 Y203.54 E23.68337
G1 X43.27 Y202.859 E23.70139
G1 X42.717 Y202.1 E23.72013
G1 X42.218 Y201.264 E23.73956
G1 X41.81 Y200.419 E23.75828
G1 X41.49 Y199.574 E23.77631
G1 X41.227 Y198.637 E23.79573
G1 X41.055 Y197.709 E23.81457
G1 X40.958 Y196.56 E23.83758
G1 X40.925 Y195.444 E23.85986
G1 X40.81 Y192.837 E23.91194
G1 X40.627 Y190.293 E23.96284
G1 X40.373 Y187.765 E24.01354
G1 X40.051 Y185.27 E24.06374
G1 X39.66 Y182.792 E24.11381
G1 X39.187 Y180.272 E24.16497
G1 X38.66 Y177.833 E24.21477
G1 X38.057 Y175.382 E24.26514
G1 X37.347 Y172.823 E24.31814
G1 X37.215 Y172.37 E24.32755
G1 X36.992 Y171.458 E24.34629
G1 X36.851 Y170.531 E24.365
G1 X36.796 Y169.722 E24.38118
G1 X36.781 Y169.073 E24.39414
G1 X36.79 Y100.215 E25.76827
G1 X36.781 Y99.139 E25.78975
G1 X36.782 Y56.318 E26.64429
G1 X36.793 Y55.635 E26.65792
G1 X36.85 Y54.698 E26.67665
G1 X36.983 Y53.805 E26.69467
G1 X37.211 Y52.858 E26.71411
G1 X37.5 Y52.002 E26.73214
G1 X37.891 Y51.111 E26.75155
G1 X38.325 Y50.32 E26.76956
G1 X38.868 Y49.509 E26.78904
G1 X39.459 Y48.781 E26.80775
G1 X40.086 Y48.131 E26.82577
G1 X40.794 Y47.515 E26.8445
G0 F6000 X40.531 Y47.213
G1 F1200 X41.378 Y46.6 E26.86537
G1 X42.154 Y46.138 E26.88339
G1 X43.064 Y45.7 E26.90354
G1 X44.009 Y45.345 E26.92369
G1 X44.913 Y45.095 E26.94241
G1 X45.915 Y44.912 E26.96273
G1 X47.062 Y44.817 E26.9857
G1 X47.711 Y44.803 E26.99865
G1 X212.832 Y44.804 E30.29382
G1 X213.565 Y44.816 E30.30845
G1 X214.536 Y44.875 E30.32787
G1 X215.465 Y45.014 E30.34661
G1 X216.413 Y45.242 E30.36607
G1 X217.335 Y45.552 E30.38548
G1 X218.26 Y45.958 E30.40564
G1 X219.052 Y46.393 E30.42367
G1 X219.861 Y46.931 E30.44306
G1 X220.676 Y47.588 E30.46395
G1 X221.326 Y48.215 E30.48197
G1 X221.988 Y48.976 E30.5021
G1 X222.58 Y49.794 E30.52225
G1 X223.042 Y50.57 E30.54028
G1 X223.496 Y51.512 E30.56114
G1 X223.825 Y52.39 E30.57986
G1 X224.094 Y53.362 E30.59998
G1 X224.271 Y54.328 E30.61958
G1 X224.366 Y55.458 E30.64221
G1 X224.381 Y56.133 E30.65568
G1 X224.38 Y168.819 E32.90445
G1 X224.369 Y169.566 E32.91936
G1 X224.31 Y170.553 E32.9391
G1 X224.185 Y171.407 E32.95632
G1 X223.972 Y172.554 E32.9796
G1 X223.537 Y175.093 E33.03101
G1 X223.179 Y177.617 E33.08188
G1 X222.898 Y180.1 E33.13175
G1 X222.683 Y182.602 E33.18186
G1 X222.544 Y185.068 E33.23115
G1 X222.46 Y189.032 E33.31028
G1 X222.459 Y195.669 E33.44272
G1 X222.447 Y196.43 E33.45791
G1 X222.389 Y197.402 E33.47734
G1 X222.257 Y198.295 E33.49536
G1 X222.032 Y199.244 E33.51482
G1 X221.713 Y200.201 E33.53495
G1 X221.307 Y201.126 E33.55511
G1 X220.855 Y201.948 E33.57383
G1 X220.293 Y202.786 E33.59397
G1 X219.703 Y203.516 E33.6127
G1 X219.026 Y204.218 E33.63216
G1 X218.292 Y204.856 E33.65157
G1 X217.474 Y205.448 E33.67172
G1 X216.698 Y205.911 E33.68975
G1 X215.759 Y206.364 E33.71056
G1 X214.914 Y206.684 E33.72859
G1 X213.907 Y206.965 E33.74945
G1 X212.941 Y207.142 E33.76905
G1 X211.805 Y207.238 E33.7918
G1 X211.13 Y207.253 E33.80528
G1 X52.107 Y207.252 E36.97875
G1 X51.375 Y207.241 E36.99336
G1 X50.404 Y207.184 E37.01277
G1 X49.51 Y207.052 E37.03081
G1 X48.528 Y206.819 E37.05095
G1 X47.571 Y206.498 E37.07109
G1 X46.744 Y206.137 E37.0891
G1 X45.827 Y205.636 E37.10995
G1 X45.076 Y205.134 E37.12798
G1 X44.289 Y204.504 E37.1481
G1 X43.561 Y203.803 E37.16826
G1 X42.968 Y203.122 E37.18628
G1 X42.394 Y202.336 E37.20571
G1 X41.858 Y201.438 E37.22658
G1 X41.436 Y200.561 E37.246
G1 X41.116 Y199.716 E37.26403
G1 X40.842 Y198.745 E37.28417
G1 X40.656 Y197.743 E37.3045
G1 X40.558 Y196.572 E37.32795
G1 X40.525 Y195.456 E37.35023
G1 X40.41 Y192.855 E37.40219
G1 X40.228 Y190.322 E37.45287
G1 X39.975 Y187.805 E37.50335
G1 X39.654 Y185.321 E37.55334
G1 X39.265 Y182.854 E37.60318
G1 X38.794 Y180.346 E37.6541
G1 X38.269 Y177.917 E37.70369
G1 X37.669 Y175.478 E37.75382
G1 X36.962 Y172.93 E37.80659
G1 X36.826 Y172.465 E37.81625
G1 X36.603 Y171.553 E37.83499
G1 X36.452 Y170.558 E37.85507
G1 X36.396 Y169.731 E37.87162
G1 X36.381 Y169.073 E37.88475
G1 X36.39 Y100.215 E39.25889
G1 X36.381 Y99.139 E39.28036
G1 X36.382 Y56.312 E40.13502
G1 X36.394 Y55.611 E40.14901
G1 X36.454 Y54.639 E40.16844
G1 X36.587 Y53.746 E40.18646
G1 X36.822 Y52.764 E40.20661
G1 X37.121 Y51.874 E40.22535
G1 X37.54 Y50.919 E40.24616
G1 X37.974 Y50.128 E40.26416
G1 X38.557 Y49.257 E40.28508
G1 X39.171 Y48.503 E40.30449
G1 X39.823 Y47.829 E40.3232
G1 X40.531 Y47.213 E40.34193
G1 F2700 E35.34193
;MESH:4x6_frame_vertical_Fixed.stl
G0 F6000 X47.795 Y55.138
G0 X47.795 Y56.217
G0 X48.382 Y56.804
;TYPE:WALL-INNER
G1 F2700 E40.34193
G1 F1200 X48.375 Y99.607 E41.19611
G1 X48.382 Y168.401 E42.56897
G1 X212.381 Y168.402 E45.84174
G1 X212.381 Y56.803 E48.06882
G1 X48.382 Y56.804 E51.3416
G0 F6000 X47.982 Y56.404
G1 F1200 X47.981 Y99.58 E52.20322
G1 X47.975 Y99.587 E52.20341
G1 X47.982 Y168.801 E53.58465
G1 X212.781 Y168.802 E56.87339
G1 X212.781 Y56.403 E59.11643
G1 X47.982 Y56.404 E62.40518
G1 F2700 E57.40518
G0 F6000 X48.251 Y56.673
G0 X48.561 Y65.26
G0 X56.196 Y65.648
G0 X56.477 Y65.263
G0 X56.518 Y65.263
G1 F2700 E62.40518
G1 F1200 X56.78 Y65.001 E62.41257
G1 X57.054 Y64.857 E62.41875
G1 X57.263 Y64.804 E62.42305
G1 X203.5 Y64.804 E65.34137
G1 X203.704 Y64.857 E65.34557
G1 X203.979 Y65.001 E65.35177
G1 X204.184 Y65.206 E65.35755
G1 X204.328 Y65.481 E65.36375
G1 X204.381 Y65.69 E65.36805
G1 X204.381 Y159.52 E67.24053
G1 X204.328 Y159.724 E67.24474
G1 X204.184 Y159.999 E67.25093
G1 X203.978 Y160.204 E67.25673
G1 X203.704 Y160.348 E67.26291
G1 X203.495 Y160.401 E67.26721
G1 X57.258 Y160.401 E70.18553
G1 X57.054 Y160.348 E70.18973
G1 X56.78 Y160.204 E70.19591
G1 X56.574 Y159.999 E70.20171
G1 X56.43 Y159.724 E70.20791
G1 X56.377 Y159.515 E70.21221
G1 X56.377 Y65.672 E72.08495
G1 X56.518 Y65.263 E72.09358
G0 F6000 X57.018 Y65.322
G1 F1200 X57.304 Y65.204 E72.09976
G1 X203.454 Y65.204 E75.01634
G1 X203.74 Y65.322 E75.02251
G1 X203.912 Y65.523 E75.02779
G1 X203.981 Y65.723 E75.03201
G1 X203.981 Y159.482 E76.90307
G1 X203.912 Y159.682 E76.9073
G1 X203.74 Y159.883 E76.91258
G1 X203.454 Y160.001 E76.91875
G1 X57.304 Y160.001 E79.83533
G1 X57.018 Y159.883 E79.84151
G1 X56.846 Y159.682 E79.84678
G1 X56.777 Y159.482 E79.85101
G1 X56.777 Y65.723 E81.72207
G1 X56.846 Y65.522 E81.72631
G1 X57.018 Y65.322 E81.73157
G0 F6000 X57.257 Y65.643
;TYPE:WALL-OUTER
G1 F1200 X57.344 Y65.606 E81.73346
G1 X203.416 Y65.606 E84.64849
G1 X203.542 Y65.684 E84.65144
G1 X203.579 Y65.771 E84.65333
G1 X203.579 Y159.436 E86.52252
G1 X203.501 Y159.562 E86.52547
G1 X203.414 Y159.599 E86.52736
G1 X57.342 Y159.599 E89.44238
G1 X57.216 Y159.521 E89.44534
G1 X57.179 Y159.434 E89.44723
G1 X57.179 Y65.769 E91.31641
G1 X57.257 Y65.643 E91.31937
G1 F2700 E86.31937
G0 F6000 X57.257 Y64.904
G0 X59.355 Y64.644
G0 X48.561 Y64.965
G0 X47.582 Y56.004
G1 F2700 E91.31937
G1 F1200 X47.581 Y99.559 E92.18856
G1 X47.575 Y99.566 E92.18874
G1 X47.582 Y169.201 E93.57838
G1 X213.181 Y169.202 E96.88309
G1 X213.181 Y56.003 E99.1421
G1 X47.582 Y56.004 E102.44681
G1 F2700 E97.44681
G0 F6000 X47.851 Y56.273
G0 X48.561 Y65.285
G0 X56.196 Y65.648
G0 X56.405 Y65.288
G0 X56.171 Y65.165
;TYPE:SKIN
G1 F2700 E102.44681
G1 F1200 X56.019 Y65.616 E102.4563
G1 X56.019 Y159.588 E104.33162
G1 X56.174 Y160.038 E104.34112
G1 X56.416 Y160.366 E104.34925
G1 X56.738 Y160.606 E104.35726
G1 X57.189 Y160.759 E104.36677
G1 X203.411 Y160.759 E107.28479
G1 X203.819 Y160.691 E107.29304
G1 X204.195 Y160.491 E107.30154
G1 X204.485 Y160.199 E107.30975
G1 X204.594 Y160.016 E107.314
G1 X204.739 Y159.588 E107.32302
G1 X204.739 Y65.618 E109.19829
G1 X204.594 Y65.189 E109.20733
G1 X204.485 Y65.006 E109.21158
G1 X204.195 Y64.714 E109.21979
G1 X203.807 Y64.512 E109.22852
G1 X203.567 Y64.45 E109.23347
G1 X57.19 Y64.446 E112.15458
G1 X56.738 Y64.598 E112.1641
G1 X56.416 Y64.84 E112.17214
G1 X56.171 Y65.165 E112.18026
G1 F2700 E107.18026
G0 F6000 X56.405 Y65.288
G0 X56.534 Y65.008
G0 X59.355 Y64.644
G0 X48.561 Y64.965
G0 X48.482 Y57.163
G0 X48.742 Y57.164
G1 F2700 E112.18026
G1 F1200 X212.021 Y57.163 E115.43867
G1 X212.021 Y168.042 E117.65138
G1 X48.743 Y168.04 E120.90977
G1 X48.742 Y57.164 E123.12242
G1 F2700 E118.12242
G0 F6000 X48.482 Y57.163
G0 X48.554 Y168.229
G0 X49.043 Y168.301
G0 X49.044 Y167.838
G1 F2700 E123.12242
G1 F1200 X48.942 Y167.736 E123.1253
G0 F6000 X48.942 Y167.17
G1 F1200 X49.61 Y167.838 E123.14415
G0 F6000 X50.176 Y167.838
G1 F1200 X48.942 Y166.604 E123.17897
G0 F6000 X48.942 Y166.039
G1 F1200 X50.741 Y167.838 E123.22975
G0 F6000 X51.307 Y167.838
G1 F1200 X48.942 Y165.473 E123.29649
G0 F6000 X48.942 Y164.907
G1 F1200 X51.873 Y167.838 E123.37921
G0 F6000 X52.439 Y167.838
G1 F1200 X48.942 Y164.342 E123.47789
G0 F6000 X48.942 Y163.776
G1 F1200 X53.004 Y167.838 E123.59253
G0 F6000 X53.57 Y167.838
G1 F1200 X48.942 Y163.21 E123.72314
G0 F6000 X48.942 Y162.645
G1 F1200 X54.136 Y167.838 E123.86971
G0 F6000 X54.701 Y167.838
G1 F1200 X48.942 Y162.079 E124.03224
G0 F6000 X48.942 Y161.513
G1 F1200 X55.267 Y167.838 E124.21075
G0 F6000 X55.833 Y167.838
G1 F1200 X48.942 Y160.948 E124.40521
G0 F6000 X48.942 Y160.382
G1 F1200 X56.398 Y167.838 E124.61564
G0 F6000 X56.964 Y167.838
G1 F1200 X48.942 Y159.816 E124.84204
G0 F6000 X48.942 Y159.251
G1 F1200 X57.53 Y167.838 E125.08439
G0 F6000 X58.095 Y167.838
G1 F1200 X48.942 Y158.685 E125.34271
G0 F6000 X48.942 Y158.119
G1 F1200 X58.661 Y167.838 E125.617
G0 F6000 X59.227 Y167.838
G1 F1200 X48.942 Y157.553 E125.90727
G0 F6000 X48.942 Y156.988
G1 F1200 X59.792 Y167.838 E126.21348
G0 F6000 X60.358 Y167.838
G1 F1200 X48.942 Y156.422 E126.53566
G0 F6000 X48.942 Y155.856
G1 F1200 X60.924 Y167.838 E126.87382
G0 F6000 X61.49 Y167.838
G1 F1200 X48.942 Y155.291 E127.22794
G0 F6000 X48.942 Y154.725
