;FLAVOR:Marlin
;TIME:688
;Filament used: 0.127237m
;Layer height: 0.12
;MINX:223.278
;MINY:97.184
;MINZ:0.12
;MAXX:252.151
;MAXY:126.055
;MAXZ:3.72
;POSTPROCESSED
;Generated with Cura_SteamEngine 5.3.0
;
;

M82 ;absolute extrusion mode
M140 S50 ; start heating the bed
M104 S200 T0 ; start heating the hotend
M109 S200 T0 ; wait for hotend to hit target temp
M190 S50 ; wait for bed temp (should be there)
M105 ; report temp

M201 X500.00 Y500.00 Z100.00 E5000.00 ;Setup machine max acceleration
M203 X500.00 Y500.00 Z10.00 E50.00 ;Setup machine max feedrate
M204 P500.00 R1000.00 T500.00 ;Setup Print/Retract/Travel acceleration
M205 X8.00 Y8.00 Z0.40 E5.00 ;Setup Jerk
M220 S100 ;Reset Feedrate
M221 S100 ;Reset Flowrate

G28 ;Home

G92 E0 ;Reset Extruder
G1 Z2.0 F3000 ;Move Z Axis up
G1 X10.1 Y20 Z0.28 F5000.0 ;Move to start position
G1 X10.1 Y200.0 Z0.28 F1500.0 E20 ;Draw the first line (was E15)
G1 X10.4 Y200.0 Z0.28 F5000.0 ;Move to side a little
G1 X10.4 Y40 Z0.28 F1500.0 E30 ;Draw the second line (was Y20)
G92 E0 ;Reset Extruder
G1 Z2.0 F3000 ;Move Z Axis up
G92 E0
G92 E0
G1 F2700 E-5
;LAYER_COUNT:31
;LAYER:0
M107
G0 F6000 X225.15 Y105.373 Z0.12
;TYPE:SKIRT
G1 F2700 E0
G1 F1200 X225.327 Y105.022 E0.00392
G1 X225.54 Y104.632 E0.00836
G1 X225.836 Y104.13 E0.01417
G1 X226.075 Y103.764 E0.01853
G1 X226.354 Y103.368 E0.02337
G1 X226.626 Y103.011 E0.02784
G1 X226.997 Y102.559 E0.03368
G1 X227.261 Y102.258 E0.03767
G1 X227.709 Y101.78 E0.04421
G1 X227.974 Y101.514 E0.04796
G1 X228.309 Y101.198 E0.05255
G1 X228.771 Y100.793 E0.05868
G1 X229.101 Y100.53 E0.06289
G1 X229.583 Y100.172 E0.06888
G1 X229.903 Y99.949 E0.07278
G1 X230.204 Y99.754 E0.07636
G1 X230.564 Y99.538 E0.08054
G1 X231.275 Y99.144 E0.08865
G1 X231.883 Y98.85 E0.09539
G1 X232.693 Y98.512 E0.10415
G1 X233.119 Y98.353 E0.10869
G1 X233.725 Y98.16 E0.11503
G1 X234.116 Y98.052 E0.11908
G1 X234.863 Y97.872 E0.12675
G1 X235.428 Y97.766 E0.13248
G1 X236.087 Y97.675 E0.13912
G1 X236.594 Y97.627 E0.1442
G1 X237.246 Y97.592 E0.15072
G1 X237.664 Y97.584 E0.15489
G1 X238.266 Y97.593 E0.1609
G1 X238.667 Y97.612 E0.1649
G1 X239.205 Y97.659 E0.17029
G1 X239.632 Y97.709 E0.17458
G1 X240.114 Y97.78 E0.17944
G1 X240.568 Y97.87 E0.18406
G1 X241.181 Y98.015 E0.19035
G1 X241.554 Y98.115 E0.1942
G1 X242.073 Y98.273 E0.19961
G1 X242.635 Y98.467 E0.20555
G1 X243.133 Y98.669 E0.21091
G1 X243.902 Y99.022 E0.21935
G1 X244.326 Y99.238 E0.2241
G1 X244.902 Y99.559 E0.23068
G1 X245.401 Y99.869 E0.23654
G1 X245.919 Y100.227 E0.24282
G1 X246.473 Y100.643 E0.24974
G1 X246.75 Y100.87 E0.25331
G1 X247.163 Y101.229 E0.25877
G1 X247.48 Y101.525 E0.2631
G1 X247.864 Y101.91 E0.26852
G1 X248.249 Y102.335 E0.27424
G1 X248.774 Y102.971 E0.28247
G1 X248.992 Y103.25 E0.28601
G1 X249.167 Y103.489 E0.28896
G1 X249.539 Y104.042 E0.29561
G1 X249.892 Y104.628 E0.30244
G1 X250.067 Y104.948 E0.30608
G1 X250.354 Y105.513 E0.3124
G1 X250.513 Y105.852 E0.31614
G1 X250.717 Y106.323 E0.32126
G1 X250.905 Y106.801 E0.32638
G1 X251.023 Y107.141 E0.32997
G1 X251.168 Y107.603 E0.33481
G1 X251.32 Y108.144 E0.34041
G1 X251.433 Y108.632 E0.34541
G1 X251.571 Y109.369 E0.35289
G1 X251.63 Y109.751 E0.35675
G1 X251.702 Y110.422 E0.36348
G1 X251.731 Y110.943 E0.36869
G1 X251.751 Y111.743 E0.37668
G1 X251.744 Y112.222 E0.38146
G1 X251.709 Y112.77 E0.38693
G1 X251.67 Y113.167 E0.39091
G1 X251.618 Y113.565 E0.39492
G1 X251.496 Y114.304 E0.40239
G1 X251.348 Y114.967 E0.40917
G1 X251.114 Y115.796 E0.41777
G1 X250.935 Y116.333 E0.42341
G1 X250.711 Y116.914 E0.42963
G1 X250.553 Y117.287 E0.43367
G1 X250.335 Y117.757 E0.43884
G1 X250.16 Y118.104 E0.44272
G1 X249.862 Y118.652 E0.44894
G1 X249.579 Y119.131 E0.45449
G1 X249.362 Y119.463 E0.45845
G1 X249.11 Y119.822 E0.46283
G1 X248.831 Y120.188 E0.46742
G1 X248.239 Y120.909 E0.47673
G1 X247.772 Y121.417 E0.48361
G1 X247.307 Y121.868 E0.49008
G1 X246.796 Y122.325 E0.49692
G1 X246.484 Y122.58 E0.50094
G1 X246.037 Y122.921 E0.50655
G1 X245.705 Y123.157 E0.51061
G1 X245.267 Y123.447 E0.51585
G1 X244.835 Y123.717 E0.52094
G1 X244.375 Y123.974 E0.52619
G1 X243.754 Y124.286 E0.53313
G1 X243.414 Y124.443 E0.53687
G1 X242.783 Y124.707 E0.54369
G1 X242.431 Y124.84 E0.54744
G1 X241.935 Y125.004 E0.55266
G1 X241.164 Y125.222 E0.56065
G1 X240.572 Y125.365 E0.56673
G1 X240.18 Y125.44 E0.57071
G1 X239.722 Y125.51 E0.57533
G1 X239.207 Y125.575 E0.58051
G1 X238.836 Y125.61 E0.58423
G1 X238.084 Y125.651 E0.59175
G1 X237.76 Y125.655 E0.59498
G1 X237.389 Y125.648 E0.59868
G1 X236.648 Y125.612 E0.60608
G1 X236.191 Y125.572 E0.61066
G1 X235.725 Y125.514 E0.61535
G1 X235.341 Y125.454 E0.61923
G1 X234.851 Y125.361 E0.6242
G1 X234.371 Y125.25 E0.62912
G1 X233.84 Y125.104 E0.63461
G1 X233.252 Y124.924 E0.64075
G1 X232.764 Y124.755 E0.6459
G1 X232.434 Y124.624 E0.64944
G1 X231.851 Y124.371 E0.65579
G1 X231.318 Y124.11 E0.66171
G1 X230.773 Y123.816 E0.66789
G1 X230.361 Y123.572 E0.67266
G1 X229.887 Y123.266 E0.67829
G1 X229.342 Y122.883 E0.68494
G1 X228.747 Y122.418 E0.69248
G1 X228.465 Y122.18 E0.69616
G1 X228.24 Y121.978 E0.69917
G1 X227.961 Y121.712 E0.70302
G1 X227.488 Y121.23 E0.70976
G1 X227.181 Y120.892 E0.71432
G1 X226.758 Y120.391 E0.72086
G1 X226.477 Y120.032 E0.72541
G1 X226.127 Y119.54 E0.73143
G1 X225.901 Y119.2 E0.7355
G1 X225.7 Y118.877 E0.7393
G1 X225.352 Y118.257 E0.7464
G1 X225.121 Y117.803 E0.75148
G1 X224.957 Y117.454 E0.75533
G1 X224.673 Y116.796 E0.76248
G1 X224.469 Y116.268 E0.76812
G1 X224.326 Y115.827 E0.77275
G1 X224.114 Y115.079 E0.78051
G1 X223.994 Y114.592 E0.78551
G1 X223.898 Y114.087 E0.79064
G1 X223.778 Y113.265 E0.79893
G1 X223.723 Y112.709 E0.80451
G1 X223.687 Y112.034 E0.81125
G1 X223.678 Y111.679 E0.81479
G1 X223.68 Y111.275 E0.81882
G1 X223.698 Y110.833 E0.82324
G1 X223.751 Y110.15 E0.83007
G1 X223.814 Y109.631 E0.83529
G1 X223.898 Y109.121 E0.84045
G1 X223.985 Y108.689 E0.84485
G1 X224.121 Y108.122 E0.85066
G1 X224.217 Y107.769 E0.85431
G1 X224.371 Y107.263 E0.85959
G1 X224.485 Y106.925 E0.86315
G1 X224.618 Y106.565 E0.86698
G1 X224.809 Y106.106 E0.87194
G1 X225.15 Y105.373 E0.88001
G0 F6000 X224.971 Y105.283
G1 F1200 X225.151 Y104.926 E0.884
G1 X225.368 Y104.53 E0.8885
G1 X225.669 Y104.021 E0.8944
G1 X225.912 Y103.649 E0.89884
G1 X226.195 Y103.247 E0.90374
G1 X226.471 Y102.884 E0.90829
G1 X226.847 Y102.427 E0.9142
G1 X227.115 Y102.121 E0.91826
G1 X227.567 Y101.639 E0.92485
G1 X227.837 Y101.369 E0.92866
G1 X228.177 Y101.048 E0.93332
G1 X228.646 Y100.637 E0.93955
G1 X228.982 Y100.369 E0.94383
G1 X229.469 Y100.008 E0.94988
G1 X229.794 Y99.781 E0.95384
G1 X230.101 Y99.583 E0.95748
G1 X230.467 Y99.363 E0.96175
G1 X231.188 Y98.964 E0.96997
G1 X231.806 Y98.665 E0.97682
G1 X232.623 Y98.325 E0.98565
G1 X233.058 Y98.162 E0.99028
G1 X233.672 Y97.967 E0.99671
G1 X234.069 Y97.858 E1.00082
G1 X234.826 Y97.675 E1.00859
G1 X235.401 Y97.568 E1.01443
G1 X236.068 Y97.476 E1.02114
G1 X236.583 Y97.427 E1.02631
G1 X237.242 Y97.392 E1.03289
G1 X237.667 Y97.384 E1.03713
G1 X238.275 Y97.393 E1.0432
G1 X238.684 Y97.413 E1.04729
G1 X239.228 Y97.46 E1.05273
G1 X239.661 Y97.511 E1.05708
G1 X240.153 Y97.584 E1.06205
G1 X240.614 Y97.675 E1.06674
G1 X241.233 Y97.822 E1.07308
G1 X241.612 Y97.924 E1.077
G1 X242.138 Y98.084 E1.08249
G1 X242.71 Y98.282 E1.08853
G1 X243.216 Y98.487 E1.09397
G1 X243.993 Y98.844 E1.1025
G1 X244.423 Y99.063 E1.10732
G1 X245.008 Y99.389 E1.114
G1 X245.515 Y99.704 E1.11996
G1 X246.039 Y100.067 E1.12632
G1 X246.6 Y100.488 E1.13332
G1 X246.881 Y100.719 E1.13695
G1 X247.299 Y101.083 E1.14248
G1 X247.622 Y101.384 E1.14688
G1 X248.012 Y101.776 E1.1524
G1 X248.403 Y102.208 E1.15821
G1 X248.932 Y102.848 E1.1665
G1 X249.333 Y103.377 E1.17312
G1 X249.71 Y103.939 E1.17988
G1 X250.067 Y104.532 E1.18678
G1 X250.245 Y104.857 E1.19048
G1 X250.535 Y105.428 E1.19687
G1 X250.697 Y105.773 E1.20067
G1 X250.903 Y106.25 E1.20586
G1 X251.094 Y106.735 E1.21106
G1 X251.214 Y107.081 E1.21471
G1 X251.361 Y107.549 E1.21961
G1 X251.515 Y108.099 E1.22531
G1 X251.63 Y108.595 E1.23039
G1 X251.769 Y109.338 E1.23793
G1 X251.829 Y109.73 E1.24189
G1 X251.902 Y110.411 E1.24872
G1 X251.931 Y110.938 E1.25399
G1 X251.951 Y111.746 E1.26205
G1 X251.944 Y112.235 E1.26693
G1 X251.908 Y112.79 E1.27248
G1 X251.868 Y113.193 E1.27652
G1 X251.815 Y113.598 E1.2806
G1 X251.691 Y114.348 E1.28818
G1 X251.54 Y115.021 E1.29506
G1 X251.304 Y115.859 E1.30375
G1 X251.122 Y116.405 E1.30949
G1 X250.895 Y116.992 E1.31577
G1 X250.734 Y117.371 E1.31988
G1 X250.514 Y117.847 E1.32511
G1 X250.336 Y118.2 E1.32906
G1 X250.034 Y118.754 E1.33535
G1 X249.746 Y119.24 E1.34099
G1 X249.526 Y119.578 E1.34502
G1 X249.269 Y119.943 E1.34947
G1 X248.986 Y120.315 E1.35413
G1 X248.394 Y121.036 E1.36344
G1 X247.911 Y121.561 E1.37056
G1 X247.44 Y122.017 E1.3771
G1 X246.923 Y122.48 E1.38403
G1 X246.605 Y122.739 E1.38812
G1 X246.153 Y123.084 E1.39379
G1 X245.815 Y123.324 E1.39793
G1 X245.373 Y123.617 E1.40322
G1 X244.933 Y123.892 E1.4084
G1 X244.465 Y124.153 E1.41374
G1 X243.838 Y124.468 E1.42075
G1 X243.491 Y124.628 E1.42456
G1 X242.854 Y124.894 E1.43145
G1 X242.494 Y125.03 E1.43529
G1 X241.989 Y125.196 E1.44059
G1 X241.211 Y125.416 E1.44866
G1 X240.61 Y125.561 E1.45483
G1 X240.21 Y125.638 E1.45889
G1 X239.747 Y125.708 E1.46356
G1 X239.226 Y125.774 E1.4688
G1 X238.847 Y125.81 E1.4726
G1 X238.095 Y125.851 E1.48012
G1 X237.756 Y125.855 E1.4835
G1 X237.379 Y125.848 E1.48726
G1 X236.631 Y125.811 E1.49473
G1 X236.166 Y125.77 E1.49939
G1 X235.694 Y125.712 E1.50414
G1 X235.31 Y125.652 E1.50802
G1 X234.806 Y125.556 E1.51313
G1 X234.318 Y125.443 E1.51813
G1 X233.781 Y125.295 E1.52369
G1 X233.187 Y125.113 E1.52989
G1 X232.69 Y124.941 E1.53514
G1 X232.354 Y124.807 E1.53875
G1 X231.763 Y124.551 E1.54517
G1 X231.223 Y124.286 E1.55117
G1 X230.671 Y123.988 E1.55743
G1 X230.253 Y123.74 E1.56228
G1 X229.772 Y123.43 E1.56799
G1 X229.219 Y123.041 E1.57474
G1 X228.618 Y122.571 E1.58235
G1 X228.331 Y122.329 E1.5861
G1 X228.102 Y122.123 E1.58917
G1 X227.818 Y121.852 E1.59309
G1 X227.34 Y121.364 E1.59991
G1 X227.028 Y121.021 E1.60453
G1 X226.601 Y120.514 E1.61115
G1 X226.314 Y120.148 E1.61579
G1 X225.96 Y119.651 E1.62187
G1 X225.731 Y119.306 E1.62601
G1 X225.526 Y118.975 E1.62989
G1 X225.174 Y118.348 E1.63707
G1 X224.94 Y117.888 E1.64222
G1 X224.773 Y117.533 E1.64613
G1 X224.486 Y116.868 E1.65336
G1 X224.279 Y116.33 E1.65911
G1 X224.134 Y115.882 E1.66381
G1 X223.92 Y115.127 E1.67164
G1 X223.798 Y114.629 E1.67675
G1 X223.7 Y114.116 E1.68197
G1 X223.579 Y113.285 E1.69034
G1 X223.523 Y112.72 E1.69601
G1 X223.487 Y112.039 E1.70281
G1 X223.478 Y111.678 E1.70642
G1 X223.48 Y111.267 E1.71052
G1 X223.499 Y110.818 E1.715
G1 X223.552 Y110.126 E1.72193
G1 X223.617 Y109.598 E1.72724
G1 X223.702 Y109.082 E1.73245
G1 X223.791 Y108.642 E1.73693
G1 X223.928 Y108.07 E1.7428
G1 X224.026 Y107.711 E1.74652
G1 X224.181 Y107.199 E1.75185
G1 X224.297 Y106.856 E1.75547
G1 X224.433 Y106.488 E1.75938
G1 X224.628 Y106.022 E1.76442
G1 X224.971 Y105.283 E1.77255
G0 F6000 X224.792 Y105.193
G1 F1200 X224.976 Y104.83 E1.77661
G1 X225.196 Y104.428 E1.78118
G1 X225.502 Y103.912 E1.78717
G1 X225.748 Y103.534 E1.79167
G1 X226.036 Y103.126 E1.79665
G1 X226.317 Y102.757 E1.80128
G1 X226.697 Y102.295 E1.80725
G1 X226.969 Y101.984 E1.81137
G1 X227.426 Y101.498 E1.81803
G1 X227.7 Y101.224 E1.82189
G1 X228.045 Y100.898 E1.82663
G1 X228.521 Y100.481 E1.83295
G1 X228.863 Y100.208 E1.83731
G1 X229.354 Y99.844 E1.84341
G1 X229.686 Y99.613 E1.84745
G1 X229.998 Y99.412 E1.85115
G1 X230.37 Y99.188 E1.85548
G1 X231.101 Y98.784 E1.86382
G1 X231.729 Y98.48 E1.87078
G1 X232.553 Y98.138 E1.87968
G1 X232.997 Y97.971 E1.88441
G1 X233.619 Y97.774 E1.89092
G1 X234.022 Y97.664 E1.89509
G1 X234.789 Y97.478 E1.90297
G1 X235.374 Y97.37 E1.9089
G1 X236.049 Y97.277 E1.9157
G1 X236.572 Y97.227 E1.92094
G1 X237.238 Y97.192 E1.9276
G1 X237.67 Y97.184 E1.93191
G1 X238.285 Y97.193 E1.93805
G1 X238.701 Y97.214 E1.9422
G1 X239.251 Y97.261 E1.94771
G1 X239.69 Y97.313 E1.95212
G1 X240.192 Y97.388 E1.95719
G1 X240.66 Y97.48 E1.96194
G1 X241.285 Y97.629 E1.96836
G1 X241.67 Y97.733 E1.97234
G1 X242.203 Y97.895 E1.97789
G1 X242.785 Y98.097 E1.98404
G1 X243.3 Y98.305 E1.98958
G1 X244.084 Y98.666 E1.9982
G1 X244.52 Y98.888 E2.00308
G1 X245.114 Y99.219 E2.00986
G1 X245.629 Y99.54 E2.01592
G1 X246.159 Y99.907 E2.02235
G1 X246.727 Y100.334 E2.02944
G1 X247.012 Y100.568 E2.03312
G1 X247.435 Y100.937 E2.03872
G1 X247.764 Y101.243 E2.0432
G1 X248.16 Y101.642 E2.04881
G1 X248.557 Y102.081 E2.05472
G1 X249.091 Y102.727 E2.06308
G1 X249.499 Y103.266 E2.06983
G1 X249.881 Y103.836 E2.07667
G1 X250.242 Y104.436 E2.08366
G1 X250.423 Y104.766 E2.08742
G1 X250.716 Y105.343 E2.09387
G1 X250.881 Y105.694 E2.09774
G1 X251.089 Y106.177 E2.10299
G1 X251.283 Y106.669 E2.10827
G1 X251.405 Y107.021 E2.11198
G1 X251.554 Y107.495 E2.11694
G1 X251.71 Y108.054 E2.12273
G1 X251.827 Y108.558 E2.1279
G1 X251.967 Y109.308 E2.13551
G1 X252.028 Y109.709 E2.13956
G1 X252.102 Y110.4 E2.14649
G1 X252.131 Y110.933 E2.15182
G1 X252.151 Y111.749 E2.15996
G1 X252.144 Y112.248 E2.16494
G1 X252.107 Y112.81 E2.17056
G1 X252.066 Y113.219 E2.17466
G1 X252.012 Y113.631 E2.17881
G1 X251.886 Y114.392 E2.1865
G1 X251.733 Y115.075 E2.19349
G1 X251.497 Y115.913 E2.20218
G1 X251.309 Y116.477 E2.20811
G1 X251.079 Y117.07 E2.21445
G1 X250.916 Y117.455 E2.21863
G1 X250.693 Y117.937 E2.22392
G1 X250.512 Y118.296 E2.22794
G1 X250.206 Y118.856 E2.2343
G1 X249.914 Y119.349 E2.24002
G1 X249.69 Y119.693 E2.24412
G1 X249.428 Y120.064 E2.24865
G1 X249.141 Y120.442 E2.25338
G1 X248.549 Y121.163 E2.26269
G1 X248.05 Y121.705 E2.27004
G1 X247.573 Y122.166 E2.27666
G1 X247.049 Y122.635 E2.28368
G1 X246.726 Y122.898 E2.28784
G1 X246.269 Y123.247 E2.29357
G1 X245.926 Y123.491 E2.29777
G1 X245.479 Y123.787 E2.30312
G1 X245.03 Y124.067 E2.3084
G1 X244.555 Y124.332 E2.31383
G1 X243.922 Y124.65 E2.3209
G1 X243.568 Y124.813 E2.32479
G1 X242.925 Y125.081 E2.33174
G1 X242.556 Y125.22 E2.33567
G1 X242.043 Y125.388 E2.34106
G1 X241.258 Y125.61 E2.3492
G1 X240.648 Y125.757 E2.35546
G1 X240.24 Y125.836 E2.35961
G1 X239.772 Y125.906 E2.36433
G1 X239.245 Y125.973 E2.36963
G1 X238.858 Y126.01 E2.37351
G1 X238.106 Y126.051 E2.38102
G1 X237.752 Y126.055 E2.38456
G1 X237.369 Y126.048 E2.38838
G1 X236.613 Y126.01 E2.39593
G1 X236.142 Y125.969 E2.40065
G1 X235.663 Y125.91 E2.40546
G1 X235.279 Y125.85 E2.40934
G1 X234.761 Y125.751 E2.4146
G1 X234.265 Y125.636 E2.41968
G1 X233.722 Y125.486 E2.4253
G1 X233.122 Y125.302 E2.43157
G1 X232.616 Y125.127 E2.43691
G1 X232.275 Y124.991 E2.44057
G1 X231.675 Y124.731 E2.4471
G1 X231.128 Y124.462 E2.45318
G1 X230.569 Y124.16 E2.45952
G1 X230.145 Y123.908 E2.46444
G1 X229.657 Y123.594 E2.47023
G1 X229.096 Y123.199 E2.47708
G1 X228.489 Y122.724 E2.48477
G1 X228.197 Y122.478 E2.48858
G1 X227.964 Y122.268 E2.49171
G1 X227.675 Y121.992 E2.49569
G1 X227.192 Y121.499 E2.50258
G1 X226.875 Y121.15 E2.50729
G1 X226.444 Y120.637 E2.51397
G1 X226.151 Y120.264 E2.5187
G1 X225.793 Y119.762 E2.52486
G1 X225.561 Y119.411 E2.52905
G1 X225.352 Y119.073 E2.53302
G1 X224.996 Y118.439 E2.54027
G1 X224.759 Y117.973 E2.54549
G1 X224.589 Y117.612 E2.54947
G1 X224.299 Y116.94 E2.55678
G1 X224.089 Y116.392 E2.56263
G1 X223.942 Y115.937 E2.5674
G1 X223.726 Y115.175 E2.57531
G1 X223.602 Y114.667 E2.58052
G1 X223.502 Y114.145 E2.58583
G1 X223.38 Y113.305 E2.5943
G1 X223.323 Y112.731 E2.60005
G1 X223.287 Y112.044 E2.60692
G1 X223.278 Y111.677 E2.61058
G1 X223.28 Y111.259 E2.61475
G1 X223.3 Y110.803 E2.6193
G1 X223.353 Y110.102 E2.62632
G1 X223.42 Y109.565 E2.63172
G1 X223.506 Y109.042 E2.63701
