;FLAVOR:Marlin
;TIME:840
;Filament used: 0.138089m
;Layer height: 0.12
;MINX:261.148
;MINY:94.469
;MINZ:0.12
;MAXX:290.015
;MAXY:123.343
;MAXZ:4.56
;POSTPROCESSED
;Generated with Cura_SteamEngine 5.3.0
;
;

M82 ;absolute extrusion mode
M140 S70 ; start heating the bed
M104 S240 T0 ; start heating the hotend
M109 S240 T0 ; wait for hotend to hit target temp
M190 S70 ; wait for bed temp (should be there)
M105 ; report temp

M201 X500.00 Y500.00 Z100.00 E5000.00 ;Setup machine max acceleration
M203 X500.00 Y500.00 Z10.00 E50.00 ;Setup machine max feedrate
M204 P500.00 R1000.00 T500.00 ;Setup Print/Retract/Travel acceleration
M205 X8.00 Y8.00 Z0.40 E5.00 ;Setup Jerk
M220 S100 ;Reset Feedrate
M221 S100 ;Reset Flowrate

G28 ;Home

G92 E0 ;Reset Extruder
G1 Z2.0 F3000 ;Move Z Axis up
G1 X10.1 Y20 Z0.28 F5000.0 ;Move to start position
G1 X10.1 Y200.0 Z0.28 F1500.0 E20 ;Draw the first line (was E15)
G1 X10.4 Y200.0 Z0.28 F5000.0 ;Move to side a little
G1 X10.4 Y40 Z0.28 F1500.0 E30 ;Draw the second line (was Y20)
G92 E0 ;Reset Extruder
G1 Z2.0 F3000 ;Move Z Axis up
G92 E0
G92 E0
G1 F2700 E-5
;LAYER_COUNT:38
;LAYER:0
M107
G0 F6000 X262.508 Y103.801 Z0.12
;TYPE:SKIRT
G1 F2700 E0
G1 F900 X262.803 Y103.101 E0.00758
G1 X262.946 Y102.786 E0.01103
G1 X263.19 Y102.306 E0.0164
G1 X263.417 Y101.898 E0.02106
G1 X263.763 Y101.326 E0.02773
G1 X263.962 Y101.026 E0.03133
G1 X264.246 Y100.622 E0.03625
G1 X264.488 Y100.3 E0.04027
G1 X264.804 Y99.915 E0.04524
G1 X265.258 Y99.393 E0.05214
G1 X265.656 Y98.977 E0.05789
G1 X266.11 Y98.545 E0.06414
G1 X266.403 Y98.283 E0.06806
G1 X266.811 Y97.942 E0.07337
G1 X267.092 Y97.721 E0.07694
G1 X267.464 Y97.451 E0.08152
G1 X267.826 Y97.203 E0.0859
G1 X268.171 Y96.983 E0.08998
G1 X268.711 Y96.664 E0.09624
G1 X269.181 Y96.414 E0.10155
G1 X269.879 Y96.08 E0.10928
G1 X270.262 Y95.912 E0.11345
G1 X270.582 Y95.785 E0.11688
G1 X271.232 Y95.554 E0.12377
G1 X271.738 Y95.398 E0.12905
G1 X272.051 Y95.316 E0.13228
G1 X272.691 Y95.166 E0.13884
G1 X273.14 Y95.078 E0.1434
G1 X274.092 Y94.947 E0.15299
G1 X274.698 Y94.892 E0.15906
G1 X275.067 Y94.874 E0.16275
G1 X275.474 Y94.869 E0.16681
G1 X276.102 Y94.877 E0.17308
G1 X276.695 Y94.907 E0.179
G1 X277.058 Y94.942 E0.18264
G1 X277.487 Y94.999 E0.18696
G1 X278.192 Y95.112 E0.19408
G1 X278.842 Y95.253 E0.20072
G1 X279.687 Y95.485 E0.20946
G1 X280.286 Y95.678 E0.21574
G1 X280.676 Y95.827 E0.21991
G1 X281.508 Y96.178 E0.22892
G1 X282.1 Y96.466 E0.23549
G1 X282.566 Y96.725 E0.24081
G1 X282.904 Y96.927 E0.24474
G1 X283.364 Y97.223 E0.25019
G1 X283.821 Y97.538 E0.25573
G1 X284.325 Y97.92 E0.26204
G1 X284.576 Y98.125 E0.26528
G1 X284.997 Y98.488 E0.27082
G1 X285.344 Y98.811 E0.27555
G1 X285.74 Y99.21 E0.28116
G1 X286.028 Y99.522 E0.2854
G1 X286.267 Y99.799 E0.28905
G1 X286.505 Y100.092 E0.29282
G1 X286.911 Y100.626 E0.29951
G1 X287.144 Y100.955 E0.30353
G1 X287.551 Y101.571 E0.3109
G1 X287.814 Y102.007 E0.31598
G1 X287.954 Y102.263 E0.31889
G1 X288.123 Y102.597 E0.32263
G1 X288.386 Y103.157 E0.3288
G1 X288.549 Y103.537 E0.33293
G1 X288.813 Y104.215 E0.34019
G1 X288.986 Y104.723 E0.34554
G1 X289.115 Y105.166 E0.35014
G1 X289.199 Y105.488 E0.35346
G1 X289.321 Y106.012 E0.35883
G1 X289.418 Y106.526 E0.36405
G1 X289.513 Y107.186 E0.37071
G1 X289.562 Y107.659 E0.37545
G1 X289.601 Y108.332 E0.38218
G1 X289.615 Y108.89 E0.38775
G1 X289.611 Y109.319 E0.39203
G1 X289.588 Y109.827 E0.3971
G1 X289.556 Y110.228 E0.40112
G1 X289.486 Y110.855 E0.40741
G1 X289.416 Y111.319 E0.41209
G1 X289.345 Y111.692 E0.41588
G1 X289.231 Y112.183 E0.42091
G1 X288.963 Y113.148 E0.4309
G1 X288.775 Y113.715 E0.43686
G1 X288.581 Y114.217 E0.44223
G1 X288.401 Y114.635 E0.44678
G1 X288.127 Y115.212 E0.45315
G1 X287.89 Y115.669 E0.45829
G1 X287.729 Y115.95 E0.46152
G1 X287.46 Y116.392 E0.46668
G1 X287.232 Y116.739 E0.47082
G1 X286.819 Y117.324 E0.47797
G1 X286.442 Y117.806 E0.48407
G1 X285.96 Y118.361 E0.49141
G1 X285.656 Y118.685 E0.49584
G1 X285.259 Y119.08 E0.50143
G1 X284.832 Y119.467 E0.50718
G1 X284.212 Y119.977 E0.51519
G1 X283.737 Y120.337 E0.52114
G1 X283.452 Y120.533 E0.52459
G1 X282.791 Y120.955 E0.53241
G1 X282.222 Y121.279 E0.53895
G1 X281.804 Y121.496 E0.54365
G1 X281.435 Y121.672 E0.54773
G1 X281.087 Y121.824 E0.55151
G1 X280.691 Y121.981 E0.55577
G1 X280.045 Y122.211 E0.56261
G1 X279.602 Y122.35 E0.56724
G1 X278.761 Y122.579 E0.57594
G1 X278.128 Y122.715 E0.5824
G1 X277.604 Y122.796 E0.58769
G1 X277.116 Y122.858 E0.5926
G1 X276.732 Y122.895 E0.59645
G1 X276.163 Y122.931 E0.60213
G1 X275.778 Y122.943 E0.60598
G1 X275.208 Y122.937 E0.61167
G1 X274.702 Y122.914 E0.61672
G1 X274.288 Y122.881 E0.62086
G1 X273.586 Y122.801 E0.62791
G1 X272.907 Y122.684 E0.63479
G1 X272.165 Y122.513 E0.64239
G1 X271.767 Y122.407 E0.6465
G1 X271.11 Y122.208 E0.65335
G1 X270.641 Y122.045 E0.6583
G1 X270.035 Y121.795 E0.66484
G1 X269.389 Y121.495 E0.67195
G1 X269.036 Y121.317 E0.67589
G1 X268.554 Y121.054 E0.68137
G1 X268.067 Y120.765 E0.68702
G1 X267.736 Y120.548 E0.69097
G1 X267.271 Y120.221 E0.69664
G1 X266.94 Y119.97 E0.70079
G1 X266.575 Y119.672 E0.70549
G1 X266.236 Y119.381 E0.70995
G1 X265.714 Y118.894 E0.71707
G1 X265.433 Y118.608 E0.72107
G1 X265.151 Y118.301 E0.72523
G1 X264.93 Y118.047 E0.72859
G1 X264.561 Y117.598 E0.73439
G1 X264.176 Y117.092 E0.74073
G1 X263.939 Y116.75 E0.74489
G1 X263.628 Y116.266 E0.75063
G1 X263.353 Y115.792 E0.75609
G1 X263.012 Y115.139 E0.76345
G1 X262.812 Y114.717 E0.7681
G1 X262.594 Y114.208 E0.77363
G1 X262.441 Y113.815 E0.77784
G1 X262.245 Y113.253 E0.78378
G1 X262.121 Y112.851 E0.78797
G1 X261.935 Y112.17 E0.79502
G1 X261.815 Y111.641 E0.80043
G1 X261.689 Y110.894 E0.80799
G1 X261.589 Y110.077 E0.8162
G1 X261.559 Y109.532 E0.82165
G1 X261.548 Y108.976 E0.8272
G1 X261.553 Y108.59 E0.83105
G1 X261.58 Y107.969 E0.83725
G1 X261.614 Y107.534 E0.84161
G1 X261.686 Y106.911 E0.84786
G1 X261.759 Y106.444 E0.85258
G1 X261.835 Y106.054 E0.85654
G1 X261.943 Y105.593 E0.86127
G1 X262.164 Y104.795 E0.86953
G1 X262.354 Y104.207 E0.8757
G1 X262.508 Y103.801 E0.88003
G0 F6000 X262.324 Y103.723
G1 F900 X262.621 Y103.018 E0.88766
G1 X262.768 Y102.695 E0.8912
G1 X263.015 Y102.209 E0.89664
G1 X263.246 Y101.794 E0.90138
G1 X263.596 Y101.215 E0.90813
G1 X263.798 Y100.911 E0.91178
G1 X264.086 Y100.502 E0.91677
G1 X264.333 Y100.173 E0.92087
G1 X264.653 Y99.784 E0.9259
G1 X265.113 Y99.255 E0.93289
G1 X265.518 Y98.832 E0.93874
G1 X265.977 Y98.396 E0.94505
G1 X266.275 Y98.13 E0.94904
G1 X266.687 Y97.785 E0.9544
G1 X266.975 Y97.559 E0.95805
G1 X267.351 Y97.286 E0.96269
G1 X267.718 Y97.034 E0.96713
G1 X268.069 Y96.811 E0.97128
G1 X268.617 Y96.487 E0.97763
G1 X269.087 Y96.237 E0.98294
G1 X269.799 Y95.897 E0.99082
G1 X270.188 Y95.726 E0.99506
G1 X270.515 Y95.597 E0.99856
G1 X271.173 Y95.363 E1.00553
G1 X271.687 Y95.205 E1.0109
G1 X272.005 Y95.121 E1.01418
G1 X272.653 Y94.97 E1.02082
G1 X273.113 Y94.88 E1.0255
G1 X274.074 Y94.748 E1.03518
G1 X274.688 Y94.692 E1.04133
G1 X275.065 Y94.674 E1.04509
G1 X275.477 Y94.669 E1.0492
G1 X276.112 Y94.677 E1.05554
G1 X276.714 Y94.708 E1.06156
G1 X277.084 Y94.744 E1.06527
G1 X277.519 Y94.802 E1.06964
G1 X278.234 Y94.917 E1.07687
G1 X278.895 Y95.06 E1.08362
G1 X279.748 Y95.295 E1.09245
G1 X280.357 Y95.491 E1.09883
G1 X280.754 Y95.643 E1.10307
G1 X281.595 Y95.998 E1.11218
G1 X282.197 Y96.291 E1.11886
G1 X282.669 Y96.553 E1.12425
G1 X283.012 Y96.759 E1.12824
G1 X283.478 Y97.058 E1.13376
G1 X283.942 Y97.379 E1.13939
G1 X284.452 Y97.765 E1.14578
G1 X284.707 Y97.974 E1.14907
G1 X285.133 Y98.342 E1.15468
G1 X285.486 Y98.67 E1.15949
G1 X285.887 Y99.074 E1.16517
G1 X286.179 Y99.391 E1.16947
G1 X286.422 Y99.673 E1.17319
G1 X286.664 Y99.971 E1.17702
G1 X287.074 Y100.51 E1.18377
G1 X287.311 Y100.845 E1.18787
G1 X287.722 Y101.468 E1.19532
G1 X287.989 Y101.911 E1.20048
G1 X288.132 Y102.173 E1.20345
G1 X288.304 Y102.512 E1.20725
G1 X288.57 Y103.078 E1.21349
G1 X288.735 Y103.464 E1.21768
G1 X289.002 Y104.151 E1.22503
G1 X289.178 Y104.667 E1.23047
G1 X289.309 Y105.116 E1.23514
G1 X289.394 Y105.443 E1.23851
G1 X289.518 Y105.975 E1.24396
G1 X289.616 Y106.498 E1.24927
G1 X289.712 Y107.165 E1.25599
G1 X289.762 Y107.647 E1.26083
G1 X289.801 Y108.327 E1.26762
G1 X289.815 Y108.892 E1.27326
G1 X289.811 Y109.328 E1.27761
G1 X289.787 Y109.843 E1.28276
G1 X289.755 Y110.25 E1.28683
G1 X289.684 Y110.885 E1.29321
G1 X289.612 Y111.356 E1.29796
G1 X289.54 Y111.737 E1.30183
G1 X289.424 Y112.237 E1.30695
G1 X289.153 Y113.211 E1.31704
G1 X288.962 Y113.787 E1.32309
G1 X288.765 Y114.296 E1.32854
G1 X288.582 Y114.721 E1.33316
G1 X288.305 Y115.304 E1.3396
G1 X288.064 Y115.768 E1.34482
G1 X287.9 Y116.054 E1.34811
G1 X287.627 Y116.502 E1.35334
G1 X287.395 Y116.854 E1.35755
G1 X286.977 Y117.447 E1.36479
G1 X286.593 Y117.937 E1.371
G1 X286.106 Y118.498 E1.37841
G1 X285.797 Y118.827 E1.38291
G1 X285.393 Y119.228 E1.38859
G1 X284.959 Y119.621 E1.39444
G1 X284.333 Y120.136 E1.40252
G1 X283.85 Y120.502 E1.40857
G1 X283.56 Y120.702 E1.41209
G1 X282.89 Y121.129 E1.42001
G1 X282.314 Y121.457 E1.42663
G1 X281.89 Y121.677 E1.43139
G1 X281.515 Y121.855 E1.43554
G1 X281.161 Y122.01 E1.43939
G1 X280.758 Y122.169 E1.44371
G1 X280.105 Y122.402 E1.45063
G1 X279.655 Y122.543 E1.45534
G1 X278.803 Y122.775 E1.46415
G1 X278.159 Y122.913 E1.47072
G1 X277.629 Y122.994 E1.47607
G1 X277.135 Y123.057 E1.48104
G1 X276.745 Y123.095 E1.48495
G1 X276.176 Y123.131 E1.49064
G1 X275.776 Y123.143 E1.49463
G1 X275.199 Y123.137 E1.50039
G1 X274.686 Y123.113 E1.50551
G1 X274.265 Y123.08 E1.50973
G1 X273.552 Y122.998 E1.51689
G1 X272.862 Y122.879 E1.52387
G1 X272.114 Y122.706 E1.53153
G1 X271.709 Y122.598 E1.53572
G1 X271.044 Y122.397 E1.54265
G1 X270.565 Y122.23 E1.54771
G1 X269.951 Y121.976 E1.55434
G1 X269.299 Y121.674 E1.56151
G1 X268.94 Y121.493 E1.56552
G1 X268.452 Y121.226 E1.57107
G1 X267.957 Y120.932 E1.57682
G1 X267.621 Y120.712 E1.58082
G1 X267.15 Y120.38 E1.58657
G1 X266.814 Y120.125 E1.59078
G1 X266.445 Y119.824 E1.59553
G1 X266.1 Y119.527 E1.60008
G1 X265.571 Y119.034 E1.60729
G1 X265.286 Y118.743 E1.61136
G1 X264.775 Y118.174 E1.61899
G1 X264.402 Y117.719 E1.62486
G1 X264.012 Y117.206 E1.63129
G1 X263.771 Y116.858 E1.63551
G1 X263.455 Y116.366 E1.64135
G1 X263.176 Y115.885 E1.64689
G1 X262.831 Y115.225 E1.65433
G1 X262.628 Y114.796 E1.65906
G1 X262.408 Y114.281 E1.66465
G1 X262.252 Y113.881 E1.66893
G1 X262.054 Y113.312 E1.67494
G1 X261.928 Y112.904 E1.6792
G1 X261.74 Y112.214 E1.68634
G1 X261.618 Y111.674 E1.69186
G1 X261.49 Y110.918 E1.69952
G1 X261.389 Y110.088 E1.70786
G1 X261.359 Y109.536 E1.71337
G1 X261.348 Y108.973 E1.71899
G1 X261.353 Y108.581 E1.7229
G1 X261.381 Y107.953 E1.72918
G1 X261.415 Y107.511 E1.7336
G1 X261.488 Y106.88 E1.73994
G1 X261.563 Y106.406 E1.74473
G1 X261.64 Y106.008 E1.74877
G1 X261.75 Y105.54 E1.75357
G1 X261.974 Y104.734 E1.76192
G1 X262.167 Y104.136 E1.76819
G1 X262.324 Y103.723 E1.77259
G0 F6000 X262.14 Y103.645
G1 F900 X262.439 Y102.935 E1.78028
G1 X262.59 Y102.604 E1.78391
G1 X262.84 Y102.112 E1.78942
G1 X263.075 Y101.691 E1.79423
G1 X263.429 Y101.104 E1.80107
G1 X263.634 Y100.796 E1.80476
G1 X263.926 Y100.382 E1.80982
G1 X264.179 Y100.046 E1.81401
G1 X264.502 Y99.653 E1.81909
G1 X264.969 Y99.117 E1.82618
G1 X265.38 Y98.687 E1.83212
G1 X265.844 Y98.247 E1.8385
G1 X266.147 Y97.977 E1.84255
G1 X266.564 Y97.628 E1.84797
G1 X266.857 Y97.397 E1.8517
G1 X267.238 Y97.121 E1.85639
G1 X267.611 Y96.865 E1.8609
G1 X267.967 Y96.639 E1.86511
G1 X268.523 Y96.31 E1.87156
G1 X268.993 Y96.06 E1.87687
G1 X269.719 Y95.714 E1.88489
G1 X270.115 Y95.54 E1.88921
G1 X270.448 Y95.409 E1.89278
G1 X271.114 Y95.172 E1.89983
G1 X271.636 Y95.012 E1.90528
G1 X271.96 Y94.926 E1.90863
G1 X272.615 Y94.774 E1.91534
G1 X273.086 Y94.682 E1.92012
G1 X274.056 Y94.549 E1.92989
G1 X274.678 Y94.492 E1.93613
G1 X275.063 Y94.474 E1.93997
G1 X275.48 Y94.469 E1.94413
G1 X276.122 Y94.477 E1.95054
G1 X276.733 Y94.509 E1.95664
G1 X277.11 Y94.546 E1.96042
G1 X277.551 Y94.605 E1.96486
G1 X278.276 Y94.722 E1.97219
G1 X278.948 Y94.867 E1.97905
G1 X279.809 Y95.105 E1.98796
G1 X280.429 Y95.304 E1.99446
G1 X280.832 Y95.459 E1.99877
G1 X281.683 Y95.818 E2.00799
G1 X282.294 Y96.116 E2.01477
G1 X282.772 Y96.382 E2.02023
G1 X283.12 Y96.591 E2.02428
G1 X283.592 Y96.894 E2.02987
G1 X284.063 Y97.22 E2.03559
G1 X284.579 Y97.61 E2.04204
G1 X284.838 Y97.823 E2.04539
G1 X285.269 Y98.195 E2.05107
G1 X285.628 Y98.529 E2.05596
G1 X286.034 Y98.938 E2.06171
G1 X286.331 Y99.26 E2.06608
G1 X286.577 Y99.547 E2.06986
G1 X286.823 Y99.85 E2.07375
G1 X287.237 Y100.394 E2.08057
G1 X287.478 Y100.735 E2.08474
G1 X287.893 Y101.365 E2.09227
G1 X288.165 Y101.815 E2.09751
G1 X288.308 Y102.077 E2.10049
G1 X288.485 Y102.427 E2.1044
G1 X288.754 Y102.999 E2.11071
G1 X288.921 Y103.392 E2.11497
G1 X289.191 Y104.086 E2.1224
G1 X289.37 Y104.611 E2.12794
G1 X289.503 Y105.066 E2.13267
G1 X289.589 Y105.398 E2.13609
G1 X289.715 Y105.938 E2.14162
G1 X289.814 Y106.47 E2.14702
G1 X289.911 Y107.144 E2.15382
G1 X289.962 Y107.636 E2.15875
G1 X290.001 Y108.322 E2.16561
G1 X290.015 Y108.894 E2.17132
G1 X290.011 Y109.337 E2.17574
G1 X289.986 Y109.859 E2.18095
G1 X289.954 Y110.272 E2.18508
G1 X289.882 Y110.915 E2.19154
G1 X289.809 Y111.393 E2.19637
G1 X289.735 Y111.782 E2.20032
G1 X289.617 Y112.291 E2.20553
G1 X289.343 Y113.274 E2.21571
G1 X289.149 Y113.859 E2.22186
G1 X288.949 Y114.375 E2.22738
G1 X288.763 Y114.807 E2.23208
G1 X288.486 Y115.39 E2.23852
G1 X288.237 Y115.867 E2.24389
G1 X288.071 Y116.158 E2.24723
G1 X287.794 Y116.612 E2.25254
G1 X287.558 Y116.969 E2.25681
G1 X287.134 Y117.57 E2.26414
G1 X286.744 Y118.068 E2.27046
G1 X286.252 Y118.635 E2.27795
G1 X285.938 Y118.969 E2.28252
G1 X285.527 Y119.376 E2.28829
G1 X285.086 Y119.775 E2.29423
G1 X284.454 Y120.295 E2.30239
G1 X283.964 Y120.667 E2.30853
G1 X283.667 Y120.871 E2.31213
G1 X282.989 Y121.303 E2.32015
G1 X282.406 Y121.635 E2.32684
G1 X281.976 Y121.858 E2.33168
G1 X281.595 Y122.038 E2.33588
G1 X281.234 Y122.196 E2.33981
G1 X280.825 Y122.357 E2.3442
G1 X280.165 Y122.593 E2.35119
G1 X279.708 Y122.736 E2.35597
G1 X278.845 Y122.971 E2.36489
G1 X278.189 Y123.111 E2.37159
G1 X277.654 Y123.192 E2.37699
G1 X277.154 Y123.256 E2.38202
G1 X276.758 Y123.295 E2.38599
G1 X276.182 Y123.331 E2.39175
G1 X275.774 Y123.343 E2.39582
G1 X275.19 Y123.337 E2.40165
G1 X274.67 Y123.312 E2.40684
G1 X274.242 Y123.279 E2.41112
G1 X273.518 Y123.195 E2.4184
G1 X272.817 Y123.074 E2.42549
G1 X272.062 Y122.899 E2.43323
G1 X271.651 Y122.789 E2.43747
G1 X270.978 Y122.586 E2.44449
G1 X270.489 Y122.415 E2.44966
G1 X269.867 Y122.157 E2.45637
G1 X269.209 Y121.853 E2.46361
G1 X268.844 Y121.668 E2.46769
G1 X268.35 Y121.398 E2.47331
G1 X267.847 Y121.099 E2.47915
G1 X267.506 Y120.875 E2.48322
G1 X267.029 Y120.539 E2.48904
G1 X266.688 Y120.28 E2.49331
G1 X266.315 Y119.976 E2.49811
G1 X265.964 Y119.673 E2.50274
G1 X265.428 Y119.174 E2.51005
G1 X265.137 Y118.877 E2.5142
G1 X264.62 Y118.301 E2.52192
G1 X264.243 Y117.84 E2.52786
G1 X263.848 Y117.32 E2.53438
G1 X263.603 Y116.966 E2.53867
G1 X263.282 Y116.466 E2.5446
G1 X262.999 Y115.978 E2.55023
G1 X262.65 Y115.311 E2.55774
G1 X262.444 Y114.875 E2.56255
G1 X262.222 Y114.354 E2.5682
G1 X262.063 Y113.947 E2.57256
G1 X261.863 Y113.371 E2.57865
G1 X261.735 Y112.957 E2.58297
G1 X261.545 Y112.258 E2.5902
G1 X261.421 Y111.707 E2.59583
G1 X261.291 Y110.942 E2.60358
G1 X261.189 Y110.099 E2.61205
G1 X261.159 Y109.54 E2.61764
G1 X261.148 Y108.97 E2.62332
G1 X261.153 Y108.572 E2.6273
G1 X261.182 Y107.938 E2.63363
G1 X261.216 Y107.488 E2.63813
G1 X261.29 Y106.849 E2.64455
G1 X261.367 Y106.368 E2.64941
