;FLAVOR:Marlin
;TIME:2205
;Filament used: 1.83717m
;Layer height: 0.16
;MINX:221.493
;MINY:125.096
;MINZ:0.2
;MAXX:269.501
;MAXY:173.114
;MAXZ:18.92
;POSTPROCESSED
;Generated with Cura_SteamEngine 5.3.0
;
;

M82 ;absolute extrusion mode
M140 S50 ; start heating the bed
M104 S200 T0 ; start heating the hotend
M109 S200 T0 ; wait for hotend to hit target temp
M190 S50 ; wait for bed temp (should be there)
M105 ; report temp

M201 X500.00 Y500.00 Z100.00 E5000.00 ;Setup machine max acceleration
M203 X500.00 Y500.00 Z10.00 E50.00 ;Setup machine max feedrate
M204 P500.00 R1000.00 T500.00 ;Setup Print/Retract/Travel acceleration
M205 X8.00 Y8.00 Z0.40 E5.00 ;Setup Jerk
M220 S100 ;Reset Feedrate
M221 S100 ;Reset Flowrate

G28 ;Home

G92 E0 ;Reset Extruder
G1 Z2.0 F3000 ;Move Z Axis up
G1 X10.1 Y20 Z0.28 F5000.0 ;Move to start position
G1 X10.1 Y200.0 Z0.28 F1500.0 E20 ;Draw the first line (was E15)
G1 X10.4 Y200.0 Z0.28 F5000.0 ;Move to side a little
G1 X10.4 Y40 Z0.28 F1500.0 E30 ;Draw the second line (was Y20)
G92 E0 ;Reset Extruder
G1 Z2.0 F3000 ;Move Z Axis up
G92 E0
G92 E0
G1 F2700 E-5
;LAYER_COUNT:103
;LAYER:0
M107
G0 F6000 X225.75 Y136.931 Z0.2
;TYPE:SKIRT
G1 F2700 E0
G1 F1200 X226.251 Y136.154 E0.03075
G1 X226.647 Y135.582 E0.05389
G1 X227.196 Y134.846 E0.08443
G1 X227.663 Y134.266 E0.1092
G1 X228.272 Y133.563 E0.14013
G1 X228.583 Y133.22 E0.15553
G1 X228.956 Y132.827 E0.17355
G1 X229.366 Y132.419 E0.19279
G1 X229.842 Y131.98 E0.21433
G1 X230.558 Y131.354 E0.24596
G1 X231.114 Y130.902 E0.26979
G1 X231.864 Y130.334 E0.30108
G1 X232.443 Y129.926 E0.32464
G1 X233.17 Y129.451 E0.35353
G1 X233.766 Y129.09 E0.3767
G1 X234.584 Y128.632 E0.40788
G1 X235.237 Y128.297 E0.43229
G1 X236.056 Y127.913 E0.46238
G1 X236.689 Y127.642 E0.48528
G1 X237.571 Y127.299 E0.51676
G1 X238.066 Y127.121 E0.53425
G1 X238.556 Y126.959 E0.55142
G1 X239.093 Y126.797 E0.57007
G1 X239.697 Y126.64 E0.59083
G1 X240.67 Y126.412 E0.62407
G1 X241.375 Y126.273 E0.64797
G1 X242.232 Y126.135 E0.67684
G1 X242.924 Y126.047 E0.70004
G1 X243.907 Y125.957 E0.73287
G1 X244.452 Y125.922 E0.75104
G1 X244.981 Y125.902 E0.76864
G1 X245.503 Y125.896 E0.78601
G1 X246.169 Y125.911 E0.80816
G1 X247.057 Y125.955 E0.83773
G1 X247.76 Y126.015 E0.8612
G1 X248.716 Y126.129 E0.89322
G1 X249.405 Y126.235 E0.91641
G1 X250.298 Y126.404 E0.94664
G1 X250.801 Y126.512 E0.96375
G1 X251.309 Y126.635 E0.98113
G1 X251.853 Y126.783 E0.99988
G1 X252.48 Y126.972 E1.02166
G1 X253.028 Y127.15 E1.04083
G1 X253.439 Y127.296 E1.05534
G1 X254.008 Y127.519 E1.07566
G1 X254.898 Y127.894 E1.10778
G1 X255.525 Y128.184 E1.13076
G1 X256.357 Y128.603 E1.16174
G1 X256.995 Y128.953 E1.18595
G1 X257.813 Y129.441 E1.21763
G1 X258.414 Y129.829 E1.24142
G1 X259.072 Y130.287 E1.26809
G1 X259.627 Y130.702 E1.29113
G1 X260.375 Y131.302 E1.32303
G1 X260.904 Y131.757 E1.34624
G1 X261.615 Y132.412 E1.37839
G1 X262.005 Y132.791 E1.39648
G1 X262.364 Y133.159 E1.41358
G1 X262.737 Y133.563 E1.43186
G1 X263.147 Y134.04 E1.45278
G1 X263.748 Y134.776 E1.48439
G1 X264.173 Y135.335 E1.50774
G1 X264.703 Y136.084 E1.53826
G1 X265.099 Y136.688 E1.56228
G1 X265.601 Y137.516 E1.59449
G1 X265.864 Y137.976 E1.61211
G1 X266.109 Y138.432 E1.62933
G1 X266.353 Y138.917 E1.64739
G1 X266.627 Y139.513 E1.66921
G1 X266.991 Y140.362 E1.69993
G1 X267.244 Y141.014 E1.72319
G1 X267.565 Y141.932 E1.75554
G1 X267.723 Y142.422 E1.77266
G1 X267.87 Y142.922 E1.78999
G1 X268.022 Y143.503 E1.80997
G1 X268.15 Y144.078 E1.82956
G1 X268.336 Y145.009 E1.86114
G1 X268.453 Y145.721 E1.88514
G1 X268.576 Y146.689 E1.91759
G1 X268.628 Y147.211 E1.93504
G1 X268.666 Y147.717 E1.95192
G1 X268.693 Y148.264 E1.97013
G1 X268.701 Y148.946 E1.99282
G1 X268.688 Y149.92 E2.02521
G1 X268.668 Y150.444 E2.04266
G1 X268.635 Y150.953 E2.05962
G1 X268.582 Y151.52 E2.07856
G1 X268.5 Y152.15 E2.09969
G1 X268.349 Y153.126 E2.13254
G1 X268.218 Y153.814 E2.15583
G1 X268.011 Y154.73 E2.18707
G1 X267.876 Y155.26 E2.20526
G1 X267.739 Y155.744 E2.22199
G1 X267.579 Y156.259 E2.23993
G1 X267.352 Y156.904 E2.26267
G1 X267.022 Y157.769 E2.29346
G1 X266.755 Y158.403 E2.31634
G1 X266.365 Y159.249 E2.34733
G1 X266.041 Y159.891 E2.37124
G1 X265.614 Y160.668 E2.40073
G1 X265.245 Y161.288 E2.42473
G1 X264.746 Y162.061 E2.45533
G1 X264.352 Y162.628 E2.4783
G1 X263.803 Y163.364 E2.50884
G1 X263.336 Y163.944 E2.5336
G1 X262.727 Y164.647 E2.56454
G1 X262.416 Y164.99 E2.57994
G1 X262.043 Y165.383 E2.59796
G1 X261.633 Y165.791 E2.6172
G1 X261.157 Y166.23 E2.63873
G1 X260.441 Y166.856 E2.67037
G1 X259.888 Y167.306 E2.69408
G1 X259.161 Y167.857 E2.72442
G1 X258.583 Y168.265 E2.74795
G1 X257.797 Y168.779 E2.77919
G1 X257.184 Y169.149 E2.803
G1 X256.381 Y169.597 E2.83358
G1 X255.957 Y169.821 E2.84953
G1 X255.493 Y170.052 E2.86677
G1 X254.94 Y170.307 E2.88703
G1 X254.326 Y170.563 E2.90915
G1 X253.445 Y170.906 E2.9406
G1 X252.958 Y171.081 E2.95781
G1 X252.464 Y171.245 E2.97512
G1 X251.903 Y171.414 E2.99461
G1 X251.254 Y171.583 E3.01692
G1 X250.375 Y171.789 E3.04694
G1 X249.673 Y171.928 E3.07074
G1 X248.725 Y172.081 E3.10268
G1 X248.021 Y172.169 E3.12628
G1 X247.117 Y172.251 E3.15647
G1 X246.616 Y172.284 E3.17317
G1 X246.058 Y172.307 E3.19175
G1 X245.458 Y172.314 E3.2117
G1 X244.854 Y172.299 E3.2318
G1 X243.916 Y172.253 E3.26303
G1 X243.205 Y172.193 E3.28677
G1 X242.31 Y172.086 E3.31675
G1 X241.63 Y171.981 E3.33963
G1 X240.745 Y171.814 E3.36959
G1 X240.024 Y171.651 E3.39417
G1 X239.133 Y171.415 E3.42483
G1 X238.469 Y171.215 E3.44789
G1 X237.608 Y170.923 E3.47813
G1 X236.923 Y170.663 E3.5025
G1 X236.09 Y170.312 E3.53257
G1 X235.454 Y170.018 E3.55587
G1 X234.622 Y169.598 E3.58687
G1 X233.993 Y169.251 E3.61076
G1 X233.217 Y168.788 E3.64082
G1 X232.616 Y168.401 E3.66459
G1 X231.902 Y167.904 E3.69353
G1 X231.352 Y167.493 E3.71636
G1 X230.633 Y166.917 E3.747
G1 X230.092 Y166.451 E3.77075
G1 X229.377 Y165.791 E3.80312
G1 X228.995 Y165.42 E3.82083
G1 X228.632 Y165.048 E3.83811
G1 X228.251 Y164.635 E3.8568
G1 X227.851 Y164.169 E3.87723
G1 X227.25 Y163.433 E3.90883
G1 X226.821 Y162.869 E3.9324
G1 X226.291 Y162.119 E3.96295
G1 X225.897 Y161.517 E3.98688
G1 X225.433 Y160.751 E4.01666
G1 X225.092 Y160.142 E4.03988
G1 X224.668 Y159.32 E4.07064
G1 X224.36 Y158.667 E4.09465
G1 X223.981 Y157.784 E4.12661
G1 X223.791 Y157.309 E4.14363
G1 X223.614 Y156.832 E4.16055
G1 X223.429 Y156.286 E4.17973
G1 X223.243 Y155.663 E4.20135
G1 X222.991 Y154.738 E4.23324
G1 X222.867 Y154.233 E4.25053
G1 X222.748 Y153.688 E4.26909
G1 X222.643 Y153.138 E4.28771
G1 X222.547 Y152.507 E4.30894
G1 X222.431 Y151.594 E4.33955
G1 X222.366 Y150.888 E4.36313
G1 X222.311 Y149.922 E4.39531
G1 X222.295 Y149.379 E4.41338
G1 X222.293 Y148.822 E4.43191
G1 X222.306 Y148.28 E4.44994
G1 X222.342 Y147.669 E4.4703
G1 X222.423 Y146.705 E4.50247
G1 X222.507 Y146 E4.52609
G1 X222.653 Y145.056 E4.55786
G1 X222.74 Y144.573 E4.57418
G1 X222.843 Y144.069 E4.59129
G1 X222.982 Y143.478 E4.61148
G1 X223.143 Y142.896 E4.63157
G1 X223.43 Y141.947 E4.66454
G1 X223.656 Y141.283 E4.68787
G1 X223.986 Y140.413 E4.71882
G1 X224.182 Y139.934 E4.73603
G1 X224.403 Y139.43 E4.75434
G1 X224.66 Y138.887 E4.77432
G1 X224.924 Y138.379 E4.79336
G1 X225.383 Y137.544 E4.82505
G1 X225.75 Y136.931 E4.84881
G0 F6000 X225.414 Y136.714
G1 F1200 X225.922 Y135.926 E4.88
G1 X226.326 Y135.343 E4.90359
G1 X226.884 Y134.595 E4.93463
G1 X227.361 Y134.004 E4.95989
G1 X227.976 Y133.294 E4.99113
G1 X228.293 Y132.945 E5.00681
G1 X228.674 Y132.543 E5.02523
G1 X229.095 Y132.125 E5.04496
G1 X229.579 Y131.679 E5.06686
G1 X230.306 Y131.044 E5.09896
G1 X230.873 Y130.583 E5.12327
G1 X231.634 Y130.007 E5.15501
G1 X232.224 Y129.591 E5.17902
G1 X232.963 Y129.109 E5.20837
G1 X233.571 Y128.741 E5.232
G1 X234.401 Y128.276 E5.26365
G1 X235.067 Y127.935 E5.28853
G1 X235.899 Y127.545 E5.31909
G1 X236.544 Y127.269 E5.34243
G1 X237.436 Y126.923 E5.37425
G1 X237.94 Y126.741 E5.39207
G1 X238.44 Y126.576 E5.40959
G1 X238.992 Y126.41 E5.42876
G1 X239.606 Y126.251 E5.44985
G1 X240.593 Y126.02 E5.48357
G1 X241.311 Y125.878 E5.50791
G1 X242.182 Y125.738 E5.53725
G1 X242.888 Y125.649 E5.56092
G1 X243.881 Y125.558 E5.59408
G1 X244.437 Y125.522 E5.61262
G1 X244.976 Y125.502 E5.63056
G1 X245.512 Y125.496 E5.64838
G1 X246.189 Y125.511 E5.67091
G1 X247.091 Y125.556 E5.70095
G1 X247.807 Y125.618 E5.72485
G1 X248.777 Y125.734 E5.75734
G1 X249.479 Y125.842 E5.78096
G1 X250.382 Y126.013 E5.81153
G1 X250.895 Y126.123 E5.82898
G1 X251.414 Y126.249 E5.84675
G1 X251.968 Y126.4 E5.86584
G1 X252.604 Y126.592 E5.88794
G1 X253.162 Y126.773 E5.90745
G1 X253.585 Y126.924 E5.92239
G1 X254.163 Y127.15 E5.94303
G1 X255.066 Y127.531 E5.97563
G1 X255.705 Y127.827 E5.99905
G1 X256.549 Y128.252 E6.03048
G1 X257.2 Y128.609 E6.05518
G1 X258.03 Y129.105 E6.08734
G1 X258.643 Y129.501 E6.11161
G1 X259.312 Y129.967 E6.13873
G1 X259.877 Y130.39 E6.1622
G1 X260.636 Y130.999 E6.19457
G1 X261.175 Y131.463 E6.21822
G1 X261.894 Y132.125 E6.25073
G1 X262.291 Y132.512 E6.26917
G1 X262.658 Y132.888 E6.28664
G1 X263.04 Y133.302 E6.30538
G1 X263.457 Y133.787 E6.32665
G1 X264.066 Y134.534 E6.35871
G1 X264.5 Y135.104 E6.38254
G1 X265.038 Y135.865 E6.41353
G1 X265.441 Y136.481 E6.43802
G1 X265.948 Y137.317 E6.47054
G1 X266.216 Y137.787 E6.48853
G1 X266.466 Y138.252 E6.50609
G1 X266.716 Y138.75 E6.52463
G1 X266.995 Y139.355 E6.54678
G1 X267.364 Y140.217 E6.57797
G1 X267.622 Y140.882 E6.60169
G1 X267.946 Y141.809 E6.63436
G1 X268.107 Y142.309 E6.65183
G1 X268.257 Y142.821 E6.66957
G1 X268.412 Y143.416 E6.69002
G1 X268.542 Y144 E6.70992
G1 X268.731 Y144.944 E6.74194
G1 X268.85 Y145.671 E6.76644
G1 X268.974 Y146.649 E6.79923
G1 X269.027 Y147.181 E6.81701
G1 X269.066 Y147.697 E6.83423
G1 X269.093 Y148.259 E6.85294
G1 X269.101 Y148.951 E6.87596
G1 X269.088 Y149.935 E6.90869
G1 X269.067 Y150.47 E6.9265
G1 X269.033 Y150.99 E6.94383
G1 X268.979 Y151.572 E6.96327
G1 X268.895 Y152.211 E6.9847
G1 X268.742 Y153.201 E7.01802
G1 X268.608 Y153.902 E7.04176
G1 X268.399 Y154.829 E7.07337
G1 X268.261 Y155.369 E7.0919
G1 X268.121 Y155.863 E7.10898
G1 X267.956 Y156.392 E7.12741
G1 X267.726 Y157.047 E7.1505
G1 X267.391 Y157.924 E7.18173
G1 X267.118 Y158.57 E7.20505
G1 X266.722 Y159.429 E7.23651
G1 X266.392 Y160.084 E7.26091
G1 X265.958 Y160.873 E7.29086
G1 X265.581 Y161.505 E7.31533
G1 X265.074 Y162.289 E7.34639
G1 X264.673 Y162.867 E7.36979
G1 X264.115 Y163.615 E7.40082
G1 X263.638 Y164.206 E7.42608
G1 X263.023 Y164.916 E7.45733
G1 X262.706 Y165.265 E7.47301
G1 X262.325 Y165.667 E7.49143
G1 X261.904 Y166.085 E7.51116
G1 X261.42 Y166.531 E7.53305
G1 X260.693 Y167.166 E7.56516
G1 X260.13 Y167.625 E7.58932
G1 X259.392 Y168.184 E7.62011
G1 X258.802 Y168.6 E7.64412
G1 X258.004 Y169.121 E7.67582
G1 X257.379 Y169.498 E7.70009
G1 X256.568 Y169.951 E7.73099
G1 X256.135 Y170.179 E7.74727
G1 X255.66 Y170.415 E7.76491
G1 X255.094 Y170.676 E7.78564
G1 X254.471 Y170.936 E7.80809
G1 X253.58 Y171.282 E7.83988
G1 X253.084 Y171.461 E7.85742
G1 X252.579 Y171.628 E7.87511
G1 X252.004 Y171.801 E7.89508
G1 X251.345 Y171.972 E7.91773
G1 X250.453 Y172.181 E7.9482
G1 X249.737 Y172.323 E7.97248
G1 X248.775 Y172.478 E8.00489
G1 X248.057 Y172.567 E8.02895
G1 X247.143 Y172.65 E8.05947
G1 X246.632 Y172.684 E8.07651
G1 X246.074 Y172.707 E8.09508
G1 X245.448 Y172.714 E8.1159
G1 X244.834 Y172.699 E8.13633
G1 X243.882 Y172.652 E8.16803
G1 X243.158 Y172.59 E8.1922
G1 X242.249 Y172.481 E8.22265
G1 X241.556 Y172.374 E8.24598
G1 X240.657 Y172.204 E8.27641
G1 X239.922 Y172.038 E8.30147
G1 X239.018 Y171.798 E8.33258
G1 X238.341 Y171.594 E8.35609
G1 X237.466 Y171.297 E8.38683
G1 X236.768 Y171.032 E8.41166
G1 X235.922 Y170.675 E8.4422
G1 X235.274 Y170.375 E8.46595
G1 X234.429 Y169.948 E8.49744
G1 X233.788 Y169.595 E8.52178
G1 X233 Y169.124 E8.55231
G1 X232.387 Y168.729 E8.57657
G1 X231.663 Y168.224 E8.60593
G1 X231.102 Y167.805 E8.62922
G1 X230.372 Y167.22 E8.66033
G1 X229.821 Y166.745 E8.68453
G1 X229.098 Y166.078 E8.71724
G1 X228.709 Y165.699 E8.73531
G1 X228.338 Y165.319 E8.75297
G1 X227.947 Y164.896 E8.77213
G1 X227.541 Y164.422 E8.79289
G1 X226.932 Y163.675 E8.82494
G1 X226.494 Y163.1 E8.84898
G1 X225.956 Y162.338 E8.88001
G1 X225.555 Y161.724 E8.9044
G1 X225.084 Y160.946 E8.93465
G1 X224.737 Y160.325 E8.95831
G1 X224.306 Y159.491 E8.98953
G1 X223.992 Y158.825 E9.01402
G1 X223.61 Y157.933 E9.0463
G1 X223.416 Y157.448 E9.06367
G1 X223.235 Y156.96 E9.08098
G1 X223.046 Y156.4 E9.10064
G1 X222.857 Y155.768 E9.12258
G1 X222.603 Y154.833 E9.15481
G1 X222.476 Y154.318 E9.17245
G1 X222.355 Y153.763 E9.19134
G1 X222.248 Y153.198 E9.21047
G1 X222.15 Y152.557 E9.23204
G1 X222.033 Y151.631 E9.26308
G1 X221.967 Y150.911 E9.28713
G1 X221.911 Y149.934 E9.31967
G1 X221.895 Y149.38 E9.33811
G1 X221.893 Y148.812 E9.357
G1 X221.907 Y148.256 E9.3755
G1 X221.943 Y147.636 E9.39616
G1 X222.026 Y146.658 E9.4288
G1 X222.112 Y145.939 E9.45289
G1 X222.259 Y144.985 E9.48499
G1 X222.348 Y144.493 E9.50162
G1 X222.454 Y143.977 E9.51914
G1 X222.596 Y143.371 E9.53984
G1 X222.76 Y142.78 E9.56024
G1 X223.051 Y141.818 E9.59367
G1 X223.282 Y141.141 E9.61746
G1 X223.616 Y140.262 E9.64874
G1 X223.816 Y139.773 E9.66631
G1 X224.041 Y139.259 E9.68497
G1 X224.305 Y138.703 E9.70544
G1 X224.573 Y138.186 E9.72481
G1 X225.032 Y137.351 E9.7565
G1 X225.414 Y136.714 E9.78121
G0 F6000 X225.078 Y136.497
G1 F1200 X225.593 Y135.698 E9.81282
G1 X226.005 Y135.104 E9.83687
G1 X226.573 Y134.344 E9.86842
G1 X227.059 Y133.742 E9.89416
G1 X227.68 Y133.025 E9.92571
G1 X228.003 Y132.67 E9.94167
G1 X228.392 Y132.259 E9.96049
G1 X228.824 Y131.831 E9.98072
G1 X229.316 Y131.378 E10.00296
G1 X230.054 Y130.734 E10.03554
G1 X230.632 Y130.264 E10.06032
G1 X231.404 Y129.68 E10.09251
G1 X232.005 Y129.256 E10.11698
G1 X232.756 Y128.767 E10.14678
G1 X233.375 Y128.392 E10.17085
G1 X234.219 Y127.92 E10.20302
G1 X234.897 Y127.573 E10.22835
G1 X235.742 Y127.177 E10.25939
G1 X236.399 Y126.896 E10.28315
G1 X237.3 Y126.547 E10.31529
G1 X237.815 Y126.361 E10.3335
G1 X238.325 Y126.193 E10.35136
G1 X238.892 Y126.023 E10.37105
G1 X239.515 Y125.862 E10.39245
G1 X240.515 Y125.628 E10.42661
G1 X241.248 Y125.483 E10.45146
G1 X242.132 Y125.341 E10.48124
G1 X242.851 Y125.251 E10.50534
G1 X243.855 Y125.159 E10.53887
G1 X244.422 Y125.122 E10.55777
G1 X244.972 Y125.102 E10.57608
G1 X245.521 Y125.096 E10.59434
G1 X246.209 Y125.111 E10.61723
G1 X247.126 Y125.157 E10.64777
G1 X247.854 Y125.221 E10.67207
G1 X248.838 Y125.339 E10.70503
G1 X249.553 Y125.449 E10.7291
G1 X250.466 Y125.622 E10.76
G1 X250.989 Y125.734 E10.77779
G1 X251.519 Y125.863 E10.79593
G1 X252.084 Y126.017 E10.81541
G1 X252.727 Y126.212 E10.83776
G1 X253.296 Y126.396 E10.85765
G1 X253.731 Y126.551 E10.87301
G1 X254.318 Y126.781 E10.89398
G1 X255.234 Y127.168 E10.92705
G1 X255.885 Y127.47 E10.95092
G1 X256.741 Y127.901 E10.9828
G1 X257.405 Y128.266 E11.008
G1 X258.247 Y128.769 E11.04062
G1 X258.872 Y129.173 E11.06537
G1 X259.552 Y129.647 E11.09294
G1 X260.127 Y130.078 E11.11684
G1 X260.897 Y130.696 E11.14968
G1 X261.446 Y131.169 E11.17378
G1 X262.173 Y131.839 E11.20667
G1 X262.577 Y132.233 E11.22543
G1 X262.952 Y132.617 E11.24329
G1 X263.343 Y133.041 E11.26247
G1 X263.767 Y133.534 E11.2841
G1 X264.384 Y134.292 E11.3166
G1 X264.827 Y134.873 E11.34091
G1 X265.373 Y135.646 E11.37238
G1 X265.783 Y136.274 E11.39733
G1 X266.295 Y137.119 E11.43019
G1 X266.568 Y137.598 E11.44853
G1 X266.823 Y138.073 E11.46646
G1 X267.079 Y138.582 E11.48541
G1 X267.363 Y139.198 E11.50797
G1 X267.737 Y140.072 E11.53959
G1 X268 Y140.75 E11.56377
G1 X268.327 Y141.686 E11.59675
G1 X268.491 Y142.197 E11.6146
G1 X268.644 Y142.72 E11.63272
G1 X268.802 Y143.329 E11.65365
G1 X268.934 Y143.921 E11.67382
G1 X269.126 Y144.879 E11.70632
G1 X269.247 Y145.621 E11.73133
G1 X269.372 Y146.609 E11.76445
G1 X269.426 Y147.151 E11.78257
G1 X269.466 Y147.678 E11.80014
G1 X269.493 Y148.254 E11.81932
G1 X269.501 Y148.956 E11.84267
G1 X269.488 Y149.951 E11.87577
G1 X269.466 Y150.496 E11.89391
G1 X269.431 Y151.027 E11.91161
G1 X269.376 Y151.624 E11.93155
G1 X269.29 Y152.272 E11.95329
G1 X269.135 Y153.276 E11.98708
G1 X268.998 Y153.99 E12.01126
G1 X268.787 Y154.928 E12.04324
