;FLAVOR:Marlin
;TIME:7084
;Filament used: 5.5301m
;Layer height: 0.2
;MINX:159.969
;MINY:56.751
;MINZ:0.2
;MAXX:204.776
;MAXY:215.747
;MAXZ:23
;POSTPROCESSED
;Generated with Cura_SteamEngine 5.3.0
;
;

M82 ;absolute extrusion mode
M140 S75 ; start heating the bed
M104 S240 T0 ; start heating the hotend
M109 S240 T0 ; wait for hotend to hit target temp
M190 S75 ; wait for bed temp (should be there)
M105 ; report temp

M201 X500.00 Y500.00 Z100.00 E5000.00 ;Setup machine max acceleration
M203 X500.00 Y500.00 Z10.00 E50.00 ;Setup machine max feedrate
M204 P500.00 R1000.00 T500.00 ;Setup Print/Retract/Travel acceleration
M205 X8.00 Y8.00 Z0.40 E5.00 ;Setup Jerk
M220 S100 ;Reset Feedrate
M221 S100 ;Reset Flowrate

G28 ;Home

G92 E0 ;Reset Extruder
G1 Z2.0 F3000 ;Move Z Axis up
G1 X10.1 Y20 Z0.28 F5000.0 ;Move to start position
G1 X10.1 Y200.0 Z0.28 F1500.0 E20 ;Draw the first line (was E15)
G1 X10.4 Y200.0 Z0.28 F5000.0 ;Move to side a little
G1 X10.4 Y40 Z0.28 F1500.0 E30 ;Draw the second line (was Y20)
G92 E0 ;Reset Extruder
G1 Z2.0 F3000 ;Move Z Axis up
G92 E0
G92 E0
G1 F2700 E-5
;LAYER_COUNT:115
;LAYER:0
M107
G0 F6000 X172.955 Y64.101 Z0.2
;TYPE:SKIRT
G1 F2700 E0
G1 F1200 X173.317 Y63.274 E0.03003
G1 X173.75 Y62.482 E0.06005
G1 X174.252 Y61.731 E0.09009
G1 X174.819 Y61.027 E0.12016
G1 X175.445 Y60.377 E0.15017
G1 X176.126 Y59.784 E0.18021
G1 X176.857 Y59.254 E0.21024
G1 X177.633 Y58.791 E0.24029
G1 X178.446 Y58.398 E0.27033
G1 X179.29 Y58.078 E0.30035
G1 X180.16 Y57.835 E0.33039
G1 X181.048 Y57.669 E0.36044
G1 X182.268 Y57.571 E0.40115
G1 X183.261 Y57.551 E0.43418
G1 X184.404 Y57.56 E0.4722
G1 X185.305 Y57.611 E0.50221
G1 X186.199 Y57.742 E0.53227
G1 X187.077 Y57.951 E0.56228
G1 X187.934 Y58.237 E0.59233
G1 X188.762 Y58.597 E0.62236
G1 X189.555 Y59.03 E0.65241
G1 X190.306 Y59.531 E0.68244
G1 X191.01 Y60.096 E0.71246
G1 X191.662 Y60.722 E0.74253
G1 X192.255 Y61.403 E0.77256
G1 X192.786 Y62.133 E0.80258
G1 X193.25 Y62.908 E0.83263
G1 X193.644 Y63.72 E0.86265
G1 X193.965 Y64.565 E0.89271
G1 X194.21 Y65.434 E0.92274
G1 X194.418 Y66.652 E0.96384
G1 X194.524 Y67.623 E0.99633
G1 X194.788 Y70.561 E1.09444
G1 X194.963 Y72.816 E1.16966
G1 X195.2 Y76.496 E1.29232
G1 X195.335 Y79.347 E1.38725
G1 X195.501 Y82.289 E1.48525
G1 X195.573 Y84.033 E1.54331
G1 X195.683 Y86.258 E1.6174
G1 X195.859 Y88.776 E1.70136
G1 X196.254 Y92.544 E1.82737
G1 X196.6 Y95.296 E1.91962
G1 X196.97 Y98.766 E2.03569
G1 X197.673 Y105.701 E2.26753
G1 X198.377 Y112.922 E2.50884
G1 X199.425 Y123.879 E2.87493
G1 X201.12 Y142.142 E3.48497
G1 X203.699 Y170.212 E4.42252
G1 X203.776 Y171.248 E4.45707
G1 X203.818 Y172.118 E4.48604
G1 X203.911 Y174.474 E4.56446
G1 X203.95 Y175.143 E4.58675
G1 X203.973 Y175.783 E4.60805
G1 X203.976 Y204.151 E5.55157
G1 X203.966 Y204.878 E5.57576
G1 X203.914 Y205.78 E5.60581
G1 X203.782 Y206.673 E5.63583
G1 X203.571 Y207.552 E5.6659
G1 X203.284 Y208.408 E5.69592
G1 X202.922 Y209.235 E5.72595
G1 X202.488 Y210.027 E5.75599
G1 X201.986 Y210.778 E5.78603
G1 X201.42 Y211.481 E5.81605
G1 X200.793 Y212.132 E5.84611
G1 X200.112 Y212.724 E5.87613
G1 X199.381 Y213.254 E5.90616
G1 X198.605 Y213.717 E5.93621
G1 X197.792 Y214.11 E5.96625
G1 X196.947 Y214.43 E5.9963
G1 X196.078 Y214.673 E6.02631
G1 X195.19 Y214.838 E6.05635
G1 X194.054 Y214.934 E6.09427
G1 X193.447 Y214.947 E6.11446
G1 X173.561 Y214.946 E6.77587
G1 X172.863 Y214.937 E6.79909
G1 X171.962 Y214.886 E6.82911
G1 X171.068 Y214.754 E6.85916
G1 X170.19 Y214.545 E6.88918
G1 X169.333 Y214.258 E6.91924
G1 X168.506 Y213.897 E6.94925
G1 X167.713 Y213.464 E6.9793
G1 X166.962 Y212.963 E7.00933
G1 X166.258 Y212.397 E7.03938
G1 X165.607 Y211.771 E7.06941
G1 X165.014 Y211.09 E7.09945
G1 X164.484 Y210.359 E7.12948
G1 X164.02 Y209.584 E7.15952
G1 X163.626 Y208.771 E7.18957
G1 X163.306 Y207.927 E7.21959
G1 X163.062 Y207.057 E7.24965
G1 X162.896 Y206.169 E7.27969
G1 X162.798 Y204.995 E7.31888
G1 X162.786 Y204.382 E7.33927
G1 X162.785 Y195.738 E7.62677
G1 X162.748 Y193.137 E7.71329
G1 X162.638 Y190.56 E7.79908
G1 X162.462 Y188.076 E7.8819
G1 X162.209 Y185.536 E7.9668
G1 X161.884 Y182.995 E8.052
G1 X161.494 Y180.507 E8.13576
G1 X160.952 Y177.613 E8.23369
G1 X160.825 Y176.719 E8.26373
G1 X160.782 Y176.012 E8.28728
G1 X160.769 Y175.406 E8.30744
G1 X160.769 Y172.264 E8.41195
G1 X160.779 Y171.597 E8.43414
G1 X160.833 Y170.696 E8.46416
G1 X160.966 Y169.802 E8.49422
G1 X161.188 Y168.888 E8.5255
G1 X162.046 Y165.953 E8.62721
G1 X162.693 Y163.466 E8.71268
G1 X163.258 Y161.008 E8.79656
G1 X163.761 Y158.497 E8.88174
G1 X164.187 Y156.012 E8.9656
G1 X164.54 Y153.53 E9.04898
G1 X164.901 Y150.238 E9.15913
G1 X165.645 Y142.135 E9.42977
G1 X167.315 Y124.204 E10.02874
G1 X168.777 Y108.853 E10.54162
G1 X169.346 Y103.122 E10.73317
G1 X170.024 Y96.576 E10.95206
G1 X170.175 Y95.206 E10.9979
G1 X170.428 Y93.169 E11.06617
G1 X170.526 Y92.451 E11.09027
G1 X170.801 Y89.918 E11.17502
G1 X171.003 Y87.383 E11.2596
G1 X171.113 Y85.309 E11.32868
G1 X171.203 Y83.332 E11.3945
G1 X171.25 Y82.589 E11.41926
G1 X171.385 Y80.024 E11.50469
G1 X171.385 Y79.897 E11.50892
G1 X171.453 Y78.807 E11.54524
G1 X171.508 Y77.504 E11.58862
G1 X171.663 Y74.869 E11.67641
G1 X171.833 Y72.452 E11.757
G1 X171.988 Y70.413 E11.82501
G1 X172.259 Y67.383 E11.92619
G1 X172.326 Y66.729 E11.94806
G1 X172.458 Y65.836 E11.97808
G1 X172.668 Y64.958 E12.00811
G1 X172.955 Y64.101 E12.03817
G0 F6000 X172.576 Y63.974
G1 F1200 X172.966 Y63.082 E12.07055
G1 X173.417 Y62.26 E12.10173
G1 X173.94 Y61.48 E12.13297
G1 X174.507 Y60.776 E12.16303
G1 X175.182 Y60.075 E12.1954
G1 X175.863 Y59.482 E12.22543
G1 X176.652 Y58.91 E12.25785
G1 X177.428 Y58.447 E12.2879
G1 X178.304 Y58.024 E12.32026
G1 X179.148 Y57.704 E12.35028
G1 X180.086 Y57.442 E12.38267
G1 X181.016 Y57.27 E12.41413
G1 X182.26 Y57.171 E12.45563
G1 X183.264 Y57.151 E12.48903
G1 X184.427 Y57.161 E12.52771
G1 X185.363 Y57.215 E12.5589
G1 X186.257 Y57.346 E12.58895
G1 X187.17 Y57.562 E12.62015
G1 X188.093 Y57.87 E12.65252
G1 X188.954 Y58.246 E12.68377
G1 X189.777 Y58.697 E12.71498
G1 X190.528 Y59.198 E12.74501
G1 X191.287 Y59.807 E12.77737
G1 X191.964 Y60.459 E12.80863
G1 X192.557 Y61.14 E12.83867
G1 X193.129 Y61.928 E12.87105
G1 X193.61 Y62.733 E12.90224
G1 X194.004 Y63.545 E12.93226
G1 X194.35 Y64.456 E12.96467
G1 X194.595 Y65.325 E12.9947
G1 X194.816 Y66.609 E13.03804
G1 X194.922 Y67.587 E13.07076
G1 X195.187 Y70.53 E13.16904
G1 X195.362 Y72.79 E13.24443
G1 X195.6 Y76.477 E13.36732
G1 X195.734 Y79.328 E13.46225
G1 X195.901 Y82.273 E13.56035
G1 X195.973 Y84.013 E13.61828
G1 X196.083 Y86.238 E13.69237
G1 X196.257 Y88.734 E13.77559
G1 X196.651 Y92.494 E13.90133
G1 X196.998 Y95.254 E13.99385
G1 X197.368 Y98.726 E14.10999
G1 X198.071 Y105.662 E14.34186
G1 X198.775 Y112.883 E14.58317
G1 X199.823 Y123.842 E14.94933
G1 X201.518 Y142.105 E15.55937
G1 X204.098 Y170.182 E16.49715
G1 X204.176 Y171.229 E16.53207
G1 X204.218 Y172.102 E16.56114
G1 X204.31 Y174.458 E16.63956
G1 X204.35 Y175.129 E16.66192
G1 X204.373 Y175.783 E16.68368
G1 X204.376 Y204.157 E17.62741
G1 X204.365 Y204.901 E17.65215
G1 X204.31 Y205.838 E17.68337
G1 X204.178 Y206.731 E17.7134
G1 X203.96 Y207.645 E17.74465
G1 X203.663 Y208.535 E17.77586
G1 X203.273 Y209.427 E17.80824
G1 X202.821 Y210.249 E17.83944
G1 X202.298 Y211.029 E17.87067
G1 X201.732 Y211.732 E17.90069
G1 X201.055 Y212.434 E17.93313
G1 X200.347 Y213.048 E17.9643
G1 X199.586 Y213.598 E17.99553
G1 X198.81 Y214.061 E18.02558
G1 X197.934 Y214.484 E18.05794
G1 X197.089 Y214.804 E18.08799
G1 X196.151 Y215.066 E18.12038
G1 X195.224 Y215.237 E18.15173
G1 X194.088 Y215.333 E18.18965
G1 X193.447 Y215.347 E18.21098
G1 X173.556 Y215.346 E18.87255
G1 X172.84 Y215.336 E18.89637
G1 X171.904 Y215.282 E18.92755
G1 X171.01 Y215.15 E18.95761
G1 X170.097 Y214.934 E18.98881
G1 X169.173 Y214.625 E19.02122
G1 X168.346 Y214.264 E19.05123
G1 X167.491 Y213.797 E19.08364
G1 X166.711 Y213.275 E19.11485
G1 X166.007 Y212.709 E19.1449
G1 X165.305 Y212.034 E19.17729
G1 X164.712 Y211.353 E19.20732
G1 X164.16 Y210.594 E19.23854
G1 X163.66 Y209.758 E19.27093
G1 X163.252 Y208.913 E19.30214
G1 X162.932 Y208.069 E19.33217
G1 X162.669 Y207.131 E19.36457
G1 X162.497 Y206.202 E19.39599
G1 X162.399 Y205.028 E19.43517
G1 X162.386 Y204.382 E19.45666
G1 X162.385 Y195.738 E19.74416
G1 X162.348 Y193.143 E19.83048
G1 X162.238 Y190.577 E19.91591
G1 X162.063 Y188.104 E19.99837
G1 X161.811 Y185.576 E20.08286
G1 X161.487 Y183.046 E20.1677
G1 X161.099 Y180.569 E20.25109
G1 X160.556 Y177.669 E20.34922
G1 X160.429 Y176.775 E20.37925
G1 X160.382 Y176.021 E20.40438
G1 X160.369 Y175.415 E20.42454
G1 X160.369 Y172.258 E20.52954
G1 X160.38 Y171.573 E20.55233
G1 X160.437 Y170.637 E20.58352
G1 X160.577 Y169.708 E20.61477
G1 X160.804 Y168.776 E20.64667
G1 X161.662 Y165.841 E20.74837
G1 X162.306 Y163.365 E20.83347
G1 X162.868 Y160.918 E20.91697
G1 X163.369 Y158.418 E21.00178
G1 X163.793 Y155.944 E21.08526
G1 X164.142 Y153.486 E21.16783
G1 X164.504 Y150.194 E21.27799
G1 X165.247 Y142.098 E21.54839
G1 X166.917 Y124.166 E22.14739
G1 X168.379 Y108.813 E22.66035
G1 X168.948 Y103.081 E22.85193
G1 X169.626 Y96.532 E23.07092
G1 X169.778 Y95.157 E23.11693
G1 X170.032 Y93.115 E23.18537
G1 X170.128 Y92.408 E23.2091
G1 X170.403 Y89.875 E23.29384
G1 X170.605 Y87.351 E23.37806
G1 X170.713 Y85.291 E23.44667
G1 X170.804 Y83.307 E23.51273
G1 X170.851 Y82.564 E23.53749
G1 X170.985 Y80.024 E23.62209
G1 X170.986 Y79.872 E23.62714
G1 X171.053 Y78.79 E23.6632
G1 X171.109 Y77.481 E23.70678
G1 X171.264 Y74.841 E23.79473
G1 X171.434 Y72.422 E23.87539
G1 X171.59 Y70.377 E23.9436
G1 X171.861 Y67.342 E24.04495
G1 X171.93 Y66.671 E24.06738
G1 X172.062 Y65.778 E24.09741
G1 X172.279 Y64.865 E24.12862
G1 X172.576 Y63.974 E24.15986
G0 F6000 X172.209 Y63.814
G1 F1200 X172.599 Y62.922 E24.19224
G1 X173.066 Y62.068 E24.22461
G1 X173.628 Y61.229 E24.2582
G1 X174.195 Y60.525 E24.28826
G1 X174.919 Y59.773 E24.32298
G1 X175.6 Y59.18 E24.35302
G1 X176.447 Y58.566 E24.38781
G1 X177.223 Y58.103 E24.41787
G1 X178.162 Y57.65 E24.45254
G1 X179.006 Y57.33 E24.48256
G1 X180.013 Y57.049 E24.51734
G1 X180.984 Y56.871 E24.55017
G1 X182.252 Y56.771 E24.59248
G1 X183.267 Y56.751 E24.62624
G1 X184.45 Y56.762 E24.66559
G1 X185.421 Y56.819 E24.69794
G1 X186.315 Y56.95 E24.72799
G1 X187.297 Y57.183 E24.76156
G1 X188.253 Y57.503 E24.79509
G1 X189.114 Y57.879 E24.82634
G1 X189.999 Y58.364 E24.85991
G1 X190.75 Y58.865 E24.88993
G1 X191.537 Y59.495 E24.92346
G1 X192.266 Y60.196 E24.9571
G1 X192.859 Y60.877 E24.98713
G1 X193.453 Y61.693 E25.0207
G1 X193.97 Y62.558 E25.05422
G1 X194.364 Y63.37 E25.08424
G1 X194.735 Y64.347 E25.119
G1 X194.98 Y65.216 E25.14903
G1 X195.214 Y66.566 E25.1946
G1 X195.32 Y67.551 E25.22755
G1 X195.586 Y70.499 E25.326
G1 X195.761 Y72.764 E25.40156
G1 X196 Y76.458 E25.52468
G1 X196.133 Y79.309 E25.6196
G1 X196.301 Y82.256 E25.71778
G1 X196.373 Y83.993 E25.7756
G1 X196.483 Y86.218 E25.8497
G1 X196.655 Y88.692 E25.93218
G1 X197.048 Y92.444 E26.05766
G1 X197.396 Y95.212 E26.15045
G1 X197.766 Y98.686 E26.26664
G1 X198.469 Y105.623 E26.49855
G1 X199.173 Y112.844 E26.73986
G1 X200.221 Y123.805 E27.10609
G1 X201.916 Y142.068 E27.71613
G1 X204.497 Y170.152 E28.65414
G1 X204.576 Y171.21 E28.68943
G1 X204.618 Y172.086 E28.7186
G1 X204.709 Y174.442 E28.79702
G1 X204.75 Y175.115 E28.81944
G1 X204.773 Y175.783 E28.84168
G1 X204.776 Y204.163 E29.7856
G1 X204.764 Y204.924 E29.81091
G1 X204.706 Y205.896 E29.8433
G1 X204.574 Y206.789 E29.87332
G1 X204.349 Y207.738 E29.90576
G1 X204.03 Y208.695 E29.93931
G1 X203.624 Y209.62 E29.97291
G1 X203.172 Y210.442 E30.00411
G1 X202.61 Y211.28 E30.03767
G1 X202.02 Y212.01 E30.06889
G1 X201.343 Y212.712 E30.10133
G1 X200.609 Y213.35 E30.13367
G1 X199.791 Y213.942 E30.16726
G1 X199.015 Y214.405 E30.19731
G1 X198.076 Y214.858 E30.23199
G1 X197.231 Y215.178 E30.26204
G1 X196.224 Y215.459 E30.29681
G1 X195.258 Y215.636 E30.32948
G1 X194.122 Y215.732 E30.3674
G1 X193.447 Y215.747 E30.38985
G1 X173.55 Y215.746 E31.05163
G1 X172.817 Y215.735 E31.07601
G1 X171.846 Y215.678 E31.10836
G1 X170.952 Y215.546 E31.13842
G1 X169.97 Y215.313 E31.17199
G1 X169.013 Y214.992 E31.20556
G1 X168.186 Y214.631 E31.23557
G1 X167.299 Y214.148 E31.26917
G1 X166.46 Y213.587 E31.30273
G1 X165.756 Y213.021 E31.33278
G1 X165.003 Y212.297 E31.36752
G1 X164.41 Y211.616 E31.39756
G1 X163.817 Y210.799 E31.43113
G1 X163.3 Y209.932 E31.46471
G1 X162.878 Y209.055 E31.49708
G1 X162.558 Y208.211 E31.5271
G1 X162.284 Y207.239 E31.56069
G1 X162.098 Y206.235 E31.59465
G1 X162 Y205.061 E31.63383
G1 X161.986 Y204.382 E31.65642
G1 X161.985 Y195.738 E31.94392
G1 X161.948 Y193.149 E32.03004
G1 X161.838 Y190.594 E32.1151
G1 X161.664 Y188.132 E32.19719
G1 X161.413 Y185.616 E32.28129
G1 X161.09 Y183.097 E32.36576
G1 X160.704 Y180.631 E32.44877
G1 X160.16 Y177.725 E32.54711
G1 X160.03 Y176.8 E32.57818
G1 X159.982 Y176.03 E32.60384
G1 X159.969 Y175.424 E32.624
G1 X159.969 Y172.252 E32.7295
G1 X159.981 Y171.549 E32.75288
G1 X160.041 Y170.577 E32.78527
G1 X160.188 Y169.613 E32.81771
G1 X160.42 Y168.664 E32.8502
G1 X161.278 Y165.729 E32.9519
G1 X161.919 Y163.264 E33.03662
G1 X162.478 Y160.828 E33.11974
G1 X162.977 Y158.339 E33.20418
G1 X163.399 Y155.876 E33.28729
G1 X163.744 Y153.442 E33.36905
G1 X164.107 Y150.15 E33.47921
G1 X164.849 Y142.061 E33.74938
G1 X166.519 Y124.128 E34.34841
G1 X167.981 Y108.773 E34.86143
G1 X168.55 Y103.04 E35.05305
G1 X169.228 Y96.488 E35.27214
G1 X169.381 Y95.108 E35.31832
G1 X169.636 Y93.061 E35.38693
G1 X169.73 Y92.365 E35.41028
G1 X170.005 Y89.832 E35.49503
G1 X170.207 Y87.319 E35.57888
G1 X170.313 Y85.273 E35.64702
G1 X170.405 Y83.282 E35.71331
G1 X170.452 Y82.539 E35.73807
G1 X170.585 Y80.021 E35.82194
G1 X170.587 Y79.847 E35.82773
G1 X170.653 Y78.773 E35.86352
G1 X170.71 Y77.458 E35.90729
G1 X170.865 Y74.813 E35.99542
G1 X171.035 Y72.392 E36.07614
G1 X171.192 Y70.341 E36.14456
G1 X171.463 Y67.301 E36.24607
G1 X171.534 Y66.613 E36.26907
G1 X171.666 Y65.72 E36.2991
G1 X171.89 Y64.773 E36.33146
G1 X172.209 Y63.814 E36.36508
G1 F2700 E31.36508
G0 F6000 X182.649 Y67.949
G1 F2700 E36.36508
G1 F1200 X184.113 Y67.949 E36.41377
G1 X184.478 Y72.015 E36.54955
G1 X184.473 Y72.022 E36.54984
G1 X184.463 Y72.095 E36.55229
G1 X184.5 Y72.785 E36.57527
G1 X184.501 Y72.793 E36.57554
G1 X184.651 Y74.36 E36.62789
G1 X184.635 Y74.375 E36.62862
G1 X184.608 Y74.481 E36.63226
G1 X184.627 Y75.111 E36.65322
G1 X184.628 Y75.119 E36.65349
G1 X184.663 Y75.605 E36.6697
G1 X184.663 Y75.614 E36.67
G1 X184.807 Y76.857 E36.71162
G1 X184.8 Y76.862 E36.7119
G1 X184.764 Y76.972 E36.71575
G1 X184.754 Y77.444 E36.73146
G1 X184.755 Y77.466 E36.73219
G1 X184.931 Y79.393 E36.79655
G1 X184.9 Y79.49 E36.79993
G1 X184.905 Y79.835 E36.81141
G1 X184.905 Y79.843 E36.81168
G1 X184.954 Y80.757 E36.84212
G1 X184.955 Y80.766 E36.84242
G1 X185.063 Y81.827 E36.87789
G1 X185.057 Y81.831 E36.87813
G1 X185.01 Y81.949 E36.88236
G1 X184.987 Y82.362 E36.89611
G1 X184.988 Y82.387 E36.89695
G1 X185.037 Y83.07 E36.91972
G1 X185.037 Y83.078 E36.91999
G1 X185.18 Y84.37 E36.96322
G1 X185.136 Y84.489 E36.96744
G1 X185.118 Y85.235 E36.99226
G1 X185.119 Y85.259 E36.99306
G1 X185.188 Y85.981 E37.01718
G1 X185.189 Y85.987 E37.01739
G1 X185.302 Y86.881 E37.04736
G1 X185.253 Y87.01 E37.05195
G1 X185.251 Y87.571 E37.07061
G1 X185.251 Y87.582 E37.07097
G1 X185.272 Y88.016 E37.08542
G1 X185.272 Y88.025 E37.08572
G1 X185.32 Y88.532 E37.10266
G1 X185.321 Y88.539 E37.1029
G1 X185.439 Y89.437 E37.13302
G1 X185.423 Y89.446 E37.13363
G1 X185.368 Y89.583 E37.13854
G1 X185.368 Y90.092 E37.15547
G1 X185.395 Y90.806 E37.17924
G1 X185.397 Y90.825 E37.17987
G1 X185.546 Y91.906 E37.21616
G1 X185.494 Y92.038 E37.22088
G1 X185.489 Y92.377 E37.23216
G1 X185.489 Y92.386 E37.23246
G1 X185.51 Y93.048 E37.25449
G1 X185.511 Y93.06 E37.25489
G1 X185.563 Y93.621 E37.27363
G1 X185.564 Y93.632 E37.274
G1 X185.672 Y94.376 E37.299
G1 X185.677 Y94.4 E37.29982
G1 X185.832 Y94.967 E37.31937
G1 X185.835 Y94.977 E37.31971
G1 X185.98 Y95.417 E37.33512
G1 X185.983 Y95.425 E37.33541
G1 X186.094 Y95.718 E37.34583
G1 X186.172 Y95.815 E37.34997
G1 X186.198 Y95.821 E37.35085
