;FLAVOR:Marlin
;TIME:6958
;Filament used: 3.77635m
;Layer height: 0.2
;MINX:154.669
;MINY:55.682
;MINZ:0.2
;MAXX:195.653
;MAXY:96.654
;MAXZ:133
;POSTPROCESSED
;Generated with Cura_SteamEngine 5.3.0
;
;

M82 ;absolute extrusion mode
M140 S75 ; start heating the bed
M104 S240 T0 ; start heating the hotend
M109 S240 T0 ; wait for hotend to hit target temp
M190 S75 ; wait for bed temp (should be there)
M105 ; report temp

M201 X500.00 Y500.00 Z100.00 E5000.00 ;Setup machine max acceleration
M203 X500.00 Y500.00 Z10.00 E50.00 ;Setup machine max feedrate
M204 P500.00 R1000.00 T500.00 ;Setup Print/Retract/Travel acceleration
M205 X8.00 Y8.00 Z0.40 E5.00 ;Setup Jerk
M220 S100 ;Reset Feedrate
M221 S100 ;Reset Flowrate

G28 ;Home

G92 E0 ;Reset Extruder
G1 Z2.0 F3000 ;Move Z Axis up
G1 X10.1 Y20 Z0.28 F5000.0 ;Move to start position
G1 X10.1 Y200.0 Z0.28 F1500.0 E20 ;Draw the first line (was E15)
G1 X10.4 Y200.0 Z0.28 F5000.0 ;Move to side a little
G1 X10.4 Y40 Z0.28 F1500.0 E30 ;Draw the second line (was Y20)
G92 E0 ;Reset Extruder
G1 Z2.0 F3000 ;Move Z Axis up
G92 E0
G92 E0
G1 F2700 E-5
;LAYER_COUNT:675
;LAYER:0
M107
G0 F6000 X156.419 Y70.643 Z0.2
;TYPE:SKIRT
G1 F2700 E0
G1 F1200 X156.812 Y69.83 E0.03003
G1 X157.275 Y69.055 E0.06006
G1 X157.805 Y68.323 E0.09012
G1 X158.398 Y67.642 E0.12015
G1 X158.893 Y67.155 E0.14325
G1 X159.854 Y66.273 E0.18663
G1 X161.733 Y64.497 E0.27263
G1 X163.544 Y62.687 E0.35779
G1 X165.294 Y60.837 E0.44249
G1 X165.835 Y60.237 E0.46936
G1 X166.205 Y59.84 E0.48741
G1 X166.85 Y59.207 E0.51746
G1 X167.547 Y58.634 E0.54747
G1 X168.293 Y58.124 E0.57753
G1 X169.081 Y57.683 E0.60757
G1 X169.905 Y57.313 E0.63761
G1 X170.758 Y57.018 E0.66763
G1 X171.635 Y56.799 E0.69769
G1 X172.301 Y56.686 E0.72016
G1 X172.804 Y56.618 E0.73704
G1 X173.47 Y56.55 E0.75931
G1 X174.037 Y56.511 E0.77821
G1 X174.583 Y56.486 E0.79639
G1 X175.721 Y56.482 E0.83424
G1 X178.13 Y56.532 E0.91438
G1 X180.394 Y56.52 E0.98968
G1 X181.175 Y56.509 E1.01566
G1 X182.375 Y56.519 E1.05558
G1 X183.277 Y56.567 E1.08562
G1 X184.171 Y56.694 E1.11565
G1 X185.05 Y56.9 E1.14568
G1 X185.908 Y57.182 E1.17572
G1 X186.737 Y57.54 E1.20575
G1 X187.532 Y57.969 E1.2358
G1 X188.17 Y58.384 E1.26111
G1 X188.917 Y58.911 E1.29152
G1 X190.07 Y59.762 E1.33918
G1 X190.771 Y60.332 E1.36923
G1 X191.419 Y60.961 E1.39927
G1 X192.009 Y61.644 E1.42929
G1 X192.536 Y62.378 E1.45934
G1 X192.996 Y63.155 E1.48937
G1 X193.386 Y63.97 E1.51942
G1 X193.666 Y64.708 E1.54568
G1 X194.172 Y66.221 E1.59874
G1 X194.397 Y66.947 E1.62402
G1 X194.626 Y67.82 E1.65404
G1 X194.776 Y68.711 E1.68409
G1 X194.848 Y69.611 E1.71412
G1 X194.853 Y70.086 E1.72992
G1 X194.842 Y70.994 E1.76012
G1 X194.814 Y72.077 E1.79615
G1 X194.821 Y74.618 E1.88067
G1 X194.842 Y75.446 E1.90822
G1 X194.839 Y76.642 E1.948
G1 X194.81 Y77.337 E1.97113
G1 X194.754 Y78.081 E1.99595
G1 X194.668 Y78.84 E2.02135
G1 X194.616 Y79.184 E2.03293
G1 X194.442 Y80.07 E2.06296
G1 X194.19 Y80.937 E2.09299
G1 X193.862 Y81.778 E2.12301
G1 X193.461 Y82.588 E2.15307
G1 X192.99 Y83.358 E2.18309
G1 X192.453 Y84.084 E2.21313
G1 X191.854 Y84.76 E2.24317
G1 X191.425 Y85.176 E2.26304
G1 X190.504 Y86.02 E2.30459
G1 X188.579 Y87.839 E2.39268
G1 X186.806 Y89.612 E2.47608
G1 X185.033 Y91.487 E2.56191
G1 X184.498 Y92.08 E2.58847
G1 X184.121 Y92.485 E2.60687
G1 X183.477 Y93.118 E2.63691
G1 X182.779 Y93.692 E2.66697
G1 X182.034 Y94.201 E2.69698
G1 X181.246 Y94.643 E2.72703
G1 X180.423 Y95.014 E2.75705
G1 X179.57 Y95.31 E2.78708
G1 X178.693 Y95.529 E2.81715
G1 X177.986 Y95.648 E2.84099
G1 X177.454 Y95.718 E2.85884
G1 X176.851 Y95.779 E2.879
G1 X176.278 Y95.82 E2.89811
G1 X175.826 Y95.842 E2.91316
G1 X175.073 Y95.854 E2.9382
G1 X173.602 Y95.832 E2.98714
G1 X172.641 Y95.806 E3.01911
G1 X168.765 Y95.819 E3.14803
G1 X167.889 Y95.808 E3.17717
G1 X166.987 Y95.755 E3.20722
G1 X166.094 Y95.622 E3.23725
G1 X165.216 Y95.411 E3.26728
G1 X164.36 Y95.124 E3.29731
G1 X163.533 Y94.761 E3.32735
G1 X162.741 Y94.327 E3.35739
G1 X162.177 Y93.958 E3.3798
G1 X161.214 Y93.279 E3.41899
G1 X160.254 Y92.568 E3.45873
G1 X159.553 Y91.999 E3.48876
G1 X158.905 Y91.37 E3.51879
G1 X158.315 Y90.686 E3.54884
G1 X157.788 Y89.953 E3.57886
G1 X157.328 Y89.176 E3.6089
G1 X156.938 Y88.361 E3.63895
G1 X156.677 Y87.68 E3.6632
G1 X156.327 Y86.65 E3.69939
G1 X155.944 Y85.44 E3.7416
G1 X155.709 Y84.568 E3.77164
G1 X155.553 Y83.678 E3.80169
G1 X155.477 Y82.779 E3.8317
G1 X155.469 Y82.244 E3.84949
G1 X155.48 Y81.325 E3.88006
G1 X155.509 Y80.211 E3.91712
G1 X155.5 Y77.663 E4.00187
G1 X155.48 Y76.86 E4.02859
G1 X155.477 Y75.943 E4.05909
G1 X155.496 Y75.322 E4.07975
G1 X155.546 Y74.502 E4.10708
G1 X155.627 Y73.699 E4.13392
G1 X155.691 Y73.245 E4.14917
G1 X155.856 Y72.357 E4.17921
G1 X156.1 Y71.488 E4.20923
G1 X156.419 Y70.643 E4.23927
G0 F6000 X156.059 Y70.469
G1 F1200 X156.452 Y69.656 E4.26931
G1 X156.951 Y68.82 E4.30169
G1 X157.503 Y68.06 E4.33293
G1 X158.096 Y67.379 E4.36296
G1 X158.623 Y66.86 E4.38756
G1 X159.579 Y65.982 E4.43074
G1 X161.458 Y64.206 E4.51673
G1 X163.261 Y62.404 E4.60151
G1 X165.003 Y60.562 E4.68584
G1 X165.542 Y59.964 E4.71261
G1 X165.912 Y59.567 E4.73066
G1 X166.596 Y58.898 E4.76249
G1 X167.321 Y58.304 E4.79366
G1 X168.067 Y57.794 E4.82372
G1 X168.917 Y57.318 E4.85612
G1 X169.774 Y56.935 E4.88734
G1 X170.627 Y56.64 E4.91736
G1 X171.538 Y56.411 E4.9486
G1 X172.247 Y56.29 E4.97252
G1 X172.763 Y56.22 E4.98984
G1 X173.443 Y56.151 E5.01258
G1 X174.019 Y56.111 E5.03178
G1 X174.582 Y56.086 E5.05052
G1 X175.729 Y56.082 E5.08867
G1 X178.136 Y56.132 E5.16875
G1 X180.388 Y56.12 E5.24365
G1 X181.178 Y56.109 E5.26993
G1 X182.396 Y56.12 E5.31044
G1 X183.333 Y56.171 E5.34165
G1 X184.227 Y56.298 E5.37168
G1 X185.175 Y56.52 E5.40407
G1 X186.067 Y56.815 E5.43532
G1 X186.927 Y57.188 E5.46649
G1 X187.722 Y57.617 E5.49654
G1 X188.401 Y58.057 E5.52345
G1 X189.155 Y58.589 E5.55414
G1 X190.308 Y59.44 E5.60181
G1 X191.05 Y60.045 E5.63365
G1 X191.698 Y60.674 E5.66369
G1 X192.334 Y61.411 E5.69606
G1 X192.88 Y62.174 E5.72727
G1 X193.357 Y62.982 E5.75848
G1 X193.747 Y63.797 E5.78853
G1 X194.045 Y64.581 E5.81642
G1 X194.554 Y66.103 E5.8698
G1 X194.784 Y66.846 E5.89567
G1 X195.013 Y67.719 E5.92569
G1 X195.175 Y68.679 E5.95807
G1 X195.247 Y69.579 E5.9881
G1 X195.253 Y70.091 E6.00513
G1 X195.242 Y71.004 E6.0355
G1 X195.214 Y72.087 E6.07153
G1 X195.221 Y74.608 E6.15538
G1 X195.242 Y75.447 E6.1833
G1 X195.239 Y76.659 E6.22361
G1 X195.209 Y77.367 E6.24718
G1 X195.151 Y78.126 E6.27249
G1 X195.064 Y78.9 E6.2984
G1 X195.009 Y79.261 E6.31055
G1 X194.835 Y80.147 E6.34058
G1 X194.563 Y81.082 E6.37296
G1 X194.235 Y81.923 E6.40299
G1 X193.802 Y82.797 E6.43543
G1 X193.312 Y83.596 E6.4666
G1 X192.775 Y84.322 E6.49664
G1 X192.132 Y85.047 E6.52887
G1 X191.695 Y85.471 E6.54912
G1 X190.779 Y86.311 E6.59046
G1 X188.854 Y88.13 E6.67855
G1 X187.089 Y89.895 E6.76157
G1 X185.324 Y91.762 E6.84702
G1 X184.791 Y92.353 E6.87349
G1 X184.414 Y92.758 E6.89189
G1 X183.731 Y93.427 E6.92369
G1 X183.005 Y94.022 E6.95491
G1 X182.23 Y94.55 E6.9861
G1 X181.442 Y94.992 E7.01615
G1 X180.587 Y95.379 E7.04737
G1 X179.701 Y95.688 E7.07858
G1 X178.79 Y95.917 E7.10982
G1 X178.038 Y96.045 E7.13519
G1 X177.494 Y96.116 E7.15344
G1 X176.88 Y96.178 E7.17396
G1 X176.297 Y96.22 E7.1934
G1 X175.832 Y96.242 E7.20889
G1 X175.067 Y96.254 E7.23433
G1 X173.591 Y96.232 E7.28343
G1 X172.631 Y96.206 E7.31537
G1 X168.76 Y96.219 E7.44412
G1 X167.866 Y96.207 E7.47386
G1 X166.928 Y96.151 E7.50511
G1 X166.035 Y96.018 E7.53514
G1 X165.123 Y95.8 E7.56633
G1 X164.199 Y95.49 E7.59875
G1 X163.341 Y95.112 E7.62993
G1 X162.522 Y94.662 E7.66101
G1 X161.947 Y94.285 E7.68388
G1 X160.976 Y93.6 E7.7234
G1 X160.002 Y92.879 E7.76371
G1 X159.274 Y92.286 E7.79494
G1 X158.626 Y91.657 E7.82498
G1 X157.99 Y90.92 E7.85735
G1 X157.463 Y90.187 E7.88738
G1 X156.967 Y89.349 E7.91977
G1 X156.564 Y88.504 E7.95091
G1 X156.298 Y87.809 E7.97566
G1 X155.946 Y86.771 E8.01211
G1 X155.558 Y85.544 E8.05491
G1 X155.315 Y84.637 E8.08614
G1 X155.154 Y83.712 E8.11737
G1 X155.078 Y82.813 E8.14738
G1 X155.069 Y82.239 E8.16647
G1 X155.08 Y81.315 E8.19721
G1 X155.109 Y80.201 E8.23427
G1 X155.1 Y77.664 E8.31865
G1 X155.08 Y76.861 E8.34537
G1 X155.077 Y75.931 E8.3763
G1 X155.097 Y75.298 E8.39737
G1 X155.148 Y74.462 E8.42522
G1 X155.231 Y73.643 E8.4526
G1 X155.298 Y73.172 E8.46843
G1 X155.471 Y72.249 E8.49966
G1 X155.715 Y71.38 E8.52968
G1 X156.059 Y70.469 E8.56207
G0 F6000 X155.699 Y70.295
G1 F1200 X156.092 Y69.482 E8.5921
G1 X156.627 Y68.585 E8.62684
G1 X157.201 Y67.797 E8.65927
G1 X157.794 Y67.116 E8.6893
G1 X158.352 Y66.565 E8.71538
G1 X159.308 Y65.687 E8.75856
G1 X161.183 Y63.915 E8.84436
G1 X162.978 Y62.121 E8.92877
G1 X164.712 Y60.287 E9.01272
G1 X165.249 Y59.691 E9.0394
G1 X165.632 Y59.281 E9.05806
G1 X166.316 Y58.612 E9.08988
G1 X167.095 Y57.974 E9.12337
G1 X167.841 Y57.464 E9.15343
G1 X168.754 Y56.953 E9.18823
G1 X169.643 Y56.557 E9.2206
G1 X170.529 Y56.252 E9.25176
G1 X171.44 Y56.023 E9.283
G1 X172.193 Y55.894 E9.30841
G1 X172.723 Y55.822 E9.3262
G1 X173.415 Y55.752 E9.34934
G1 X174.001 Y55.711 E9.36888
G1 X174.581 Y55.686 E9.38818
G1 X175.737 Y55.682 E9.42663
G1 X178.142 Y55.732 E9.50664
G1 X181.182 Y55.709 E9.60776
G1 X182.418 Y55.721 E9.64887
G1 X183.389 Y55.775 E9.68121
G1 X184.283 Y55.902 E9.71125
G1 X185.301 Y56.14 E9.74602
G1 X186.193 Y56.435 E9.77727
G1 X187.117 Y56.836 E9.81077
G1 X187.94 Y57.281 E9.84189
G1 X188.632 Y57.73 E9.86932
G1 X189.393 Y58.267 E9.9003
G1 X190.561 Y59.13 E9.9486
G1 X191.329 Y59.758 E9.9816
G1 X191.977 Y60.387 E10.01163
G1 X192.659 Y61.178 E10.04637
G1 X193.205 Y61.941 E10.07758
G1 X193.718 Y62.809 E10.11111
G1 X194.108 Y63.624 E10.14116
G1 X194.424 Y64.454 E10.1707
G1 X194.936 Y65.985 E10.2244
G1 X195.171 Y66.745 E10.25085
G1 X195.4 Y67.618 E10.28087
G1 X195.574 Y68.647 E10.31558
G1 X195.646 Y69.547 E10.34561
G1 X195.653 Y70.096 E10.36387
G1 X195.642 Y71.014 E10.39441
G1 X195.614 Y72.097 E10.43044
G1 X195.621 Y74.598 E10.51363
G1 X195.642 Y75.448 E10.54191
G1 X195.639 Y76.676 E10.58275
G1 X195.608 Y77.397 E10.60675
G1 X195.548 Y78.171 E10.63257
G1 X195.459 Y78.96 E10.65898
G1 X195.402 Y79.338 E10.6717
G1 X195.228 Y80.224 E10.70173
G1 X194.936 Y81.227 E10.73647
G1 X194.608 Y82.068 E10.7665
G1 X194.143 Y83.006 E10.80132
G1 X193.634 Y83.834 E10.83364
G1 X193.097 Y84.56 E10.86368
G1 X192.411 Y85.334 E10.89808
G1 X191.965 Y85.766 E10.91873
G1 X191.054 Y86.602 E10.95985
G1 X189.129 Y88.421 E11.04794
G1 X187.372 Y90.178 E11.13059
G1 X185.615 Y92.037 E11.21566
G1 X185.084 Y92.626 E11.24204
G1 X184.694 Y93.044 E11.26105
G1 X184.011 Y93.713 E11.29285
G1 X183.23 Y94.353 E11.32644
G1 X182.426 Y94.899 E11.35876
G1 X181.638 Y95.341 E11.38881
G1 X180.719 Y95.757 E11.42236
G1 X179.833 Y96.066 E11.45357
G1 X178.888 Y96.305 E11.48599
G1 X178.09 Y96.442 E11.51292
G1 X177.534 Y96.514 E11.53157
G1 X176.909 Y96.577 E11.55246
G1 X176.316 Y96.62 E11.57224
G1 X175.838 Y96.642 E11.58815
G1 X175.061 Y96.654 E11.614
G1 X173.58 Y96.632 E11.66326
G1 X172.621 Y96.606 E11.69517
G1 X168.755 Y96.619 E11.82375
G1 X167.842 Y96.606 E11.85412
G1 X166.869 Y96.547 E11.88655
G1 X165.976 Y96.414 E11.91657
G1 X165.03 Y96.189 E11.94892
G1 X164.038 Y95.856 E11.98372
G1 X163.148 Y95.463 E12.01608
G1 X162.329 Y95.013 E12.04716
G1 X161.716 Y94.612 E12.07152
G1 X160.738 Y93.921 E12.11135
G1 X159.749 Y93.189 E12.15228
G1 X158.995 Y92.573 E12.18466
G1 X158.347 Y91.944 E12.2147
G1 X157.665 Y91.154 E12.24941
G1 X157.138 Y90.421 E12.27943
G1 X156.606 Y89.521 E12.31421
G1 X156.19 Y88.647 E12.3464
G1 X155.919 Y87.937 E12.37168
G1 X155.565 Y86.892 E12.40838
G1 X155.172 Y85.648 E12.45177
G1 X154.921 Y84.706 E12.48419
G1 X154.755 Y83.746 E12.51659
G1 X154.679 Y82.847 E12.5466
G1 X154.669 Y82.234 E12.56699
G1 X154.68 Y81.305 E12.59789
G1 X154.709 Y80.191 E12.63496
G1 X154.7 Y77.665 E12.71897
G1 X154.68 Y76.862 E12.74569
G1 X154.677 Y75.918 E12.77709
G1 X154.698 Y75.274 E12.79852
G1 X154.75 Y74.422 E12.82691
G1 X154.835 Y73.587 E12.85482
G1 X154.905 Y73.098 E12.87125
G1 X155.086 Y72.141 E12.90365
G1 X155.33 Y71.272 E12.93367
G1 X155.699 Y70.295 E12.96841
G1 F2700 E7.96841
G0 F6000 X166.481 Y80.479
G1 F2700 E12.96841
G1 F1200 X168.089 Y79.309 E13.03455
G1 X170.071 Y79.309 E13.10047
G1 X171.679 Y80.479 E13.16661
G1 X172.292 Y82.364 E13.23254
G1 X171.679 Y84.249 E13.29846
G1 X170.071 Y85.419 E13.36461
G1 X168.089 Y85.419 E13.43053
G1 X166.481 Y84.249 E13.49667
G1 X165.868 Y82.364 E13.5626
G1 X166.481 Y80.479 E13.62852
G0 F6000 X166.822 Y80.725
G1 F1200 X168.218 Y79.709 E13.68595
G1 X169.942 Y79.709 E13.74329
G1 X171.338 Y80.725 E13.80072
G1 X171.871 Y82.364 E13.85804
G1 X171.338 Y84.003 E13.91536
G1 X169.942 Y85.019 E13.97279
G1 X168.218 Y85.019 E14.03013
G1 X166.822 Y84.003 E14.08756
G1 X166.289 Y82.364 E14.14488
G1 X166.822 Y80.725 E14.2022
G0 F6000 X167.162 Y80.973
G1 F1200 X168.349 Y80.109 E14.25103
G1 X169.811 Y80.109 E14.29966
G1 X170.998 Y80.973 E14.34849
G1 X171.451 Y82.364 E14.39715
G1 X170.998 Y83.755 E14.4458
G1 X169.811 Y84.619 E14.49463
G1 X168.349 Y84.619 E14.54326
G1 X167.162 Y83.755 E14.59209
G1 X166.709 Y82.364 E14.64075
G1 X167.162 Y80.973 E14.6894
G0 F6000 X167.501 Y81.22
G1 F1200 X168.479 Y80.509 E14.72962
G1 X169.681 Y80.509 E14.7696
G1 X170.659 Y81.22 E14.80981
G1 X171.03 Y82.364 E14.84982
G1 X170.659 Y83.508 E14.88982
G1 X169.681 Y84.219 E14.93003
G1 X168.479 Y84.219 E14.97001
G1 X167.501 Y83.508 E15.01023
G1 X167.13 Y82.364 E15.05023
G1 X167.501 Y81.22 E15.09023
G0 F6000 X167.843 Y81.466
G1 F1200 X168.608 Y80.909 E15.1217
G1 X169.552 Y80.909 E15.1531
G1 X170.317 Y81.466 E15.18457
G1 X170.609 Y82.364 E15.21598
G1 X170.317 Y83.262 E15.24739
G1 X169.552 Y83.819 E15.27886
G1 X168.608 Y83.819 E15.31026
G1 X167.843 Y83.262 E15.34173
G1 X167.551 Y82.364 E15.37314
G1 X167.843 Y81.466 E15.40455
G0 F6000 X168.182 Y81.715
G1 F1200 X168.74 Y81.309 E15.4275
G1 X169.42 Y81.309 E15.45011
G1 X169.978 Y81.715 E15.47307
G1 X170.189 Y82.364 E15.49576
G1 X169.978 Y83.013 E15.51846
G1 X169.42 Y83.419 E15.54141
G1 X168.74 Y83.419 E15.56403
G1 X168.182 Y83.013 E15.58698
G1 X167.971 Y82.364 E15.60968
G1 X168.182 Y81.715 E15.63238
G0 F6000 X168.524 Y81.96
G1 F1200 X168.869 Y81.709 E15.64657
G1 X169.291 Y81.709 E15.6606
G1 X169.636 Y81.96 E15.6748
G1 X169.768 Y82.364 E15.68893
G1 X169.636 Y82.768 E15.70307
G1 X169.291 Y83.019 E15.71726
G1 X168.869 Y83.019 E15.73129
G1 X168.524 Y82.768 E15.74548
G1 X168.392 Y82.364 E15.75962
G1 X168.524 Y81.96 E15.77376
G0 F6000 X168.863 Y82.208
G1 F1200 X168.999 Y82.109 E15.77935
G1 X169.161 Y82.109 E15.78474
G1 X169.297 Y82.208 E15.79033
G1 X169.348 Y82.364 E15.79579
G1 X169.297 Y82.52 E15.80125
G1 X169.161 Y82.619 E15.80685
G1 X168.999 Y82.619 E15.81223
G1 X168.863 Y82.52 E15.81783
G1 X168.812 Y82.364 E15.82329
G1 X168.863 Y82.208 E15.82875
G1 F2700 E10.82875
G0 F6000 X165.21 Y78.319
G0 X165.003 Y76.519
G0 X165.053 Y75.098
G0 X165.21 Y74.009
G0 X173.006 Y66.213
G0 X174.807 Y66.006
G0 X176.229 Y66.056
G0 X177.316 Y66.213
G0 X178.643 Y71.849
G1 F2700 E15.82875
G1 F1200 X178.03 Y69.964 E15.89467
G1 X178.643 Y68.079 E15.9606
G1 X180.251 Y66.909 E16.02674
G1 X182.233 Y66.909 E16.09266
G1 X183.841 Y68.079 E16.15881
G1 X184.454 Y69.964 E16.22473
G1 X183.841 Y71.849 E16.29066
G1 X182.233 Y73.019 E16.3568
G1 X180.251 Y73.019 E16.42272
G1 X178.643 Y71.849 E16.48886
G0 F6000 X178.984 Y71.603
G1 F1200 X178.451 Y69.964 E16.54619
G1 X178.984 Y68.325 E16.60351
G1 X180.38 Y67.309 E16.66094
G1 X182.104 Y67.309 E16.71828
G1 X183.5 Y68.325 E16.7757
G1 X184.033 Y69.964 E16.83303
G1 X183.5 Y71.603 E16.89035
G1 X182.104 Y72.619 E16.94778
G1 X180.38 Y72.619 E17.00512
G1 X178.984 Y71.603 E17.06254
G0 F6000 X179.324 Y71.355
G1 F1200 X178.871 Y69.964 E17.1112
G1 X179.324 Y68.573 E17.15986
G1 X180.511 Y67.709 E17.20869
G1 X181.973 Y67.709 E17.25731
G1 X183.16 Y68.573 E17.30615
G1 X183.613 Y69.964 E17.3548
G1 X183.16 Y71.355 E17.40346
G1 X181.973 Y72.219 E17.45229
G1 X180.511 Y72.219 E17.50092
G1 X179.324 Y71.355 E17.54975
G0 F6000 X179.663 Y71.108
G1 F1200 X179.292 Y69.964 E17.58975
G1 X179.663 Y68.82 E17.62975
G1 X180.641 Y68.109 E17.66996
G1 X181.843 Y68.109 E17.70994
G1 X182.821 Y68.82 E17.75016
