;FLAVOR:Marlin
;TIME:5660
;Filament used: 4.09097m
;Layer height: 0.2
;MINX:165.007
;MINY:12.945
;MINZ:0.2
;MAXX:201.757
;MAXY:171.713
;MAXZ:17.8
;POSTPROCESSED
;Generated with Cura_SteamEngine 5.3.0
;
;

M82 ;absolute extrusion mode
M140 S75 ; start heating the bed
M104 S240 T0 ; start heating the hotend
M109 S240 T0 ; wait for hotend to hit target temp
M190 S75 ; wait for bed temp (should be there)
M105 ; report temp

M201 X500.00 Y500.00 Z100.00 E5000.00 ;Setup machine max acceleration
M203 X500.00 Y500.00 Z10.00 E50.00 ;Setup machine max feedrate
M204 P500.00 R1000.00 T500.00 ;Setup Print/Retract/Travel acceleration
M205 X8.00 Y8.00 Z0.40 E5.00 ;Setup Jerk
M220 S100 ;Reset Feedrate
M221 S100 ;Reset Flowrate

G28 ;Home

G92 E0 ;Reset Extruder
G1 Z2.0 F3000 ;Move Z Axis up
G1 X10.1 Y20 Z0.28 F5000.0 ;Move to start position
G1 X10.1 Y200.0 Z0.28 F1500.0 E20 ;Draw the first line (was E15)
G1 X10.4 Y200.0 Z0.28 F5000.0 ;Move to side a little
G1 X10.4 Y40 Z0.28 F1500.0 E30 ;Draw the second line (was Y20)
G92 E0 ;Reset Extruder
G1 Z2.0 F3000 ;Move Z Axis up
G92 E0
G92 E0
G1 F2700 E-5
;LAYER_COUNT:90
;LAYER:0
M107
G0 F6000 X172.332 Y23.154 Z0.2
;TYPE:SKIRT
G1 F2700 E0
G1 F1200 X172.506 Y22.146 E0.03402
G1 X172.705 Y21.265 E0.06406
G1 X172.981 Y20.405 E0.0941
G1 X173.332 Y19.573 E0.12414
G1 X173.756 Y18.775 E0.15419
G1 X174.248 Y18.018 E0.18422
G1 X174.805 Y17.307 E0.21426
G1 X175.423 Y16.649 E0.24429
G1 X176.097 Y16.047 E0.27434
G1 X176.822 Y15.508 E0.30439
G1 X177.591 Y15.035 E0.33442
G1 X178.399 Y14.632 E0.36445
G1 X179.239 Y14.301 E0.39448
G1 X180.106 Y14.047 E0.42453
G1 X180.992 Y13.87 E0.45458
G1 X181.889 Y13.772 E0.48459
G1 X182.452 Y13.751 E0.50333
G1 X183.113 Y13.745 E0.52532
G1 X184.389 Y13.762 E0.56776
G1 X185.29 Y13.816 E0.59778
G1 X186.183 Y13.95 E0.62781
G1 X187.061 Y14.162 E0.65786
G1 X187.917 Y14.451 E0.6879
G1 X188.743 Y14.814 E0.71791
G1 X189.535 Y15.25 E0.74798
G1 X190.285 Y15.753 E0.77802
G1 X190.987 Y16.321 E0.80805
G1 X191.636 Y16.949 E0.83809
G1 X192.227 Y17.631 E0.86811
G1 X192.756 Y18.363 E0.89814
G1 X193.218 Y19.14 E0.92821
G1 X193.609 Y19.954 E0.95825
G1 X193.927 Y20.799 E0.98828
G1 X194.168 Y21.669 E1.0183
G1 X194.263 Y22.13 E1.03396
G1 X194.395 Y22.887 E1.05951
G1 X194.486 Y23.545 E1.08161
G1 X194.641 Y24.94 E1.12829
G1 X194.835 Y27.067 E1.19933
G1 X194.994 Y29.15 E1.26881
G1 X195.117 Y31.255 E1.33894
G1 X195.206 Y32.629 E1.38474
G1 X195.28 Y34.112 E1.43412
G1 X195.367 Y35.572 E1.48277
G1 X195.418 Y36.753 E1.52209
G1 X195.511 Y38.497 E1.58018
G1 X195.545 Y39.387 E1.6098
G1 X195.653 Y41.596 E1.68336
G1 X195.803 Y44.427 E1.77765
G1 X195.871 Y46.058 E1.83194
G1 X195.922 Y47.022 E1.86405
G1 X195.966 Y48.118 E1.90053
G1 X196.065 Y49.985 E1.96272
G1 X196.102 Y50.927 E1.99407
G1 X196.159 Y52.046 E2.03134
G1 X196.202 Y53.166 E2.06862
G1 X196.278 Y54.61 E2.11671
G1 X196.346 Y56.281 E2.17234
G1 X196.417 Y57.676 E2.21879
G1 X196.605 Y61.915 E2.35992
G1 X196.713 Y63.889 E2.42568
G1 X196.868 Y67.464 E2.54469
G1 X196.889 Y68.108 E2.56612
G1 X197.096 Y72.774 E2.72147
G1 X197.14 Y73.593 E2.74875
G1 X197.229 Y75.764 E2.82102
G1 X197.367 Y78.288 E2.90509
G1 X197.493 Y81.449 E3.01031
G1 X197.898 Y87.941 E3.22665
G1 X197.942 Y88.543 E3.24673
G1 X198.075 Y90.737 E3.31984
G1 X198.122 Y91.373 E3.34105
G1 X198.283 Y94.112 E3.4323
G1 X198.354 Y95.134 E3.46638
G1 X198.392 Y95.848 E3.49016
G1 X198.756 Y101.496 E3.6784
G1 X198.78 Y101.961 E3.69389
G1 X199.355 Y110.918 E3.99241
G1 X199.467 Y112.934 E4.05957
G1 X199.601 Y114.967 E4.12733
G1 X199.643 Y115.395 E4.14164
G1 X199.711 Y116.565 E4.18062
G1 X199.903 Y119.497 E4.27834
G1 X200.136 Y122.029 E4.36292
G1 X200.441 Y124.543 E4.44714
G1 X200.641 Y125.85 E4.49112
G1 X200.844 Y127.265 E4.53867
G1 X200.942 Y128.405 E4.57672
G1 X200.957 Y129.044 E4.59798
G1 X200.956 Y130.153 E4.63487
G1 X200.946 Y130.85 E4.65805
G1 X200.899 Y131.691 E4.68607
G1 X200.81 Y132.606 E4.71664
G1 X200.688 Y133.697 E4.75316
G1 X200.474 Y136.236 E4.8379
G1 X200.334 Y138.732 E4.92105
G1 X200.253 Y142.62 E5.05039
G1 X200.251 Y160.132 E5.63285
G1 X200.241 Y160.847 E5.65663
G1 X200.188 Y161.748 E5.68665
G1 X200.056 Y162.642 E5.71671
G1 X199.846 Y163.52 E5.74673
G1 X199.558 Y164.376 E5.77677
G1 X199.196 Y165.203 E5.8068
G1 X198.762 Y165.995 E5.83683
G1 X198.26 Y166.746 E5.86688
G1 X197.693 Y167.449 E5.89692
G1 X197.067 Y168.099 E5.92693
G1 X196.385 Y168.692 E5.95699
G1 X195.654 Y169.222 E5.98702
G1 X194.878 Y169.685 E6.01708
G1 X194.065 Y170.077 E6.0471
G1 X193.22 Y170.396 E6.07714
G1 X192.35 Y170.639 E6.10718
G1 X191.462 Y170.805 E6.13723
G1 X190.325 Y170.9 E6.17518
G1 X189.718 Y170.913 E6.19537
G1 X188.438 Y170.912 E6.23794
G1 X187.611 Y170.899 E6.26545
G1 X184.746 Y170.815 E6.36079
G1 X182.217 Y170.815 E6.4449
G1 X178.569 Y170.912 E6.56628
G1 X177.287 Y170.912 E6.60892
G1 X176.589 Y170.903 E6.63213
G1 X175.688 Y170.852 E6.66215
G1 X174.794 Y170.72 E6.69221
G1 X173.916 Y170.511 E6.72222
G1 X173.059 Y170.224 E6.75228
G1 X172.232 Y169.863 E6.7823
G1 X171.439 Y169.43 E6.81235
G1 X170.688 Y168.929 E6.84237
G1 X169.984 Y168.363 E6.87242
G1 X169.333 Y167.737 E6.90246
G1 X168.74 Y167.056 E6.93249
G1 X168.21 Y166.325 E6.96252
G1 X167.746 Y165.55 E6.99256
G1 X167.352 Y164.737 E7.02261
G1 X167.032 Y163.893 E7.05263
G1 X166.788 Y163.023 E7.08269
G1 X166.622 Y162.135 E7.11273
G1 X166.524 Y160.96 E7.15195
G1 X166.512 Y160.347 E7.17234
G1 X166.511 Y142.55 E7.76427
G1 X166.474 Y139.942 E7.85102
G1 X166.365 Y137.374 E7.93651
G1 X166.19 Y134.899 E8.01904
G1 X165.882 Y131.866 E8.12044
G1 X165.82 Y130.985 E8.14981
G1 X165.807 Y130.388 E8.16967
G1 X165.807 Y129.232 E8.20812
G1 X165.817 Y128.571 E8.23011
G1 X165.871 Y127.669 E8.26016
G1 X165.935 Y127.174 E8.27676
G1 X166.039 Y126.5 E8.29944
G1 X166.413 Y123.857 E8.38823
G1 X166.696 Y121.36 E8.47181
G1 X166.912 Y118.797 E8.55736
G1 X167.064 Y116.266 E8.64169
G1 X167.16 Y114.885 E8.68773
G1 X167.198 Y114.129 E8.71291
G1 X167.305 Y112.574 E8.76475
G1 X167.354 Y111.672 E8.7948
G1 X167.498 Y109.602 E8.86381
G1 X167.779 Y105.074 E9.0147
G1 X167.824 Y104.459 E9.03521
G1 X167.905 Y103.114 E9.08003
G1 X167.922 Y102.953 E9.08541
G1 X168.052 Y100.773 E9.15805
G1 X168.133 Y99.671 E9.1948
G1 X168.163 Y99.068 E9.21488
G1 X168.242 Y97.907 E9.25359
G1 X168.284 Y97.085 E9.28096
G1 X168.302 Y96.892 E9.28741
G1 X168.467 Y94.277 E9.37456
G1 X168.606 Y91.838 E9.45581
G1 X168.683 Y90.81 E9.4901
G1 X168.853 Y88.002 E9.58366
G1 X168.922 Y87.068 E9.61481
G1 X168.993 Y85.793 E9.65728
G1 X169.098 Y84.283 E9.70763
G1 X169.167 Y83.034 E9.74923
G1 X169.289 Y81.258 E9.80844
G1 X169.416 Y78.163 E9.91147
G1 X169.538 Y75.681 E9.99412
G1 X169.589 Y74.382 E10.03736
G1 X169.7 Y72.205 E10.10986
G1 X169.814 Y69.391 E10.20353
G1 X169.876 Y68.138 E10.24526
G1 X169.919 Y66.96 E10.28446
G1 X170.04 Y64.455 E10.36788
G1 X170.169 Y61.404 E10.46944
G1 X170.22 Y60.505 E10.49939
G1 X170.259 Y59.465 E10.53401
G1 X170.275 Y59.265 E10.54068
G1 X170.391 Y56.874 E10.6203
G1 X170.441 Y55.594 E10.66291
G1 X170.561 Y53.132 E10.74489
G1 X170.613 Y51.758 E10.79062
G1 X170.63 Y51.556 E10.79736
G1 X170.693 Y50.35 E10.83753
G1 X170.794 Y47.879 E10.91978
G1 X170.896 Y45.908 E10.98543
G1 X170.979 Y43.917 E11.05171
G1 X171.062 Y42.517 E11.09835
G1 X171.157 Y40.67 E11.15987
G1 X171.213 Y39.341 E11.20411
G1 X171.349 Y36.523 E11.29794
G1 X171.508 Y33.526 E11.39776
G1 X171.643 Y31.215 E11.47476
G1 X171.645 Y31.044 E11.48045
G1 X171.957 Y26.774 E11.62285
G1 X172.139 Y24.778 E11.68951
G1 X172.233 Y23.89 E11.71921
G1 X172.332 Y23.154 E11.74391
G0 F6000 X171.938 Y23.086
G1 F1200 X172.116 Y22.058 E11.77861
G1 X172.324 Y21.143 E11.80982
G1 X172.612 Y20.25 E11.84103
G1 X172.963 Y19.418 E11.87106
G1 X173.403 Y18.587 E11.90234
G1 X173.933 Y17.771 E11.9347
G1 X174.513 Y17.033 E11.96592
G1 X175.131 Y16.375 E11.99594
G1 X175.858 Y15.726 E12.02835
G1 X176.612 Y15.167 E12.05957
G1 X177.381 Y14.694 E12.0896
G1 X178.22 Y14.274 E12.12081
G1 X179.127 Y13.917 E12.15323
G1 X179.994 Y13.663 E12.18328
G1 X180.949 Y13.472 E12.21567
G1 X181.846 Y13.374 E12.24568
G1 X182.448 Y13.351 E12.26572
G1 X183.118 Y13.345 E12.288
G1 X184.413 Y13.363 E12.33108
G1 X185.349 Y13.42 E12.36227
G1 X186.242 Y13.554 E12.3923
G1 X187.155 Y13.773 E12.42353
G1 X188.045 Y14.072 E12.45476
G1 X188.904 Y14.448 E12.48594
G1 X189.758 Y14.918 E12.51837
G1 X190.537 Y15.442 E12.54959
G1 X191.239 Y16.01 E12.57963
G1 X191.938 Y16.687 E12.61199
G1 X192.529 Y17.369 E12.64201
G1 X193.1 Y18.159 E12.67443
G1 X193.579 Y18.967 E12.70567
G1 X193.97 Y19.781 E12.7357
G1 X194.312 Y20.692 E12.76807
G1 X194.56 Y21.588 E12.79899
G1 X194.657 Y22.061 E12.81505
G1 X194.791 Y22.832 E12.84108
G1 X194.884 Y23.501 E12.86354
G1 X195.039 Y24.904 E12.91049
G1 X195.234 Y27.037 E12.98173
G1 X195.393 Y29.127 E13.05145
G1 X195.516 Y31.229 E13.12148
G1 X195.606 Y32.609 E13.16747
G1 X195.679 Y34.092 E13.21686
G1 X195.767 Y35.555 E13.26561
G1 X195.817 Y36.736 E13.30492
G1 X195.911 Y38.482 E13.36308
G1 X195.945 Y39.367 E13.39253
G1 X196.052 Y41.576 E13.46609
G1 X196.203 Y44.41 E13.56049
G1 X196.27 Y46.041 E13.61478
G1 X196.322 Y47.006 E13.64692
G1 X196.365 Y48.102 E13.6834
G1 X196.465 Y49.969 E13.74559
G1 X196.501 Y50.911 E13.77694
G1 X196.559 Y52.031 E13.81424
G1 X196.601 Y53.151 E13.85152
G1 X196.678 Y54.594 E13.89958
G1 X196.745 Y56.265 E13.95521
G1 X196.817 Y57.658 E14.0016
G1 X197.004 Y61.897 E14.14273
G1 X197.113 Y63.872 E14.20851
G1 X197.268 Y67.451 E14.32766
G1 X197.289 Y68.09 E14.34893
G1 X197.495 Y72.756 E14.50427
G1 X197.54 Y73.577 E14.53162
G1 X197.628 Y75.748 E14.60389
G1 X197.767 Y78.272 E14.68796
G1 X197.893 Y81.433 E14.79318
G1 X198.297 Y87.912 E15.00909
G1 X198.341 Y88.519 E15.02933
G1 X198.474 Y90.708 E15.10227
G1 X198.521 Y91.35 E15.12368
G1 X198.682 Y94.084 E15.21478
G1 X198.753 Y95.113 E15.24908
G1 X198.791 Y95.822 E15.2727
G1 X199.155 Y101.475 E15.46111
G1 X199.179 Y101.935 E15.47643
G1 X199.754 Y110.896 E15.77508
G1 X199.866 Y112.908 E15.84211
G1 X199.999 Y114.928 E15.90944
G1 X200.042 Y115.372 E15.92427
G1 X200.11 Y116.539 E15.96315
G1 X200.301 Y119.46 E16.06051
G1 X200.533 Y121.981 E16.14472
G1 X200.836 Y124.482 E16.22851
G1 X201.037 Y125.793 E16.27262
G1 X201.243 Y127.231 E16.32094
G1 X201.341 Y128.371 E16.359
G1 X201.357 Y129.044 E16.38139
G1 X201.356 Y130.159 E16.41847
G1 X201.345 Y130.872 E16.44219
G1 X201.297 Y131.73 E16.47077
G1 X201.208 Y132.65 E16.50151
G1 X201.086 Y133.741 E16.53803
G1 X200.872 Y136.27 E16.62244
G1 X200.734 Y138.74 E16.70472
G1 X200.653 Y142.628 E16.83406
G1 X200.651 Y160.138 E17.41645
G1 X200.641 Y160.853 E17.44023
G1 X200.584 Y161.806 E17.47199
G1 X200.452 Y162.7 E17.50204
G1 X200.225 Y163.648 E17.53447
G1 X199.937 Y164.504 E17.5645
G1 X199.547 Y165.395 E17.59685
G1 X199.095 Y166.217 E17.62805
G1 X198.593 Y166.968 E17.6581
G1 X197.981 Y167.726 E17.6905
G1 X197.329 Y168.401 E17.72172
G1 X196.62 Y169.016 E17.75293
G1 X195.859 Y169.566 E17.78416
G1 X195.083 Y170.029 E17.81422
G1 X194.239 Y170.437 E17.8454
G1 X193.328 Y170.781 E17.87778
G1 X192.424 Y171.032 E17.90899
G1 X191.495 Y171.204 E17.94041
G1 X190.334 Y171.3 E17.97916
G1 X189.727 Y171.313 E17.99935
G1 X188.432 Y171.312 E18.04243
G1 X187.599 Y171.299 E18.07013
G1 X184.734 Y171.215 E18.16547
G1 X182.228 Y171.215 E18.24882
G1 X178.58 Y171.312 E18.37019
G1 X177.282 Y171.312 E18.41336
G1 X176.566 Y171.302 E18.43718
G1 X175.63 Y171.248 E18.46836
G1 X174.736 Y171.116 E18.49842
G1 X173.823 Y170.9 E18.52962
G1 X172.899 Y170.591 E18.56203
G1 X172.072 Y170.23 E18.59204
G1 X171.217 Y169.763 E18.62444
G1 X170.437 Y169.241 E18.65566
G1 X169.733 Y168.675 E18.68571
G1 X169.031 Y168 E18.7181
G1 X168.438 Y167.319 E18.74813
G1 X167.886 Y166.56 E18.77935
G1 X167.386 Y165.724 E18.81174
G1 X166.978 Y164.879 E18.84295
G1 X166.658 Y164.035 E18.87298
G1 X166.395 Y163.097 E18.90538
G1 X166.223 Y162.168 E18.9368
G1 X166.125 Y160.993 E18.97602
G1 X166.112 Y160.347 E18.99751
G1 X166.111 Y142.55 E19.58944
G1 X166.074 Y139.948 E19.67599
G1 X165.965 Y137.391 E19.76111
G1 X165.791 Y134.927 E19.84327
G1 X165.483 Y131.894 E19.94467
G1 X165.42 Y130.994 E19.97467
G1 X165.407 Y130.397 E19.99454
G1 X165.407 Y129.226 E20.03348
G1 X165.418 Y128.547 E20.05607
G1 X165.474 Y127.618 E20.08702
G1 X165.54 Y127.113 E20.10396
G1 X165.644 Y126.439 E20.12665
G1 X166.017 Y123.801 E20.21526
G1 X166.297 Y121.326 E20.2981
G1 X166.514 Y118.763 E20.38365
G1 X166.665 Y116.238 E20.46779
G1 X166.761 Y114.857 E20.51383
G1 X166.799 Y114.102 E20.53897
G1 X166.906 Y112.547 E20.59081
G1 X166.955 Y111.644 E20.62089
G1 X167.099 Y109.574 E20.68991
G1 X167.38 Y105.045 E20.84083
G1 X167.425 Y104.43 E20.86134
G1 X167.507 Y103.072 E20.90659
G1 X167.524 Y102.911 E20.91198
G1 X167.653 Y100.744 E20.98418
G1 X167.733 Y99.651 E21.02063
G1 X167.764 Y99.041 E21.04094
G1 X167.843 Y97.88 E21.07965
G1 X167.886 Y97.048 E21.10736
G1 X167.904 Y96.855 E21.1138
G1 X168.068 Y94.252 E21.20055
G1 X168.207 Y91.808 E21.28197
G1 X168.284 Y90.78 E21.31626
G1 X168.454 Y87.973 E21.40979
G1 X168.523 Y87.039 E21.44094
G1 X168.594 Y85.765 E21.48338
G1 X168.699 Y84.255 E21.53372
G1 X168.768 Y83.007 E21.57529
G1 X168.889 Y81.242 E21.63414
G1 X169.016 Y78.143 E21.7373
G1 X169.138 Y75.661 E21.81995
G1 X169.19 Y74.362 E21.86319
G1 X169.3 Y72.189 E21.93555
G1 X169.414 Y69.371 E22.02936
G1 X169.476 Y68.118 E22.07108
G1 X169.519 Y66.941 E22.11026
G1 X169.64 Y64.436 E22.19367
G1 X169.77 Y61.381 E22.29537
G1 X169.82 Y60.49 E22.32505
G1 X169.86 Y59.433 E22.36024
G1 X169.876 Y59.233 E22.36691
G1 X169.991 Y56.855 E22.44609
G1 X170.041 Y55.575 E22.4887
G1 X170.161 Y53.113 E22.57068
G1 X170.214 Y51.724 E22.61691
G1 X170.232 Y51.522 E22.62366
G1 X170.293 Y50.334 E22.66322
G1 X170.395 Y47.858 E22.74565
G1 X170.496 Y45.891 E22.81116
G1 X170.58 Y43.893 E22.87767
G1 X170.663 Y42.493 E22.92431
G1 X170.757 Y40.653 E22.98559
G1 X170.813 Y39.322 E23.0299
G1 X170.95 Y36.502 E23.1238
G1 X171.109 Y33.503 E23.22369
G1 X171.243 Y31.209 E23.30012
G1 X171.246 Y31.015 E23.30657
G1 X171.559 Y26.738 E23.44921
G1 X171.741 Y24.736 E23.51607
G1 X171.837 Y23.837 E23.54614
G1 X171.938 Y23.086 E23.57134
G0 F6000 X171.544 Y23.018
G1 F1200 X171.726 Y21.969 E23.60675
G1 X171.943 Y21.02 E23.63913
G1 X172.231 Y20.127 E23.67034
G1 X172.609 Y19.231 E23.70269
G1 X173.049 Y18.4 E23.73396
G1 X173.598 Y17.553 E23.76753
G1 X174.221 Y16.759 E23.8011
G1 X174.839 Y16.101 E23.83112
G1 X175.62 Y15.405 E23.86592
G1 X176.402 Y14.826 E23.89828
G1 X177.171 Y14.353 E23.92831
G1 X178.041 Y13.916 E23.96069
G1 X179.015 Y13.533 E23.9955
G1 X179.882 Y13.279 E24.02555
G1 X180.906 Y13.074 E24.06028
G1 X181.803 Y12.976 E24.09029
G1 X182.444 Y12.951 E24.11163
G1 X183.124 Y12.945 E24.13425
G1 X184.437 Y12.964 E24.17792
G1 X185.408 Y13.024 E24.21028
G1 X186.301 Y13.158 E24.24031
G1 X187.248 Y13.384 E24.2727
G1 X188.172 Y13.693 E24.3051
G1 X189.097 Y14.098 E24.33869
G1 X189.981 Y14.586 E24.37227
G1 X190.789 Y15.131 E24.40469
G1 X191.491 Y15.699 E24.43472
G1 X192.24 Y16.425 E24.46942
G1 X192.831 Y17.107 E24.49943
G1 X193.444 Y17.955 E24.53423
G1 X193.94 Y18.794 E24.56665
G1 X194.331 Y19.608 E24.59669
G1 X194.698 Y20.585 E24.6314
G1 X194.946 Y21.481 E24.66232
G1 X195.051 Y21.993 E24.6797
G1 X195.187 Y22.777 E24.70617
G1 X195.282 Y23.457 E24.729
G1 X195.437 Y24.868 E24.77622
G1 X195.633 Y27.007 E24.84766
G1 X195.792 Y29.104 E24.9176
G1 X195.915 Y31.203 E24.98754
G1 X196.006 Y32.589 E25.03374
G1 X196.078 Y34.072 E25.08312
G1 X196.167 Y35.538 E25.13197
G1 X196.216 Y36.719 E25.17128
G1 X196.311 Y38.467 E25.22951
G1 X196.345 Y39.348 E25.25883
G1 X196.451 Y41.557 E25.33239
G1 X196.603 Y44.394 E25.42688
G1 X196.669 Y46.025 E25.48117
G1 X196.722 Y46.99 E25.51332
G1 X196.764 Y48.086 E25.5498
G1 X196.865 Y49.954 E25.61202
G1 X196.9 Y50.896 E25.64337
G1 X196.959 Y52.016 E25.68067
G1 X197 Y53.136 E25.71795
G1 X197.078 Y54.578 E25.76598
G1 X197.144 Y56.249 E25.8216
G1 X197.217 Y57.64 E25.86793
G1 X197.403 Y61.879 E26.00906
G1 X197.513 Y63.855 E26.07488
G1 X197.668 Y67.438 E26.19416
G1 X197.689 Y68.072 E26.21526
G1 X197.894 Y72.738 E26.3706
G1 X197.94 Y73.561 E26.39802
G1 X198.027 Y75.732 E26.47028
G1 X198.167 Y78.256 E26.55436
G1 X198.293 Y81.417 E26.65958
