;FLAVOR:Marlin
;TIME:2195
;Filament used: 3.01769m
;Layer height: 0.2
;MINX:108.242
;MINY:164.179
;MINZ:0.2
;MAXX:167.684
;MAXY:231.262
;MAXZ:36
;POSTPROCESSED
;Generated with Cura_SteamEngine 5.3.0
;
;

M82 ;absolute extrusion mode
M140 S70 ; start heating the bed
M104 S240 T0 ; start heating the hotend
M109 S240 T0 ; wait for hotend to hit target temp
M190 S70 ; wait for bed temp (should be there)
M105 ; report temp

M201 X500.00 Y500.00 Z100.00 E5000.00 ;Setup machine max acceleration
M203 X500.00 Y500.00 Z10.00 E50.00 ;Setup machine max feedrate
M204 P500.00 R1000.00 T500.00 ;Setup Print/Retract/Travel acceleration
M205 X8.00 Y8.00 Z0.40 E5.00 ;Setup Jerk
M220 S100 ;Reset Feedrate
M221 S100 ;Reset Flowrate

G28 ;Home

G92 E0 ;Reset Extruder
G1 Z2.0 F3000 ;Move Z Axis up
G1 X10.1 Y20 Z0.28 F5000.0 ;Move to start position
G1 X10.1 Y200.0 Z0.28 F1500.0 E20 ;Draw the first line (was E15)
G1 X10.4 Y200.0 Z0.28 F5000.0 ;Move to side a little
G1 X10.4 Y40 Z0.28 F1500.0 E30 ;Draw the second line (was Y20)
G92 E0 ;Reset Extruder
G1 Z2.0 F3000 ;Move Z Axis up
G92 E0
G92 E0
G1 F3000 E-6
;LAYER_COUNT:180
;LAYER:0
M107
G0 F6000 X116.063 Y167.232 Z0.2
;TYPE:SKIRT
G1 F3000 E0
G1 F900 X117.137 Y166.562 E0.0421
G1 X118.368 Y165.909 E0.08845
G1 X119.299 Y165.497 E0.12231
G1 X120.676 Y164.998 E0.17102
G1 X121.736 Y164.698 E0.20767
G1 X122.983 Y164.437 E0.25004
G1 X124.327 Y164.256 E0.29514
G1 X125.54 Y164.179 E0.33557
G1 X126.547 Y164.179 E0.36906
G1 X127.761 Y164.256 E0.40952
G1 X129.091 Y164.435 E0.45416
G1 X130.3 Y164.688 E0.49524
G1 X131.508 Y165.031 E0.53701
G1 X132.598 Y165.424 E0.57554
G1 X133.967 Y166.034 E0.62539
G1 X134.841 Y166.5 E0.65834
G1 X136.09 Y167.279 E0.7073
G1 X137.025 Y167.963 E0.74583
G1 X138.052 Y168.832 E0.79057
G1 X138.763 Y169.518 E0.82343
G1 X139.595 Y170.434 E0.86459
G1 X140.521 Y171.62 E0.91464
G1 X141.196 Y172.628 E0.95499
G1 X141.719 Y173.535 E0.98981
G1 X142.306 Y174.74 E1.03439
G1 X142.818 Y176.014 E1.08006
G1 X143.123 Y176.956 E1.11299
G1 X143.479 Y178.411 E1.16281
G1 X143.687 Y179.637 E1.20417
G1 X143.808 Y180.875 E1.24554
G1 X143.842 Y182.103 E1.2864
G1 X143.808 Y183.09 E1.31925
G1 X143.685 Y184.322 E1.36043
G1 X143.47 Y185.576 E1.40275
G1 X143.134 Y186.926 E1.44902
G1 X142.722 Y188.183 E1.49301
G1 X142.513 Y188.698 E1.5115
G1 X142.513 Y205.2 E2.06036
G1 X142.825 Y206.033 E2.08994
G1 X142.904 Y206.398 E2.10236
G1 X142.861 Y207.624 E2.14317
G1 X142.655 Y208.521 E2.17378
G1 X142.138 Y209.523 E2.21128
G1 X141.955 Y209.899 E2.22519
G1 X141.693 Y210.544 E2.24834
G1 X141.531 Y211.035 E2.26554
G1 X141.381 Y211.639 E2.28624
G1 X141.279 Y212.225 E2.30602
G1 X141.215 Y212.843 E2.32669
G1 X141.192 Y213.477 E2.34779
G1 X141.215 Y214.116 E2.36905
G1 X141.269 Y214.673 E2.38767
G1 X141.381 Y215.299 E2.40882
G1 X141.503 Y215.798 E2.4259
G1 X141.712 Y216.447 E2.44858
G1 X141.953 Y217.041 E2.4699
G1 X142.177 Y217.5 E2.48689
G1 X142.524 Y218.102 E2.51
G1 X142.829 Y218.554 E2.52814
G1 X143.228 Y219.067 E2.54975
G1 X143.617 Y219.499 E2.56909
G1 X144.079 Y219.945 E2.59044
G1 X144.507 Y220.307 E2.60909
G1 X145.06 Y220.708 E2.63181
G1 X145.525 Y220.999 E2.65005
G1 X146.014 Y221.259 E2.66847
G1 X146.641 Y221.537 E2.69129
G1 X147.195 Y221.738 E2.71089
G1 X147.809 Y221.913 E2.73212
G1 X148.394 Y222.039 E2.75203
G1 X148.963 Y222.12 E2.77114
G1 X149.586 Y222.163 E2.79191
G1 X150.186 Y222.163 E2.81187
G1 X150.81 Y222.12 E2.83267
G1 X151.378 Y222.039 E2.85175
G1 X151.968 Y221.912 E2.87183
G1 X152.602 Y221.733 E2.89374
G1 X153.164 Y221.53 E2.91361
G1 X153.68 Y221.298 E2.93243
G1 X154.253 Y220.993 E2.95402
G1 X154.702 Y220.712 E2.97164
G1 X155.265 Y220.304 E2.99476
G1 X155.689 Y219.945 E3.01324
G1 X156.151 Y219.5 E3.03458
G1 X156.559 Y219.047 E3.05485
G1 X156.924 Y218.577 E3.07464
G1 X157.246 Y218.1 E3.09379
G1 X157.598 Y217.489 E3.11724
G1 X157.831 Y217.012 E3.1349
G1 X158.071 Y216.414 E3.15633
G1 X158.253 Y215.852 E3.17598
G1 X158.388 Y215.301 E3.19484
G1 X158.502 Y214.657 E3.2166
G1 X158.554 Y214.119 E3.23457
G1 X158.577 Y213.464 E3.25637
G1 X158.554 Y212.844 E3.27701
G1 X158.492 Y212.24 E3.2972
G1 X158.385 Y211.629 E3.31783
G1 X158.239 Y211.043 E3.33792
G1 X158.072 Y210.536 E3.35567
G1 X157.813 Y209.899 E3.37855
G1 X157.613 Y209.489 E3.39372
G1 X157.076 Y208.451 E3.43259
G1 X156.99 Y208.159 E3.44271
G1 X156.88 Y206.953 E3.48299
G1 X156.911 Y206.22 E3.50739
G1 X157.362 Y204.823 E3.55622
G1 X158.327 Y203.558 E3.60914
G1 X159.482 Y202.84 E3.65437
G1 X159.965 Y202.621 E3.67201
G1 X160.973 Y202.456 E3.70598
G1 X161.891 Y202.419 E3.73654
G1 X163.228 Y202.747 E3.78233
G1 X163.644 Y202.968 E3.79799
G1 X164.621 Y203.675 E3.83811
G1 X165.329 Y204.596 E3.87674
G1 X165.955 Y205.815 E3.92232
G1 X166.162 Y206.267 E3.93886
G1 X166.66 Y207.514 E3.98352
G1 X166.965 Y208.456 E4.01645
G1 X167.321 Y209.911 E4.06627
G1 X167.529 Y211.137 E4.10763
G1 X167.65 Y212.376 E4.14903
G1 X167.684 Y213.618 E4.19036
G1 X167.631 Y214.845 E4.23121
G1 X167.527 Y215.832 E4.26422
G1 X167.318 Y217.048 E4.30525
G1 X166.976 Y218.426 E4.35248
G1 X166.564 Y219.69 E4.39669
G1 X166.17 Y220.659 E4.43149
G1 X165.633 Y221.767 E4.47244
G1 X164.911 Y223.017 E4.52045
G1 X164.357 Y223.839 E4.55342
G1 X163.485 Y224.953 E4.60047
G1 X162.708 Y225.814 E4.63905
G1 X161.692 Y226.792 E4.68595
G1 X160.932 Y227.429 E4.71893
G1 X159.816 Y228.24 E4.76482
G1 X158.799 Y228.874 E4.80468
G1 X157.559 Y229.532 E4.85137
G1 X156.603 Y229.954 E4.88612
G1 X155.25 Y230.444 E4.93399
G1 X154.19 Y230.743 E4.97062
G1 X152.943 Y231.004 E5.01299
G1 X151.599 Y231.185 E5.0581
G1 X150.375 Y231.262 E5.09889
G1 X149.128 Y231.253 E5.14036
G1 X148.154 Y231.185 E5.17284
G1 X146.834 Y231.006 E5.21714
G1 X145.626 Y230.753 E5.25819
G1 X144.418 Y230.41 E5.29996
G1 X143.329 Y230.017 E5.33847
G1 X141.959 Y229.407 E5.38835
G1 X141.083 Y228.94 E5.42136
G1 X139.839 Y228.163 E5.47015
G1 X138.9 Y227.477 E5.50882
G1 X137.874 Y226.609 E5.55352
G1 X137.163 Y225.922 E5.58641
G1 X136.333 Y225.009 E5.62745
G1 X135.404 Y223.819 E5.67766
G1 X134.791 Y222.904 E5.71429
G1 X134.155 Y221.801 E5.75664
G1 X133.592 Y220.632 E5.79979
G1 X133.109 Y219.427 E5.84297
G1 X132.804 Y218.485 E5.8759
G1 X132.483 Y217.206 E5.91976
G1 X132.24 Y215.806 E5.96702
G1 X132.118 Y214.564 E6.00853
G1 X132.084 Y213.324 E6.04979
G1 X132.137 Y212.096 E6.09067
G1 X132.242 Y211.109 E6.12368
G1 X132.45 Y209.894 E6.16468
G1 X132.793 Y208.512 E6.21204
G1 X133.191 Y207.299 E6.2545
G1 X133.413 Y206.753 E6.27411
G1 X133.413 Y190.265 E6.8225
G1 X133.152 Y189.74 E6.842
G1 X133.011 Y188.334 E6.889
G1 X133.063 Y187.777 E6.9076
G1 X133.397 Y186.648 E6.94676
G1 X133.811 Y185.877 E6.97587
G1 X133.98 Y185.53 E6.98871
G1 X134.24 Y184.885 E7.01184
G1 X134.408 Y184.371 E7.02982
G1 X134.545 Y183.815 E7.04887
G1 X134.652 Y183.196 E7.06976
G1 X134.716 Y182.571 E7.09066
G1 X134.738 Y181.96 E7.11099
G1 X134.716 Y181.355 E7.13113
G1 X134.647 Y180.72 E7.15237
G1 X134.534 Y180.083 E7.17389
G1 X134.403 Y179.556 E7.19195
G1 X134.232 Y179.035 E7.21019
G1 X134.002 Y178.47 E7.23048
G1 X133.688 Y177.822 E7.25443
G1 X133.466 Y177.44 E7.26913
G1 X133.011 Y176.767 E7.29615
G1 X132.732 Y176.408 E7.31127
G1 X132.284 Y175.914 E7.33345
G1 X131.874 Y175.519 E7.35238
G1 X131.384 Y175.109 E7.37363
G1 X130.876 Y174.74 E7.39452
G1 X130.389 Y174.435 E7.41363
G1 X129.903 Y174.177 E7.43193
G1 X129.272 Y173.897 E7.45489
G1 X128.741 Y173.704 E7.47368
G1 X128.125 Y173.53 E7.49497
G1 X127.531 Y173.402 E7.51518
G1 X126.964 Y173.321 E7.53423
G1 X126.34 Y173.278 E7.55504
G1 X125.741 Y173.278 E7.57496
G1 X125.117 Y173.321 E7.59576
G1 X124.549 Y173.402 E7.61485
G1 X123.958 Y173.529 E7.63495
G1 X123.319 Y173.709 E7.65703
G1 X122.763 Y173.91 E7.67669
G1 X122.251 Y174.139 E7.69535
G1 X121.692 Y174.437 E7.71642
G1 X121.193 Y174.748 E7.73598
G1 X120.692 Y175.114 E7.75661
G1 X120.232 Y175.5 E7.77658
G1 X119.773 Y175.942 E7.79778
G1 X119.396 Y176.361 E7.81652
G1 X118.99 Y176.878 E7.83839
G1 X118.677 Y177.344 E7.85706
G1 X118.359 Y177.892 E7.87813
G1 X118.11 Y178.402 E7.89701
G1 X117.859 Y179.022 E7.91926
G1 X117.674 Y179.583 E7.9389
G1 X117.549 Y180.083 E7.95605
G1 X117.436 Y180.732 E7.97796
G1 X117.373 Y181.34 E7.99829
G1 X117.349 Y181.979 E8.01955
G1 X117.37 Y182.587 E8.03979
G1 X117.43 Y183.18 E8.05961
G1 X117.54 Y183.814 E8.08101
G1 X117.674 Y184.358 E8.09965
G1 X117.855 Y184.917 E8.11919
G1 X118.088 Y185.494 E8.13989
G1 X118.863 Y187.035 E8.19726
G1 X119.056 Y188.097 E8.23316
G1 X119.003 Y189.052 E8.26497
G1 X118.855 Y189.869 E8.29259
G1 X118.352 Y190.896 E8.33062
G1 X117.782 Y191.66 E8.36233
G1 X116.922 Y192.329 E8.39857
G1 X116.062 Y192.773 E8.43076
G1 X115.037 Y192.985 E8.46557
G1 X114.203 Y193.048 E8.49339
G1 X112.951 Y192.787 E8.53593
G1 X111.712 Y192.135 E8.58249
G1 X111.515 Y191.967 E8.5911
G1 X110.675 Y190.984 E8.63411
G1 X110.03 Y189.745 E8.68057
G1 X109.749 Y189.132 E8.703
G1 X109.266 Y187.927 E8.74617
G1 X108.961 Y186.984 E8.77914
G1 X108.605 Y185.53 E8.82893
G1 X108.397 Y184.303 E8.87032
G1 X108.276 Y183.064 E8.91173
G1 X108.242 Y181.824 E8.95298
G1 X108.295 Y180.596 E8.99386
G1 X108.399 Y179.609 E9.02687
G1 X108.608 Y178.393 E9.06791
G1 X108.95 Y177.015 E9.11513
G1 X109.362 Y175.751 E9.15935
G1 X109.756 Y174.781 E9.19417
G1 X110.261 Y173.738 E9.23272
G1 X111.026 Y172.416 E9.28352
G1 X111.723 Y171.397 E9.32458
G1 X112.352 Y170.594 E9.35851
G1 X113.174 Y169.673 E9.39957
G1 X114.234 Y168.652 E9.44852
G1 X115.038 Y167.978 E9.48341
G1 X116.063 Y167.232 E9.52558
G0 F6000 X116.298 Y167.556
G1 F900 X117.349 Y166.901 E9.56676
G1 X118.53 Y166.275 E9.61122
G1 X119.461 Y165.863 E9.64508
G1 X120.785 Y165.383 E9.69192
G1 X121.818 Y165.09 E9.72764
G1 X123.065 Y164.829 E9.77001
G1 X124.353 Y164.655 E9.81324
G1 X125.54 Y164.579 E9.8528
G1 X126.547 Y164.579 E9.88629
G1 X127.735 Y164.655 E9.92589
G1 X129.009 Y164.827 E9.96864
G1 X130.218 Y165.08 E10.00973
G1 X131.398 Y165.416 E10.05053
G1 X132.462 Y165.8 E10.08816
G1 X133.779 Y166.387 E10.13612
G1 X134.653 Y166.853 E10.16906
G1 X135.854 Y167.602 E10.21614
G1 X136.767 Y168.269 E10.25374
G1 X137.774 Y169.12 E10.29759
G1 X138.485 Y169.806 E10.33045
G1 X139.299 Y170.703 E10.37074
G1 X140.189 Y171.843 E10.41884
G1 X140.849 Y172.828 E10.45828
G1 X141.372 Y173.735 E10.4931
G1 X141.935 Y174.889 E10.53581
G1 X142.437 Y176.137 E10.58055
G1 X142.742 Y177.079 E10.61348
G1 X143.085 Y178.478 E10.66139
G1 X143.289 Y179.676 E10.70181
G1 X143.408 Y180.886 E10.74225
G1 X143.442 Y182.089 E10.78228
G1 X143.408 Y183.076 E10.81512
G1 X143.287 Y184.282 E10.85544
G1 X143.082 Y185.48 E10.89586
G1 X142.754 Y186.802 E10.94117
G1 X142.351 Y188.033 E10.98425
G1 X142.113 Y188.62 E11.00531
G1 X142.113 Y205.273 E11.5592
G1 X142.45 Y206.173 E11.59116
G1 X142.502 Y206.432 E11.59995
G1 X142.462 Y207.572 E11.63789
G1 X142.276 Y208.382 E11.66553
G1 X141.782 Y209.34 E11.70138
G1 X141.595 Y209.724 E11.71558
G1 X141.315 Y210.411 E11.74026
G1 X141.148 Y210.92 E11.75808
G1 X140.989 Y211.56 E11.78001
G1 X140.882 Y212.171 E11.80064
G1 X140.815 Y212.818 E11.82227
G1 X140.791 Y213.477 E11.84421
G1 X140.815 Y214.137 E11.86617
G1 X140.873 Y214.731 E11.88602
G1 X140.987 Y215.371 E11.90765
G1 X141.122 Y215.921 E11.92648
G1 X141.335 Y216.581 E11.94955
G1 X141.588 Y217.205 E11.97194
G1 X141.83 Y217.7 E11.99027
G1 X142.18 Y218.307 E12.01357
G1 X142.513 Y218.8 E12.03336
G1 X142.918 Y219.32 E12.05528
G1 X143.33 Y219.779 E12.0758
G1 X143.81 Y220.242 E12.09798
G1 X144.26 Y220.622 E12.11757
G1 X144.831 Y221.036 E12.14103
G1 X145.326 Y221.346 E12.16045
G1 X145.843 Y221.621 E12.17993
G1 X146.49 Y221.908 E12.20347
G1 X147.071 Y222.119 E12.22403
G1 X147.712 Y222.301 E12.24619
G1 X148.321 Y222.433 E12.26692
G1 X148.921 Y222.518 E12.28707
G1 X149.574 Y222.563 E12.30884
G1 X150.198 Y222.563 E12.3296
G1 X150.852 Y222.518 E12.3514
G1 X151.451 Y222.433 E12.37152
G1 X152.06 Y222.301 E12.39225
G1 X152.724 Y222.114 E12.41519
G1 X153.318 Y221.899 E12.43621
G1 X153.853 Y221.659 E12.45571
G1 X154.452 Y221.34 E12.47828
G1 X154.931 Y221.04 E12.49708
G1 X155.504 Y220.625 E12.52061
G1 X155.958 Y220.241 E12.54039
G1 X156.443 Y219.774 E12.56278
G1 X156.866 Y219.304 E12.58381
G1 X157.24 Y218.823 E12.60408
G1 X157.592 Y218.302 E12.62499
G1 X157.945 Y217.689 E12.64852
G1 X158.194 Y217.18 E12.66736
G1 X158.45 Y216.543 E12.6902
G1 X158.634 Y215.975 E12.71005
G1 X158.78 Y215.382 E12.73037
G1 X158.898 Y214.715 E12.7529
G1 X158.954 Y214.14 E12.77211
G1 X158.978 Y213.463 E12.79464
G1 X158.954 Y212.819 E12.81608
G1 X158.889 Y212.186 E12.83724
G1 X158.777 Y211.547 E12.85882
G1 X158.623 Y210.931 E12.87994
G1 X158.449 Y210.401 E12.89849
G1 X158.181 Y209.741 E12.92218
G1 X157.973 Y209.314 E12.93798
G1 X157.431 Y208.267 E12.97719
G1 X157.388 Y208.122 E12.98222
G1 X157.28 Y206.97 E13.02071
G1 X157.309 Y206.291 E13.04331
G1 X157.722 Y205.011 E13.08805
G1 X158.601 Y203.859 E13.13624
G1 X159.693 Y203.18 E13.17901
G1 X160.082 Y203.008 E13.19316
G1 X161.038 Y202.851 E13.22538
G1 X161.854 Y202.821 E13.25254
G1 X163.083 Y203.123 E13.29463
G1 X163.41 Y203.292 E13.30687
G1 X164.339 Y203.964 E13.34501
G1 X164.989 Y204.81 E13.38049
G1 X165.591 Y205.982 E13.42432
G1 X165.798 Y206.434 E13.44085
G1 X166.279 Y207.637 E13.48394
G1 X166.584 Y208.579 E13.51687
G1 X166.927 Y209.978 E13.56478
G1 X167.131 Y211.176 E13.6052
G1 X167.25 Y212.387 E13.64567
G1 X167.284 Y213.601 E13.68607
G1 X167.233 Y214.803 E13.72608
G1 X167.129 Y215.79 E13.75909
G1 X166.924 Y216.98 E13.79926
G1 X166.596 Y218.302 E13.84456
G1 X166.193 Y219.539 E13.88783
G1 X165.799 Y220.508 E13.92262
G1 X165.286 Y221.567 E13.96176
G1 X164.579 Y222.793 E14.00883
G1 X164.025 Y223.615 E14.0418
G1 X163.188 Y224.685 E14.08698
G1 X162.411 Y225.546 E14.12556
G1 X161.435 Y226.485 E14.1706
G1 X160.675 Y227.122 E14.20358
G1 X159.604 Y227.901 E14.24763
G1 X158.587 Y228.535 E14.28749
G1 X157.397 Y229.166 E14.33229
G1 X156.441 Y229.588 E14.36705
G1 X155.141 Y230.059 E14.41304
G1 X154.108 Y230.351 E14.44874
G1 X152.861 Y230.612 E14.49112
G1 X151.574 Y230.786 E14.53431
G1 X150.378 Y230.862 E14.57417
G1 X149.156 Y230.854 E14.61482
G1 X148.182 Y230.786 E14.64729
G1 X146.916 Y230.614 E14.68978
G1 X145.708 Y230.361 E14.73083
G1 X144.528 Y230.025 E14.77164
G1 X143.465 Y229.641 E14.80923
G1 X142.147 Y229.054 E14.85722
G1 X141.271 Y228.587 E14.89024
G1 X140.075 Y227.84 E14.93714
G1 X139.158 Y227.171 E14.97489
G1 X138.152 Y226.321 E15.0187
G1 X137.441 Y225.634 E15.05158
G1 X136.629 Y224.74 E15.09175
G1 X135.736 Y223.596 E15.14002
G1 X135.138 Y222.704 E15.17574
G1 X134.502 Y221.601 E15.21808
G1 X133.953 Y220.459 E15.26023
G1 X133.49 Y219.304 E15.30162
G1 X133.185 Y218.362 E15.33455
G1 X132.871 Y217.109 E15.37751
G1 X132.638 Y215.767 E15.42281
G1 X132.518 Y214.553 E15.46339
G1 X132.484 Y213.341 E15.50372
G1 X132.535 Y212.138 E15.54376
G1 X132.64 Y211.151 E15.57678
G1 X132.844 Y209.962 E15.6169
G1 X133.173 Y208.637 E15.66231
G1 X133.562 Y207.45 E15.70385
G1 X133.813 Y206.833 E15.72601
G1 X133.813 Y190.171 E16.28019
G1 X133.543 Y189.628 E16.30036
G1 X133.413 Y188.331 E16.34371
G1 X133.457 Y187.857 E16.35955
G1 X133.771 Y186.796 E16.39635
G1 X134.163 Y186.066 E16.42391
G1 X134.346 Y185.691 E16.43779
G1 X134.615 Y185.023 E16.46174
G1 X134.792 Y184.481 E16.4807
G1 X134.937 Y183.895 E16.50078
G1 X135.049 Y183.248 E16.52262
G1 X135.115 Y182.6 E16.54428
G1 X135.139 Y181.96 E16.56558
G1 X135.116 Y181.329 E16.58659
G1 X135.044 Y180.666 E16.60877
G1 X134.928 Y180.013 E16.63083
G1 X134.787 Y179.445 E16.65029
G1 X134.608 Y178.898 E16.66943
G1 X134.362 Y178.295 E16.69109
G1 X134.042 Y177.635 E16.71549
G1 X133.802 Y177.223 E16.73135
G1 X133.343 Y176.543 E16.75864
G1 X133.037 Y176.149 E16.77523
G1 X132.568 Y175.632 E16.79844
